( pcb2gcode 2.0.0 )
( Software-independent Gcode )

G94 ( Inches per minute feed rate. )
G20 ( Units == INCHES. )

G90 ( Absolute coordinates. )
G00 S30000 ( RPM spindle speed. )
G64 P0.00040 ( set maximum deviation from commanded toolpath )
G01 F6.00000 ( Feedrate. )


G00 Z1.00000 (Retract to tool change height)
T0
M5      (Spindle stop.)
G04 P1.00000 (Wait for spindle to stop)
(MSG, Change tool bit to mill diameter 0.20000in)
M6      (Tool change.)
M0      (Temporary machine stop.)
M3 ( Spindle on clockwise. )
G04 P1.00000 (Wait for spindle to get up to speed)
G04 P0 ( dwell for no time -- G64 should not smooth over this point )
G00 Z0.08000 ( retract )

G00 X0.13250 Y0.00000 F20.00000 ( rapid move to begin. )
G01 F3.00000
G01 Z-0.00800
G04 P0 ( dwell for no time -- G64 should not smooth over this point )
G01 F6.00000
G01 X0.13250 Y0.00000
G01 X0.13250 Y10.00000
G01 X0.13139 Y10.01614
G01 X0.12757 Y10.03537
G01 X0.12572 Y10.04147
G01 X0.11822 Y10.05958
G01 X0.11521 Y10.06519
G01 X0.10432 Y10.08150
G01 X0.10028 Y10.08642
G01 X0.08642 Y10.10028
G01 X0.08149 Y10.10432
G01 X0.06520 Y10.11521
G01 X0.05958 Y10.11822
G01 X0.04147 Y10.12572
G01 X0.03537 Y10.12757
G01 X0.01614 Y10.13139
G01 X-0.00000 Y10.13250
G01 X-10.00000 Y10.13250
G01 X-10.01614 Y10.13139
G01 X-10.03537 Y10.12757
G01 X-10.04147 Y10.12572
G01 X-10.05958 Y10.11822
G01 X-10.06519 Y10.11521
G01 X-10.08150 Y10.10432
G01 X-10.08642 Y10.10028
G01 X-10.10028 Y10.08642
G01 X-10.10432 Y10.08150
G01 X-10.11521 Y10.06519
G01 X-10.11822 Y10.05958
G01 X-10.12572 Y10.04147
G01 X-10.12757 Y10.03537
G01 X-10.13139 Y10.01614
G01 X-10.13250 Y10.00000
G01 X-10.13250 Y0.00000
G01 X-10.13139 Y-0.01614
G01 X-10.12757 Y-0.03537
G01 X-10.12572 Y-0.04147
G01 X-10.11822 Y-0.05958
G01 X-10.11521 Y-0.06520
G01 X-10.10432 Y-0.08149
G01 X-10.10028 Y-0.08642
G01 X-10.08642 Y-0.10028
G01 X-10.08150 Y-0.10432
G01 X-10.06519 Y-0.11521
G01 X-10.05958 Y-0.11822
G01 X-10.04147 Y-0.12572
G01 X-10.03537 Y-0.12757
G01 X-10.01614 Y-0.13139
G01 X-10.00000 Y-0.13250
G01 X-0.00000 Y-0.13250
G01 X0.02240 Y-0.13056
G01 X0.03592 Y-0.12750
G01 X0.04906 Y-0.12305
G01 X0.06165 Y-0.11725
G01 X0.07357 Y-0.11016
G01 X0.08203 Y-0.10401
G01 X0.09246 Y-0.09486
G01 X0.10187 Y-0.08468
G01 X0.11016 Y-0.07357
G01 X0.11725 Y-0.06165
G01 X0.12305 Y-0.04906
G01 X0.12750 Y-0.03592
G01 X0.13056 Y-0.02240
G01 X0.13218 Y-0.00863
G01 X0.13250 Y0.00000
G04 P0 ( dwell for no time -- G64 should not smooth over this point )
G00 Z0.08000 ( retract )

G00 X-0.13250 Y0.13250 F20.00000 ( rapid move to begin. )
G01 F3.00000
G01 Z-0.00800
G04 P0 ( dwell for no time -- G64 should not smooth over this point )
G01 F6.00000
G01 X-0.13250 Y0.13250
G01 X-0.13250 Y9.86750
G01 X-9.86750 Y9.86750
G01 X-9.86750 Y0.13250
G01 X-0.13250 Y0.13250
G04 P0 ( dwell for no time -- G64 should not smooth over this point )
G00 Z0.08000 ( retract )

G00 X-2.17522 Y4.31057 F20.00000 ( rapid move to begin. )
G01 F3.00000
G01 Z-0.00800
G04 P0 ( dwell for no time -- G64 should not smooth over this point )
G01 F6.00000
G01 X-2.17522 Y4.31057
G01 X-2.17714 Y4.29106
G01 X-2.18283 Y4.27230
G01 X-2.19207 Y4.25501
G01 X-2.20450 Y4.23986
G01 X-2.23986 Y4.20450
G01 X-2.25501 Y4.19207
G01 X-2.27230 Y4.18283
G01 X-2.29106 Y4.17714
G01 X-2.31057 Y4.17521
G01 X-2.33008 Y4.17714
G01 X-2.34884 Y4.18283
G01 X-2.36613 Y4.19207
G01 X-2.38128 Y4.20450
G01 X-3.05764 Y4.88087
G01 X-3.06625 Y4.88525
G01 X-3.08053 Y4.89495
G01 X-3.09606 Y4.90893
G01 X-3.10061 Y4.91398
G01 X-3.10719 Y4.92212
G01 X-3.11289 Y4.93090
G01 X-3.12104 Y4.94611
G01 X-3.12480 Y4.95588
G01 X-3.12690 Y4.96234
G01 X-3.13124 Y4.98279
G01 X-3.13250 Y5.00000
G01 X-3.13124 Y5.01721
G01 X-3.12690 Y5.03766
G01 X-3.12480 Y5.04412
G01 X-3.12104 Y5.05389
G01 X-3.11289 Y5.06910
G01 X-3.10719 Y5.07788
G01 X-3.10061 Y5.08602
G01 X-3.09606 Y5.09107
G01 X-3.08053 Y5.10505
G01 X-3.06625 Y5.11475
G01 X-3.05072 Y5.12226
G01 X-3.03083 Y5.12872
G01 X-3.01385 Y5.13177
G01 X-3.00340 Y5.13232
G01 X-2.98615 Y5.13177
G01 X-2.96916 Y5.12872
G01 X-2.94928 Y5.12226
G01 X-2.94308 Y5.11950
G01 X-2.93375 Y5.11475
G01 X-2.91947 Y5.10505
G01 X-2.90394 Y5.09107
G01 X-2.89939 Y5.08602
G01 X-2.89281 Y5.07788
G01 X-2.88710 Y5.06910
G01 X-2.88087 Y5.05764
G01 X-2.20450 Y4.38128
G01 X-2.19207 Y4.36613
G01 X-2.18283 Y4.34884
G01 X-2.17714 Y4.33008
G01 X-2.17522 Y4.31057
G04 P0 ( dwell for no time -- G64 should not smooth over this point )
G00 Z0.08000 ( retract )

G00 X-1.65055 Y4.98955 F20.00000 ( rapid move to begin. )
G01 F3.00000
G01 Z-0.00800
G04 P0 ( dwell for no time -- G64 should not smooth over this point )
G01 F6.00000
G01 X-1.65055 Y4.98955
G01 X-1.65055 Y5.01045
G01 X-1.65601 Y5.06243
G01 X-1.65765 Y5.07277
G01 X-1.66036 Y5.08288
G01 X-1.67651 Y5.13258
G01 X-1.68501 Y5.15168
G01 X-1.71114 Y5.19695
G01 X-1.71684 Y5.20572
G01 X-1.72343 Y5.21386
G01 X-1.75840 Y5.25270
G01 X-1.76580 Y5.26010
G01 X-1.77394 Y5.26669
G01 X-1.81622 Y5.29741
G01 X-1.83433 Y5.30786
G01 X-1.88207 Y5.32912
G01 X-1.89184 Y5.33287
G01 X-1.90195 Y5.33558
G01 X-1.95308 Y5.34645
G01 X-1.97387 Y5.34863
G01 X-2.02613 Y5.34863
G01 X-2.04692 Y5.34645
G01 X-2.09804 Y5.33558
G01 X-2.10816 Y5.33287
G01 X-2.11793 Y5.32912
G01 X-2.16567 Y5.30786
G01 X-2.18378 Y5.29741
G01 X-2.22606 Y5.26669
G01 X-2.24160 Y5.25270
G01 X-2.27657 Y5.21386
G01 X-2.28315 Y5.20572
G01 X-2.28886 Y5.19695
G01 X-2.31499 Y5.15168
G01 X-2.32349 Y5.13258
G01 X-2.33964 Y5.08288
G01 X-2.34235 Y5.07277
G01 X-2.34399 Y5.06243
G01 X-2.34945 Y5.01045
G01 X-2.34945 Y4.98955
G01 X-2.34399 Y4.93757
G01 X-2.34235 Y4.92723
G01 X-2.33964 Y4.91712
G01 X-2.32349 Y4.86741
G01 X-2.31499 Y4.84832
G01 X-2.28886 Y4.80305
G01 X-2.27657 Y4.78614
G01 X-2.24160 Y4.74730
G01 X-2.23420 Y4.73990
G01 X-2.22606 Y4.73331
G01 X-2.18378 Y4.70259
G01 X-2.16567 Y4.69214
G01 X-2.11793 Y4.67088
G01 X-2.10816 Y4.66713
G01 X-2.09804 Y4.66442
G01 X-2.04692 Y4.65355
G01 X-2.02613 Y4.65137
G01 X-1.97387 Y4.65137
G01 X-1.95308 Y4.65355
G01 X-1.90195 Y4.66442
G01 X-1.89184 Y4.66713
G01 X-1.88207 Y4.67088
G01 X-1.83433 Y4.69214
G01 X-1.81622 Y4.70259
G01 X-1.77394 Y4.73331
G01 X-1.76580 Y4.73990
G01 X-1.75840 Y4.74730
G01 X-1.72343 Y4.78614
G01 X-1.71684 Y4.79427
G01 X-1.71114 Y4.80305
G01 X-1.68501 Y4.84832
G01 X-1.67651 Y4.86741
G01 X-1.66036 Y4.91712
G01 X-1.65765 Y4.92723
G01 X-1.65601 Y4.93757
G01 X-1.65055 Y4.98955
G04 P0 ( dwell for no time -- G64 should not smooth over this point )
G00 Z0.08000 ( retract )

G00 X-3.77626 Y4.91161 F20.00000 ( rapid move to begin. )
G01 F3.00000
G01 Z-0.00800
G04 P0 ( dwell for no time -- G64 should not smooth over this point )
G01 F6.00000
G01 X-3.77626 Y4.91161
G01 X-3.77818 Y4.89210
G01 X-3.78387 Y4.87334
G01 X-3.79311 Y4.85605
G01 X-3.80554 Y4.84090
G01 X-3.84090 Y4.80555
G01 X-3.85605 Y4.79311
G01 X-3.87334 Y4.78387
G01 X-3.89210 Y4.77818
G01 X-3.91161 Y4.77626
G01 X-3.93112 Y4.77818
G01 X-3.94988 Y4.78387
G01 X-3.96717 Y4.79311
G01 X-3.98232 Y4.80555
G01 X-4.05764 Y4.88087
G01 X-4.06625 Y4.88525
G01 X-4.08052 Y4.89495
G01 X-4.09606 Y4.90893
G01 X-4.10719 Y4.92212
G01 X-4.11629 Y4.93678
G01 X-4.11849 Y4.94171
G01 X-4.19445 Y5.01768
G01 X-4.20689 Y5.03283
G01 X-4.21613 Y5.05012
G01 X-4.22182 Y5.06888
G01 X-4.22374 Y5.08839
G01 X-4.22182 Y5.10790
G01 X-4.21613 Y5.12666
G01 X-4.20689 Y5.14395
G01 X-4.19445 Y5.15910
G01 X-4.15910 Y5.19445
G01 X-4.14395 Y5.20689
G01 X-4.12666 Y5.21613
G01 X-4.10790 Y5.22182
G01 X-4.08839 Y5.22374
G01 X-4.06888 Y5.22182
G01 X-4.05012 Y5.21613
G01 X-4.03283 Y5.20689
G01 X-4.01768 Y5.19445
G01 X-3.94236 Y5.11913
G01 X-3.93375 Y5.11475
G01 X-3.91947 Y5.10505
G01 X-3.90394 Y5.09107
G01 X-3.89281 Y5.07788
G01 X-3.88710 Y5.06910
G01 X-3.88087 Y5.05764
G01 X-3.80554 Y4.98232
G01 X-3.79311 Y4.96717
G01 X-3.78387 Y4.94988
G01 X-3.77818 Y4.93112
G01 X-3.77626 Y4.91161
G04 P0 ( dwell for no time -- G64 should not smooth over this point )
G00 Z0.08000 ( retract )

G00 X-4.86805 Y4.98955 F20.00000 ( rapid move to begin. )
G01 F3.00000
G01 Z-0.00800
G04 P0 ( dwell for no time -- G64 should not smooth over this point )
G01 F6.00000
G01 X-4.86805 Y4.98955
G01 X-4.86805 Y5.01045
G01 X-4.86876 Y5.01721
G01 X-4.87310 Y5.03766
G01 X-4.87520 Y5.04412
G01 X-4.88371 Y5.06322
G01 X-4.88710 Y5.06910
G01 X-4.89281 Y5.07788
G01 X-4.90394 Y5.09107
G01 X-4.91947 Y5.10505
G01 X-4.92497 Y5.10905
G01 X-4.93375 Y5.11475
G01 X-4.94308 Y5.11950
G01 X-4.94928 Y5.12226
G01 X-4.96917 Y5.12872
G01 X-4.98615 Y5.13177
G01 X-4.99059 Y5.13201
G01 X-5.28284 Y5.42426
G01 X-5.29800 Y5.43670
G01 X-5.31529 Y5.44594
G01 X-5.33404 Y5.45163
G01 X-5.35355 Y5.45355
G01 X-5.37306 Y5.45163
G01 X-5.39182 Y5.44594
G01 X-5.40911 Y5.43670
G01 X-5.42426 Y5.42426
G01 X-5.86957 Y4.97896
G01 X-5.86805 Y4.98955
G01 X-5.86805 Y5.01045
G01 X-5.86876 Y5.01721
G01 X-5.87310 Y5.03766
G01 X-5.87520 Y5.04412
G01 X-5.88371 Y5.06322
G01 X-5.89281 Y5.07788
G01 X-5.90394 Y5.09107
G01 X-5.91947 Y5.10505
G01 X-5.92497 Y5.10905
G01 X-5.93375 Y5.11475
G01 X-5.94599 Y5.12080
G01 X-6.12068 Y5.49542
G01 X-6.13066 Y5.51228
G01 X-6.14375 Y5.52688
G01 X-6.15943 Y5.53864
G01 X-6.17711 Y5.54712
G01 X-6.19610 Y5.55199
G01 X-6.21567 Y5.55306
G01 X-6.23508 Y5.55029
G01 X-6.25357 Y5.54378
G01 X-6.70672 Y5.33247
G01 X-6.72359 Y5.32249
G01 X-6.73819 Y5.30940
G01 X-6.74995 Y5.29372
G01 X-6.75843 Y5.27605
G01 X-6.76330 Y5.25706
G01 X-6.76437 Y5.23748
G01 X-6.76160 Y5.21808
G01 X-6.75509 Y5.19958
G01 X-6.54378 Y4.74643
G01 X-6.53380 Y4.72956
G01 X-6.52071 Y4.71496
G01 X-6.50503 Y4.70320
G01 X-6.48735 Y4.69472
G01 X-6.46837 Y4.68985
G01 X-6.44879 Y4.68879
G01 X-6.42938 Y4.69156
G01 X-6.41089 Y4.69806
G01 X-6.03590 Y4.87292
G01 X-6.03083 Y4.87127
G01 X-6.01385 Y4.86822
G01 X-5.99660 Y4.86768
G01 X-5.98615 Y4.86822
G01 X-5.97944 Y4.86929
G01 X-5.96982 Y4.87431
G01 X-5.94964 Y4.88704
G01 X-5.92927 Y4.90266
G01 X-5.91146 Y4.91954
G01 X-5.89243 Y4.94183
G01 X-5.87968 Y4.96096
G01 X-5.86957 Y4.97896
G01 X-5.88140 Y4.95790
G01 X-5.89243 Y4.94183
G01 X-5.91332 Y4.91737
G01 X-5.93180 Y4.90033
G01 X-5.94678 Y4.88884
G01 X-5.96982 Y4.87431
G01 X-5.97905 Y4.86948
G01 X-5.98995 Y4.85858
G01 X-6.00239 Y4.84342
G01 X-6.01163 Y4.82614
G01 X-6.01732 Y4.80738
G01 X-6.01924 Y4.78787
G01 X-6.01732 Y4.76836
G01 X-6.01163 Y4.74960
G01 X-6.00239 Y4.73231
G01 X-5.98995 Y4.71716
G01 X-5.63640 Y4.36360
G01 X-5.62124 Y4.35117
G01 X-5.60395 Y4.34193
G01 X-5.58519 Y4.33624
G01 X-5.56569 Y4.33431
G01 X-5.54618 Y4.33624
G01 X-5.52742 Y4.34193
G01 X-5.51013 Y4.35117
G01 X-5.49497 Y4.36360
G01 X-4.99059 Y4.86799
G01 X-4.98615 Y4.86822
G01 X-4.96917 Y4.87127
G01 X-4.94928 Y4.87774
G01 X-4.94308 Y4.88050
G01 X-4.93375 Y4.88525
G01 X-4.92497 Y4.89095
G01 X-4.91947 Y4.89495
G01 X-4.90394 Y4.90893
G01 X-4.89281 Y4.92212
G01 X-4.88710 Y4.93090
G01 X-4.88371 Y4.93678
G01 X-4.87520 Y4.95588
G01 X-4.87310 Y4.96234
G01 X-4.86876 Y4.98279
G01 X-4.86805 Y4.98955
G04 P0 ( dwell for no time -- G64 should not smooth over this point )
G00 Z0.08000 ( retract )

G00 X-6.73936 Y4.80500 F20.00000 ( rapid move to begin. )
G01 F3.00000
G01 Z-0.00800
G04 P0 ( dwell for no time -- G64 should not smooth over this point )
G01 F6.00000
G01 X-6.73936 Y4.80500
G01 X-6.74082 Y4.82585
G01 X-6.81601 Y5.25229
G01 X-6.82178 Y5.27238
G01 X-6.83159 Y5.29084
G01 X-6.84503 Y5.30686
G01 X-6.86150 Y5.31973
G01 X-6.88029 Y5.32889
G01 X-6.90058 Y5.33395
G01 X-6.92147 Y5.33468
G01 X-6.94206 Y5.33105
G01 X-6.96144 Y5.32322
G01 X-6.97877 Y5.31153
G01 X-7.31048 Y5.03319
G01 X-7.32382 Y5.01964
G01 X-7.33435 Y5.00382
G01 X-7.34169 Y4.98628
G01 X-7.34558 Y4.96767
G01 X-7.34589 Y4.94866
G01 X-7.34259 Y4.92994
G01 X-7.33580 Y4.91218
G01 X-7.32578 Y4.89603
G01 X-7.31288 Y4.88206
G01 X-7.29757 Y4.87079
G01 X-7.28040 Y4.86262
G01 X-6.87350 Y4.71452
G01 X-6.85322 Y4.70946
G01 X-6.83233 Y4.70873
G01 X-6.81174 Y4.71236
G01 X-6.79235 Y4.72019
G01 X-6.77502 Y4.73188
G01 X-6.76050 Y4.74692
G01 X-6.74942 Y4.76465
G01 X-6.74227 Y4.78430
G01 X-6.73936 Y4.80500
G04 P0 ( dwell for no time -- G64 should not smooth over this point )
G00 Z0.08000 ( retract )

G00 X-7.65000 Y5.00000 F20.00000 ( rapid move to begin. )
G01 F3.00000
G01 Z-0.00800
G04 P0 ( dwell for no time -- G64 should not smooth over this point )
G01 F6.00000
G01 X-7.65000 Y5.00000
G01 X-7.65152 Y4.98264
G01 X-7.65603 Y4.96580
G01 X-7.66340 Y4.95000
G01 X-7.78840 Y4.73349
G01 X-7.80068 Y4.71658
G01 X-7.81622 Y4.70259
G01 X-7.83433 Y4.69214
G01 X-7.85421 Y4.68568
G01 X-7.87500 Y4.68349
G01 X-8.12500 Y4.68349
G01 X-8.14579 Y4.68568
G01 X-8.16567 Y4.69214
G01 X-8.18378 Y4.70259
G01 X-8.19931 Y4.71658
G01 X-8.21160 Y4.73349
G01 X-8.33660 Y4.95000
G01 X-8.34397 Y4.96580
G01 X-8.34848 Y4.98264
G01 X-8.35000 Y5.00000
G01 X-8.34848 Y5.01736
G01 X-8.34397 Y5.03420
G01 X-8.33660 Y5.05000
G01 X-8.21160 Y5.26651
G01 X-8.19931 Y5.28342
G01 X-8.18378 Y5.29741
G01 X-8.16567 Y5.30786
G01 X-8.14579 Y5.31432
G01 X-8.12500 Y5.31651
G01 X-7.87500 Y5.31651
G01 X-7.85421 Y5.31432
G01 X-7.83433 Y5.30786
G01 X-7.81622 Y5.29741
G01 X-7.80068 Y5.28342
G01 X-7.78840 Y5.26651
G01 X-7.66340 Y5.05000
G01 X-7.65603 Y5.03420
G01 X-7.65152 Y5.01736
G01 X-7.65000 Y5.00000
G04 P0 ( dwell for no time -- G64 should not smooth over this point )
G00 Z0.08000 ( retract )

G00 X-8.40128 Y4.96861 F20.00000 ( rapid move to begin. )
G01 F3.00000
G01 Z-0.00800
G04 P0 ( dwell for no time -- G64 should not smooth over this point )
G01 F6.00000
G01 X-8.40128 Y4.96861
G01 X-8.40146 Y4.95815
G01 X-8.40274 Y4.94776
G01 X-8.42089 Y4.84482
G01 X-8.42324 Y4.83462
G01 X-8.42665 Y4.82472
G01 X-8.46581 Y4.72780
G01 X-8.47023 Y4.71832
G01 X-8.47562 Y4.70934
G01 X-8.53716 Y4.61816
G01 X-8.54359 Y4.61050
G01 X-8.55760 Y4.59679
G01 X-8.62270 Y4.53406
G01 X-8.63060 Y4.52719
G01 X-8.63918 Y4.52119
G01 X-8.72782 Y4.46580
G01 X-8.73698 Y4.46072
G01 X-8.74661 Y4.45663
G01 X-8.84484 Y4.42088
G01 X-8.86512 Y4.41582
G01 X-8.96863 Y4.40128
G01 X-8.97906 Y4.40036
G01 X-8.98953 Y4.40055
G01 X-9.09380 Y4.40784
G01 X-9.11439 Y4.41147
G01 X-9.21487 Y4.44028
G01 X-9.22476 Y4.44369
G01 X-9.23425 Y4.44811
G01 X-9.32654 Y4.49719
G01 X-9.33551 Y4.50258
G01 X-9.36307 Y4.52498
G01 X-9.36566 Y4.52609
G01 X-9.38184 Y4.53716
G01 X-9.38950 Y4.54359
G01 X-9.40321 Y4.55760
G01 X-9.40475 Y4.55996
G01 X-9.43160 Y4.58320
G01 X-9.43847 Y4.59110
G01 X-9.50282 Y4.67347
G01 X-9.51390 Y4.69120
G01 X-9.55973 Y4.78515
G01 X-9.56687 Y4.80480
G01 X-9.59216 Y4.90622
G01 X-9.59416 Y4.91650
G01 X-9.59507 Y4.92692
G01 X-9.59872 Y5.03139
G01 X-9.59854 Y5.04185
G01 X-9.59726 Y5.05224
G01 X-9.57911 Y5.15518
G01 X-9.57335 Y5.17528
G01 X-9.53419 Y5.27220
G01 X-9.52977 Y5.28168
G01 X-9.52438 Y5.29066
G01 X-9.46284 Y5.38184
G01 X-9.45641 Y5.38950
G01 X-9.37730 Y5.46594
G01 X-9.36940 Y5.47281
G01 X-9.36082 Y5.47881
G01 X-9.27218 Y5.53420
G01 X-9.26302 Y5.53928
G01 X-9.25339 Y5.54337
G01 X-9.15516 Y5.57912
G01 X-9.13488 Y5.58417
G01 X-9.03137 Y5.59872
G01 X-9.02094 Y5.59963
G01 X-9.01047 Y5.59945
G01 X-8.90620 Y5.59216
G01 X-8.88561 Y5.58853
G01 X-8.78513 Y5.55972
G01 X-8.77524 Y5.55631
G01 X-8.76575 Y5.55189
G01 X-8.67346 Y5.50281
G01 X-8.66448 Y5.49742
G01 X-8.63693 Y5.47501
G01 X-8.63434 Y5.47391
G01 X-8.61816 Y5.46284
G01 X-8.61050 Y5.45641
G01 X-8.59679 Y5.44240
G01 X-8.59525 Y5.44004
G01 X-8.56840 Y5.41679
G01 X-8.56153 Y5.40890
G01 X-8.49717 Y5.32653
G01 X-8.48610 Y5.30880
G01 X-8.44027 Y5.21485
G01 X-8.43312 Y5.19520
G01 X-8.40784 Y5.09378
G01 X-8.40584 Y5.08350
G01 X-8.40493 Y5.07308
G01 X-8.40128 Y4.96861
G04 P0 ( dwell for no time -- G64 should not smooth over this point )
G00 Z0.08000 ( retract )

G00 X-8.70128 Y4.97911 F20.00000 ( rapid move to begin. )
G01 F3.00000
G01 Z-0.00800
G04 P0 ( dwell for no time -- G64 should not smooth over this point )
G01 F6.00000
G01 X-8.70128 Y4.97911
G01 X-8.70346 Y5.04167
G01 X-8.71861 Y5.10242
G01 X-8.74007 Y5.14642
G01 X-8.85207 Y5.01294
G01 X-8.71877 Y4.90109
G01 X-8.71215 Y4.91746
G01 X-8.70128 Y4.97911
G04 P0 ( dwell for no time -- G64 should not smooth over this point )
G00 Z0.08000 ( retract )

G00 X-8.85375 Y4.74022 F20.00000 ( rapid move to begin. )
G01 F3.00000
G01 Z-0.00800
G04 P0 ( dwell for no time -- G64 should not smooth over this point )
G01 F6.00000
G01 X-8.85375 Y4.74022
G01 X-8.86873 Y4.73086
G01 X-8.92756 Y4.70944
G01 X-8.98955 Y4.70073
G01 X-9.05200 Y4.70510
G01 X-9.09906 Y4.71859
G01 X-8.98706 Y4.85207
G01 X-8.85375 Y4.74022
G04 P0 ( dwell for no time -- G64 should not smooth over this point )
G00 Z0.08000 ( retract )

G00 X-9.14793 Y4.98706 F20.00000 ( rapid move to begin. )
G01 F3.00000
G01 Z-0.00800
G04 P0 ( dwell for no time -- G64 should not smooth over this point )
G01 F6.00000
G01 X-9.14793 Y4.98706
G01 X-9.25993 Y4.85358
G01 X-9.28139 Y4.89758
G01 X-9.29653 Y4.95832
G01 X-9.29872 Y5.02089
G01 X-9.28785 Y5.08254
G01 X-9.28123 Y5.09891
G01 X-9.14793 Y4.98706
G04 P0 ( dwell for no time -- G64 should not smooth over this point )
G00 Z0.08000 ( retract )

G00 X-8.90094 Y5.28141 F20.00000 ( rapid move to begin. )
G01 F3.00000
G01 Z-0.00800
G04 P0 ( dwell for no time -- G64 should not smooth over this point )
G01 F6.00000
G01 X-8.90094 Y5.28141
G01 X-8.94800 Y5.29490
G01 X-9.01045 Y5.29927
G01 X-9.07244 Y5.29055
G01 X-9.13127 Y5.26914
G01 X-9.14625 Y5.25978
G01 X-9.01294 Y5.14793
G01 X-8.90094 Y5.28141
G04 P0 ( dwell for no time -- G64 should not smooth over this point )
G00 Z0.08000 ( retract )

G00 X-8.86576 Y5.61852 F20.00000 ( rapid move to begin. )
G01 F3.00000
G01 Z-0.00800
G04 P0 ( dwell for no time -- G64 should not smooth over this point )
G01 F6.00000
G01 X-8.86576 Y5.61852
G01 X-8.97956 Y6.11146
G01 X-8.97035 Y6.11388
G04 P0 ( dwell for no time -- G64 should not smooth over this point )
G00 Z0.08000 ( retract )

G00 X-8.97956 Y6.11146 F20.00000 ( rapid move to begin. )
G01 F3.00000
G01 Z-0.00800
G04 P0 ( dwell for no time -- G64 should not smooth over this point )
G01 F6.00000
G01 X-8.97956 Y6.11146
G01 X-8.98890 Y6.10959
G01 X-9.00794 Y6.10926
G04 P0 ( dwell for no time -- G64 should not smooth over this point )
G00 Z0.08000 ( retract )

G00 X-9.08875 Y6.17951 F20.00000 ( rapid move to begin. )
G01 F3.00000
G01 Z-0.00800
G04 P0 ( dwell for no time -- G64 should not smooth over this point )
G01 F6.00000
G01 X-9.08875 Y6.17951
G01 X-9.09107 Y6.19841
G01 X-9.08941 Y6.21738
G01 X-9.08384 Y6.23559
G01 X-9.07461 Y6.25224
G01 X-9.06212 Y6.26661
G01 X-9.04691 Y6.27807
G01 X-9.02965 Y6.28612
G04 P0 ( dwell for no time -- G64 should not smooth over this point )
G00 Z0.08000 ( retract )

G00 X-9.58358 Y6.06527 F20.00000 ( rapid move to begin. )
G01 F3.00000
G01 Z-0.00800
G04 P0 ( dwell for no time -- G64 should not smooth over this point )
G01 F6.00000
G01 X-9.58358 Y6.06527
G01 X-9.58705 Y6.08033
G01 X-9.59918 Y6.17909
G01 X-9.59954 Y6.19999
G01 X-9.59043 Y6.30412
G01 X-9.58898 Y6.31449
G01 X-9.58644 Y6.32464
G01 X-9.55588 Y6.42460
G01 X-9.54771 Y6.44385
G01 X-9.49704 Y6.53527
G01 X-9.49149 Y6.54415
G01 X-9.48505 Y6.55239
G01 X-9.41647 Y6.63128
G01 X-9.40118 Y6.64554
G01 X-9.31770 Y6.70845
G01 X-9.30902 Y6.71430
G01 X-9.29978 Y6.71921
G01 X-9.20505 Y6.76339
G01 X-9.19534 Y6.76731
G01 X-9.18528 Y6.77020
G01 X-9.13923 Y6.78083
G01 X-9.13424 Y6.78147
G04 P0 ( dwell for no time -- G64 should not smooth over this point )
G00 Z0.08000 ( retract )

G00 X-9.02044 Y6.28853 F20.00000 ( rapid move to begin. )
G01 F3.00000
G01 Z-0.00800
G04 P0 ( dwell for no time -- G64 should not smooth over this point )
G01 F6.00000
G01 X-9.02044 Y6.28853
G01 X-9.02965 Y6.28612
G01 X-9.01110 Y6.29040
G01 X-8.99206 Y6.29074
G04 P0 ( dwell for no time -- G64 should not smooth over this point )
G00 Z0.08000 ( retract )

G00 X-8.91125 Y6.22049 F20.00000 ( rapid move to begin. )
G01 F3.00000
G01 Z-0.00800
G04 P0 ( dwell for no time -- G64 should not smooth over this point )
G01 F6.00000
G01 X-8.91125 Y6.22049
G01 X-8.91745 Y6.23849
G01 X-8.92726 Y6.25481
G01 X-8.94024 Y6.26874
G01 X-8.95584 Y6.27966
G01 X-8.97337 Y6.28710
G01 X-8.99206 Y6.29074
G01 X-9.01110 Y6.29040
G01 X-9.02044 Y6.28853
G01 X-9.13424 Y6.78147
G01 X-9.12948 Y6.78308
G01 X-9.08343 Y6.79371
G01 X-9.07312 Y6.79553
G01 X-9.06268 Y6.79626
G01 X-8.95817 Y6.79808
G01 X-8.93734 Y6.79626
G01 X-8.83473 Y6.77632
G01 X-8.81474 Y6.77020
G01 X-8.71852 Y6.72936
G01 X-8.70911 Y6.72477
G01 X-8.70024 Y6.71922
G01 X-8.61461 Y6.65927
G01 X-8.60636 Y6.65282
G01 X-8.59883 Y6.64555
G01 X-8.52755 Y6.56911
G01 X-8.52082 Y6.56109
G01 X-8.51497 Y6.55241
G01 X-8.46113 Y6.46281
G01 X-8.45229 Y6.44386
G01 X-8.41990 Y6.34978
G01 X-8.41642 Y6.33472
G01 X-8.91125 Y6.22049
G01 X-8.90893 Y6.20159
G01 X-8.91059 Y6.18262
G01 X-8.91615 Y6.16441
G01 X-8.92539 Y6.14775
G01 X-8.93788 Y6.13338
G01 X-8.95309 Y6.12192
G01 X-8.97035 Y6.11388
G01 X-8.98890 Y6.10959
G01 X-9.00794 Y6.10926
G01 X-9.02663 Y6.11289
G01 X-9.04416 Y6.12033
G01 X-9.05976 Y6.13126
G01 X-9.07274 Y6.14518
G01 X-9.08255 Y6.16151
G01 X-9.08875 Y6.17951
G01 X-9.58358 Y6.06527
G01 X-9.58010 Y6.05021
G01 X-9.54771 Y5.95613
G01 X-9.53887 Y5.93719
G01 X-9.48503 Y5.84759
G01 X-9.47918 Y5.83891
G01 X-9.47245 Y5.83089
G01 X-9.40116 Y5.75444
G01 X-9.39363 Y5.74717
G01 X-9.38539 Y5.74073
G01 X-9.29976 Y5.68077
G01 X-9.29088 Y5.67523
G01 X-9.28148 Y5.67064
G01 X-9.18526 Y5.62980
G01 X-9.16527 Y5.62368
G01 X-9.06266 Y5.60374
G01 X-9.04183 Y5.60192
G01 X-8.93732 Y5.60374
G01 X-8.92688 Y5.60447
G01 X-8.91657 Y5.60629
G01 X-8.87052 Y5.61692
G01 X-8.86576 Y5.61852
G01 X-8.86077 Y5.61917
G01 X-8.81472 Y5.62980
G01 X-8.80466 Y5.63269
G01 X-8.79495 Y5.63661
G01 X-8.70022 Y5.68079
G01 X-8.69098 Y5.68570
G01 X-8.68230 Y5.69155
G01 X-8.59882 Y5.75446
G01 X-8.58353 Y5.76872
G01 X-8.51495 Y5.84760
G01 X-8.50851 Y5.85585
G01 X-8.50296 Y5.86473
G01 X-8.45228 Y5.95615
G01 X-8.44412 Y5.97540
G01 X-8.41356 Y6.07536
G01 X-8.41102 Y6.08551
G01 X-8.40957 Y6.09588
G01 X-8.40046 Y6.20001
G01 X-8.40082 Y6.22091
G01 X-8.41295 Y6.31967
G01 X-8.41642 Y6.33472

G04 P0 ( dwell for no time -- G64 should not smooth over this point )
G0 Z1.000 ( retract )

M5 ( Spindle off. )
G04 P1.000
M9 ( Coolant off. )
M2 ( Program end. )

