( pcb2gcode 1.3.2 )
( Software-independent Gcode )

G94 ( Inches per minute feed rate. )
G20 ( Units == INCHES. )

G90 ( Absolute coordinates. )
G00 S30000 ( RPM spindle speed. )
G64 P0.00040 ( set maximum deviation from commanded toolpath )
G01 F6.00000 ( Feedrate. )

G01 F6.00000 ( Feedrate. )
M3 ( Spindle on clockwise. )
G04 P1.00000
G04 P0 ( dwell for no time -- G64 should not smooth over this point )
G00 Z0.08000 ( retract )

G00 X0.13250 Y0.00000 ( rapid move to begin. )
G01 F3.00000
G01 Z-0.00800
G04 P0 ( dwell for no time -- G64 should not smooth over this point )
G01 F6.00000
G01 X0.13250 Y0.00000
G01 X0.13250 Y10.00000
G01 X0.13139 Y10.01615
G01 X0.12757 Y10.03536
G01 X0.12572 Y10.04146
G01 X0.11821 Y10.05958
G01 X0.11521 Y10.06520
G01 X0.10432 Y10.08150
G01 X0.10027 Y10.08643
G01 X0.08643 Y10.10027
G01 X0.08150 Y10.10431
G01 X0.06520 Y10.11521
G01 X0.05958 Y10.11821
G01 X0.04146 Y10.12572
G01 X0.03536 Y10.12757
G01 X0.01615 Y10.13139
G01 X-0.00000 Y10.13250
G01 X-10.00000 Y10.13250
G01 X-10.01615 Y10.13139
G01 X-10.03536 Y10.12757
G01 X-10.04146 Y10.12572
G01 X-10.05958 Y10.11821
G01 X-10.06520 Y10.11521
G01 X-10.08150 Y10.10431
G01 X-10.08643 Y10.10027
G01 X-10.10027 Y10.08643
G01 X-10.10431 Y10.08150
G01 X-10.11521 Y10.06520
G01 X-10.11821 Y10.05958
G01 X-10.12572 Y10.04146
G01 X-10.12757 Y10.03536
G01 X-10.13139 Y10.01615
G01 X-10.13250 Y10.00000
G01 X-10.13250 Y0.00000
G01 X-10.13139 Y-0.01615
G01 X-10.12757 Y-0.03536
G01 X-10.12572 Y-0.04146
G01 X-10.11821 Y-0.05958
G01 X-10.11521 Y-0.06520
G01 X-10.10431 Y-0.08150
G01 X-10.10027 Y-0.08643
G01 X-10.08643 Y-0.10027
G01 X-10.08150 Y-0.10432
G01 X-10.06520 Y-0.11521
G01 X-10.05958 Y-0.11821
G01 X-10.04146 Y-0.12572
G01 X-10.03536 Y-0.12757
G01 X-10.01615 Y-0.13139
G01 X-10.00000 Y-0.13250
G01 X-0.00000 Y-0.13250
G01 X0.00866 Y-0.13218
G01 X0.02240 Y-0.13056
G01 X0.03591 Y-0.12751
G01 X0.04906 Y-0.12305
G01 X0.06165 Y-0.11724
G01 X0.07355 Y-0.11017
G01 X0.08205 Y-0.10400
G01 X0.09246 Y-0.09486
G01 X0.10186 Y-0.08469
G01 X0.11017 Y-0.07355
G01 X0.11724 Y-0.06165
G01 X0.12305 Y-0.04906
G01 X0.12751 Y-0.03591
G01 X0.13056 Y-0.02240
G01 X0.13218 Y-0.00866
G01 X0.13250 Y0.00000
G04 P0 ( dwell for no time -- G64 should not smooth over this point )
G00 Z0.08000 ( retract )

G00 X-0.13250 Y0.13250 ( rapid move to begin. )
G01 F3.00000
G01 Z-0.00800
G04 P0 ( dwell for no time -- G64 should not smooth over this point )
G01 F6.00000
G01 X-0.13250 Y0.13250
G01 X-0.13250 Y9.86750
G01 X-9.86750 Y9.86750
G01 X-9.86750 Y0.13250
G01 X-0.13250 Y0.13250
G04 P0 ( dwell for no time -- G64 should not smooth over this point )
G00 Z0.08000 ( retract )

G00 X-2.17522 Y4.31057 ( rapid move to begin. )
G01 F3.00000
G01 Z-0.00800
G04 P0 ( dwell for no time -- G64 should not smooth over this point )
G01 F6.00000
G01 X-2.17522 Y4.31057
G01 X-2.17714 Y4.29106
G01 X-2.18283 Y4.27230
G01 X-2.19207 Y4.25501
G01 X-2.20451 Y4.23986
G01 X-2.23986 Y4.20451
G01 X-2.25501 Y4.19207
G01 X-2.27230 Y4.18283
G01 X-2.29106 Y4.17714
G01 X-2.31057 Y4.17522
G01 X-2.33008 Y4.17714
G01 X-2.34884 Y4.18283
G01 X-2.36613 Y4.19207
G01 X-2.38128 Y4.20451
G01 X-3.05776 Y4.88098
G01 X-3.07503 Y4.89095
G01 X-3.08052 Y4.89494
G01 X-3.09605 Y4.90893
G01 X-3.10060 Y4.91398
G01 X-3.10719 Y4.92212
G01 X-3.11290 Y4.93090
G01 X-3.11630 Y4.93679
G01 X-3.12480 Y4.95588
G01 X-3.12690 Y4.96235
G01 X-3.13124 Y4.98278
G01 X-3.13250 Y5.00000
G01 X-3.13124 Y5.01722
G01 X-3.12690 Y5.03765
G01 X-3.12480 Y5.04411
G01 X-3.11630 Y5.06321
G01 X-3.11290 Y5.06909
G01 X-3.10719 Y5.07788
G01 X-3.10060 Y5.08602
G01 X-3.08865 Y5.09847
G01 X-3.08052 Y5.10506
G01 X-3.07502 Y5.10905
G01 X-3.05693 Y5.11949
G01 X-3.04095 Y5.12601
G01 X-3.03083 Y5.12873
G01 X-3.02418 Y5.13014
G01 X-3.00340 Y5.13232
G01 X-2.99660 Y5.13232
G01 X-2.97582 Y5.13014
G01 X-2.95906 Y5.12601
G01 X-2.94307 Y5.11950
G01 X-2.92497 Y5.10905
G01 X-2.91948 Y5.10505
G01 X-2.90395 Y5.09107
G01 X-2.89940 Y5.08602
G01 X-2.89281 Y5.07788
G01 X-2.88710 Y5.06909
G01 X-2.88151 Y5.05829
G01 X-2.20451 Y4.38128
G01 X-2.19207 Y4.36613
G01 X-2.18283 Y4.34884
G01 X-2.17714 Y4.33008
G01 X-2.17522 Y4.31057
G04 P0 ( dwell for no time -- G64 should not smooth over this point )
G00 Z0.08000 ( retract )

G00 X-1.65000 Y5.00000 ( rapid move to begin. )
G01 F3.00000
G01 Z-0.00800
G04 P0 ( dwell for no time -- G64 should not smooth over this point )
G01 F6.00000
G01 X-1.65000 Y5.00000
G01 X-1.65055 Y4.98954
G01 X-1.65601 Y4.93757
G01 X-1.66036 Y4.91712
G01 X-1.67651 Y4.86742
G01 X-1.68026 Y4.85764
G01 X-1.68501 Y4.84832
G01 X-1.71114 Y4.80305
G01 X-1.71684 Y4.79427
G01 X-1.72343 Y4.78614
G01 X-1.75840 Y4.74730
G01 X-1.76581 Y4.73990
G01 X-1.77394 Y4.73331
G01 X-1.81622 Y4.70259
G01 X-1.83433 Y4.69214
G01 X-1.88207 Y4.67088
G01 X-1.89184 Y4.66713
G01 X-1.90196 Y4.66442
G01 X-1.95308 Y4.65355
G01 X-1.97387 Y4.65137
G01 X-2.02613 Y4.65137
G01 X-2.04692 Y4.65355
G01 X-2.09804 Y4.66442
G01 X-2.10816 Y4.66713
G01 X-2.11793 Y4.67088
G01 X-2.16567 Y4.69214
G01 X-2.17500 Y4.69689
G01 X-2.18378 Y4.70259
G01 X-2.22606 Y4.73331
G01 X-2.24160 Y4.74730
G01 X-2.27657 Y4.78614
G01 X-2.28315 Y4.79427
G01 X-2.28886 Y4.80305
G01 X-2.31499 Y4.84832
G01 X-2.31974 Y4.85764
G01 X-2.32349 Y4.86742
G01 X-2.33964 Y4.91712
G01 X-2.34399 Y4.93757
G01 X-2.34945 Y4.98954
G01 X-2.35000 Y5.00000
G01 X-2.34945 Y5.01045
G01 X-2.34399 Y5.06243
G01 X-2.33964 Y5.08288
G01 X-2.32349 Y5.13258
G01 X-2.31974 Y5.14236
G01 X-2.31499 Y5.15168
G01 X-2.28886 Y5.19695
G01 X-2.28315 Y5.20572
G01 X-2.27657 Y5.21386
G01 X-2.24160 Y5.25270
G01 X-2.23419 Y5.26010
G01 X-2.22606 Y5.26669
G01 X-2.18378 Y5.29741
G01 X-2.16567 Y5.30786
G01 X-2.11793 Y5.32912
G01 X-2.10816 Y5.33287
G01 X-2.09804 Y5.33558
G01 X-2.04692 Y5.34644
G01 X-2.02613 Y5.34863
G01 X-1.97387 Y5.34863
G01 X-1.95308 Y5.34644
G01 X-1.90196 Y5.33558
G01 X-1.89184 Y5.33287
G01 X-1.88207 Y5.32912
G01 X-1.83433 Y5.30786
G01 X-1.82500 Y5.30311
G01 X-1.81622 Y5.29741
G01 X-1.77394 Y5.26669
G01 X-1.75840 Y5.25270
G01 X-1.72343 Y5.21386
G01 X-1.71684 Y5.20572
G01 X-1.71114 Y5.19695
G01 X-1.68501 Y5.15168
G01 X-1.68026 Y5.14236
G01 X-1.67651 Y5.13258
G01 X-1.66036 Y5.08288
G01 X-1.65601 Y5.06243
G01 X-1.65055 Y5.01045
G01 X-1.65000 Y5.00000
G04 P0 ( dwell for no time -- G64 should not smooth over this point )
G00 Z0.08000 ( retract )

G00 X-3.77626 Y4.91161 ( rapid move to begin. )
G01 F3.00000
G01 Z-0.00800
G04 P0 ( dwell for no time -- G64 should not smooth over this point )
G01 F6.00000
G01 X-3.77626 Y4.91161
G01 X-3.77818 Y4.89210
G01 X-3.78387 Y4.87334
G01 X-3.79311 Y4.85605
G01 X-3.80555 Y4.84090
G01 X-3.84090 Y4.80555
G01 X-3.85605 Y4.79311
G01 X-3.87334 Y4.78387
G01 X-3.89210 Y4.77818
G01 X-3.91161 Y4.77626
G01 X-3.93112 Y4.77818
G01 X-3.94988 Y4.78387
G01 X-3.96717 Y4.79311
G01 X-3.98232 Y4.80555
G01 X-4.05776 Y4.88098
G01 X-4.07503 Y4.89095
G01 X-4.08052 Y4.89494
G01 X-4.09605 Y4.90893
G01 X-4.10719 Y4.92212
G01 X-4.11630 Y4.93679
G01 X-4.11849 Y4.94171
G01 X-4.19445 Y5.01768
G01 X-4.20689 Y5.03283
G01 X-4.21613 Y5.05012
G01 X-4.22182 Y5.06888
G01 X-4.22374 Y5.08839
G01 X-4.22182 Y5.10790
G01 X-4.21613 Y5.12666
G01 X-4.20689 Y5.14395
G01 X-4.19445 Y5.15910
G01 X-4.15910 Y5.19445
G01 X-4.14395 Y5.20689
G01 X-4.12666 Y5.21613
G01 X-4.10790 Y5.22182
G01 X-4.08839 Y5.22374
G01 X-4.06888 Y5.22182
G01 X-4.05012 Y5.21613
G01 X-4.03283 Y5.20689
G01 X-4.01768 Y5.19445
G01 X-3.94224 Y5.11902
G01 X-3.92497 Y5.10905
G01 X-3.91948 Y5.10505
G01 X-3.90395 Y5.09107
G01 X-3.89281 Y5.07788
G01 X-3.88370 Y5.06321
G01 X-3.88151 Y5.05829
G01 X-3.80555 Y4.98232
G01 X-3.79311 Y4.96717
G01 X-3.78387 Y4.94988
G01 X-3.77818 Y4.93112
G01 X-3.77626 Y4.91161
G04 P0 ( dwell for no time -- G64 should not smooth over this point )
G00 Z0.08000 ( retract )

G00 X-5.86957 Y4.97895 ( rapid move to begin. )
G01 F3.00000
G01 Z-0.00800
G04 P0 ( dwell for no time -- G64 should not smooth over this point )
G01 F6.00000
G01 X-5.86957 Y4.97895
G01 X-5.42426 Y5.42426
G01 X-5.40911 Y5.43670
G01 X-5.39182 Y5.44594
G01 X-5.37306 Y5.45163
G01 X-5.35355 Y5.45355
G01 X-5.33404 Y5.45163
G01 X-5.31528 Y5.44594
G01 X-5.29800 Y5.43670
G01 X-5.28284 Y5.42426
G01 X-4.99023 Y5.13165
G01 X-4.97582 Y5.13014
G01 X-4.96917 Y5.12873
G01 X-4.95906 Y5.12601
G01 X-4.94307 Y5.11950
G01 X-4.92497 Y5.10905
G01 X-4.91948 Y5.10505
G01 X-4.90395 Y5.09107
G01 X-4.89281 Y5.07788
G01 X-4.88710 Y5.06909
G01 X-4.88370 Y5.06321
G01 X-4.87520 Y5.04411
G01 X-4.87310 Y5.03765
G01 X-4.86876 Y5.01722
G01 X-4.86750 Y5.00000
G01 X-4.86876 Y4.98278
G01 X-4.87310 Y4.96235
G01 X-4.87520 Y4.95588
G01 X-4.88370 Y4.93679
G01 X-4.89281 Y4.92212
G01 X-4.89940 Y4.91398
G01 X-4.91135 Y4.90153
G01 X-4.92498 Y4.89095
G01 X-4.94307 Y4.88051
G01 X-4.94927 Y4.87774
G01 X-4.95905 Y4.87399
G01 X-4.96917 Y4.87127
G01 X-4.97582 Y4.86986
G01 X-4.99023 Y4.86835
G01 X-5.49497 Y4.36360
G01 X-5.51013 Y4.35117
G01 X-5.52742 Y4.34193
G01 X-5.54617 Y4.33624
G01 X-5.56568 Y4.33432
G01 X-5.58519 Y4.33624
G01 X-5.60395 Y4.34193
G01 X-5.62124 Y4.35117
G01 X-5.63640 Y4.36360
G01 X-5.98995 Y4.71716
G01 X-6.00238 Y4.73231
G01 X-6.01163 Y4.74960
G01 X-6.01732 Y4.76836
G01 X-6.01924 Y4.78787
G01 X-6.01732 Y4.80738
G01 X-6.01163 Y4.82614
G01 X-6.00238 Y4.84342
G01 X-5.98995 Y4.85858
G01 X-5.97893 Y4.86953
G01 X-5.99660 Y4.86768
G01 X-6.00340 Y4.86768
G01 X-6.02418 Y4.86986
G01 X-6.03629 Y4.87274
G01 X-6.41089 Y4.69806
G01 X-6.42938 Y4.69156
G01 X-6.44879 Y4.68879
G01 X-6.46837 Y4.68985
G01 X-6.48735 Y4.69472
G01 X-6.50503 Y4.70320
G01 X-6.52071 Y4.71496
G01 X-6.53380 Y4.72956
G01 X-6.54378 Y4.74643
G01 X-6.75509 Y5.19958
G01 X-6.76160 Y5.21807
G01 X-6.76437 Y5.23748
G01 X-6.76330 Y5.25706
G01 X-6.75843 Y5.27604
G01 X-6.74995 Y5.29372
G01 X-6.73819 Y5.30940
G01 X-6.72359 Y5.32249
G01 X-6.70672 Y5.33247
G01 X-6.25357 Y5.54378
G01 X-6.23508 Y5.55029
G01 X-6.21567 Y5.55306
G01 X-6.19610 Y5.55199
G01 X-6.17711 Y5.54712
G01 X-6.15943 Y5.53864
G01 X-6.14375 Y5.52688
G01 X-6.13066 Y5.51228
G01 X-6.12068 Y5.49542
G01 X-5.94599 Y5.12080
G01 X-5.92497 Y5.10905
G01 X-5.91948 Y5.10505
G01 X-5.90395 Y5.09107
G01 X-5.89940 Y5.08602
G01 X-5.89281 Y5.07788
G01 X-5.88370 Y5.06321
G01 X-5.87520 Y5.04411
G01 X-5.87310 Y5.03765
G01 X-5.86876 Y5.01722
G01 X-5.86805 Y5.01046
G01 X-5.86750 Y5.00000
G01 X-5.86805 Y4.98954
G01 X-5.86957 Y4.97895
G01 X-5.88140 Y4.95790
G01 X-5.89661 Y4.93639
G01 X-5.90864 Y4.92230
G01 X-5.92661 Y4.90476
G01 X-5.95247 Y4.88493
G01 X-5.96982 Y4.87431
G01 X-5.97893 Y4.86953
G04 P0 ( dwell for no time -- G64 should not smooth over this point )
G00 Z0.08000 ( retract )

G00 X-6.73937 Y4.80500 ( rapid move to begin. )
G01 F3.00000
G01 Z-0.00800
G04 P0 ( dwell for no time -- G64 should not smooth over this point )
G01 F6.00000
G01 X-6.73937 Y4.80500
G01 X-6.74082 Y4.82585
G01 X-6.81601 Y5.25229
G01 X-6.82108 Y5.27061
G01 X-6.82952 Y5.28764
G01 X-6.84103 Y5.30277
G01 X-6.85520 Y5.31545
G01 X-6.87151 Y5.32521
G01 X-6.88938 Y5.33172
G01 X-6.90815 Y5.33472
G01 X-6.92715 Y5.33412
G01 X-6.94570 Y5.32993
G01 X-6.96311 Y5.32231
G01 X-6.97877 Y5.31153
G01 X-7.31048 Y5.03319
G01 X-7.32381 Y5.01964
G01 X-7.33435 Y5.00382
G01 X-7.34169 Y4.98628
G01 X-7.34558 Y4.96767
G01 X-7.34589 Y4.94866
G01 X-7.34258 Y4.92994
G01 X-7.33580 Y4.91218
G01 X-7.32578 Y4.89603
G01 X-7.31288 Y4.88206
G01 X-7.29757 Y4.87079
G01 X-7.28040 Y4.86262
G01 X-6.87351 Y4.71452
G01 X-6.85322 Y4.70946
G01 X-6.83233 Y4.70873
G01 X-6.81174 Y4.71236
G01 X-6.79236 Y4.72020
G01 X-6.77503 Y4.73189
G01 X-6.76050 Y4.74692
G01 X-6.74942 Y4.76465
G01 X-6.74228 Y4.78430
G01 X-6.73937 Y4.80500
G04 P0 ( dwell for no time -- G64 should not smooth over this point )
G00 Z0.08000 ( retract )

G00 X-8.33660 Y4.95000 ( rapid move to begin. )
G01 F3.00000
G01 Z-0.00800
G04 P0 ( dwell for no time -- G64 should not smooth over this point )
G01 F6.00000
G01 X-8.33660 Y4.95000
G01 X-8.21160 Y4.73349
G01 X-8.19931 Y4.71658
G01 X-8.18378 Y4.70259
G01 X-8.16567 Y4.69214
G01 X-8.14579 Y4.68568
G01 X-8.12500 Y4.68349
G01 X-7.87500 Y4.68349
G01 X-7.85421 Y4.68568
G01 X-7.83433 Y4.69214
G01 X-7.81622 Y4.70259
G01 X-7.80069 Y4.71658
G01 X-7.78840 Y4.73349
G01 X-7.66340 Y4.95000
G01 X-7.65603 Y4.96580
G01 X-7.65152 Y4.98263
G01 X-7.65000 Y5.00000
G01 X-7.65152 Y5.01736
G01 X-7.65603 Y5.03420
G01 X-7.66340 Y5.05000
G01 X-7.78840 Y5.26651
G01 X-7.80068 Y5.28342
G01 X-7.81622 Y5.29741
G01 X-7.83433 Y5.30786
G01 X-7.85421 Y5.31432
G01 X-7.87500 Y5.31651
G01 X-8.12500 Y5.31651
G01 X-8.14579 Y5.31432
G01 X-8.16567 Y5.30786
G01 X-8.18378 Y5.29741
G01 X-8.19931 Y5.28342
G01 X-8.21160 Y5.26651
G01 X-8.33660 Y5.05000
G01 X-8.34397 Y5.03420
G01 X-8.34848 Y5.01736
G01 X-8.35000 Y5.00000
G01 X-8.34848 Y4.98264
G01 X-8.34397 Y4.96580
G01 X-8.33660 Y4.95000
G01 X-8.40274 Y4.94776
G01 X-8.40128 Y4.96861
G01 X-8.40493 Y5.07308
G01 X-8.40584 Y5.08350
G01 X-8.40784 Y5.09378
G01 X-8.43313 Y5.19520
G01 X-8.44027 Y5.21485
G01 X-8.48610 Y5.30879
G01 X-8.49117 Y5.31795
G01 X-8.49718 Y5.32653
G01 X-8.56153 Y5.40889
G01 X-8.56840 Y5.41679
G01 X-8.59525 Y5.44004
G01 X-8.59679 Y5.44240
G01 X-8.61050 Y5.45641
G01 X-8.61815 Y5.46284
G01 X-8.63434 Y5.47391
G01 X-8.63693 Y5.47501
G01 X-8.65612 Y5.49112
G01 X-8.67346 Y5.50281
G01 X-8.76575 Y5.55189
G01 X-8.77524 Y5.55631
G01 X-8.78513 Y5.55972
G01 X-8.88561 Y5.58853
G01 X-8.90620 Y5.59216
G01 X-9.01047 Y5.59945
G01 X-9.02094 Y5.59963
G01 X-9.03136 Y5.59872
G01 X-9.13488 Y5.58417
G01 X-9.14515 Y5.58218
G01 X-9.15516 Y5.57912
G01 X-9.25339 Y5.54336
G01 X-9.26302 Y5.53927
G01 X-9.27218 Y5.53420
G01 X-9.36082 Y5.47881
G01 X-9.37730 Y5.46594
G01 X-9.45641 Y5.38950
G01 X-9.46284 Y5.38184
G01 X-9.52438 Y5.29065
G01 X-9.53419 Y5.27220
G01 X-9.57335 Y5.17528
G01 X-9.57676 Y5.16538
G01 X-9.57911 Y5.15518
G01 X-9.59726 Y5.05224
G01 X-9.59872 Y5.03139
G01 X-9.59507 Y4.92692
G01 X-9.59416 Y4.91650
G01 X-9.59216 Y4.90622
G01 X-9.56687 Y4.80480
G01 X-9.55972 Y4.78515
G01 X-9.51390 Y4.69120
G01 X-9.50883 Y4.68205
G01 X-9.50282 Y4.67347
G01 X-9.43847 Y4.59110
G01 X-9.43160 Y4.58321
G01 X-9.40475 Y4.55996
G01 X-9.40321 Y4.55760
G01 X-9.38950 Y4.54359
G01 X-9.38184 Y4.53716
G01 X-9.36566 Y4.52609
G01 X-9.36307 Y4.52499
G01 X-9.34387 Y4.50888
G01 X-9.32654 Y4.49719
G01 X-9.23425 Y4.44811
G01 X-9.22476 Y4.44369
G01 X-9.21486 Y4.44028
G01 X-9.11439 Y4.41147
G01 X-9.09380 Y4.40784
G01 X-8.98953 Y4.40055
G01 X-8.97906 Y4.40037
G01 X-8.96863 Y4.40128
G01 X-8.86512 Y4.41583
G01 X-8.85485 Y4.41782
G01 X-8.84484 Y4.42088
G01 X-8.74661 Y4.45663
G01 X-8.73698 Y4.46072
G01 X-8.72782 Y4.46580
G01 X-8.63918 Y4.52119
G01 X-8.62270 Y4.53406
G01 X-8.54359 Y4.61050
G01 X-8.53716 Y4.61815
G01 X-8.47562 Y4.70935
G01 X-8.46581 Y4.72780
G01 X-8.42665 Y4.82472
G01 X-8.42324 Y4.83462
G01 X-8.42089 Y4.84482
G01 X-8.40274 Y4.94776
G04 P0 ( dwell for no time -- G64 should not smooth over this point )
G00 Z0.08000 ( retract )

G00 X-8.70128 Y4.97911 ( rapid move to begin. )
G01 F3.00000
G01 Z-0.00800
G04 P0 ( dwell for no time -- G64 should not smooth over this point )
G01 F6.00000
G01 X-8.70128 Y4.97911
G01 X-8.70347 Y5.04167
G01 X-8.71861 Y5.10242
G01 X-8.74007 Y5.14642
G01 X-8.85207 Y5.01294
G01 X-8.71877 Y4.90109
G01 X-8.71215 Y4.91746
G01 X-8.70128 Y4.97911
G04 P0 ( dwell for no time -- G64 should not smooth over this point )
G00 Z0.08000 ( retract )

G00 X-8.85375 Y4.74022 ( rapid move to begin. )
G01 F3.00000
G01 Z-0.00800
G04 P0 ( dwell for no time -- G64 should not smooth over this point )
G01 F6.00000
G01 X-8.85375 Y4.74022
G01 X-8.86873 Y4.73086
G01 X-8.92756 Y4.70945
G01 X-8.98955 Y4.70073
G01 X-9.05200 Y4.70510
G01 X-9.09906 Y4.71860
G01 X-8.98706 Y4.85207
G01 X-8.85375 Y4.74022
G04 P0 ( dwell for no time -- G64 should not smooth over this point )
G00 Z0.08000 ( retract )

G00 X-9.14793 Y4.98706 ( rapid move to begin. )
G01 F3.00000
G01 Z-0.00800
G04 P0 ( dwell for no time -- G64 should not smooth over this point )
G01 F6.00000
G01 X-9.14793 Y4.98706
G01 X-9.25993 Y4.85358
G01 X-9.28139 Y4.89758
G01 X-9.29653 Y4.95833
G01 X-9.29872 Y5.02089
G01 X-9.28785 Y5.08254
G01 X-9.28123 Y5.09891
G01 X-9.14793 Y4.98706
G04 P0 ( dwell for no time -- G64 should not smooth over this point )
G00 Z0.08000 ( retract )

G00 X-8.90094 Y5.28140 ( rapid move to begin. )
G01 F3.00000
G01 Z-0.00800
G04 P0 ( dwell for no time -- G64 should not smooth over this point )
G01 F6.00000
G01 X-8.90094 Y5.28140
G01 X-8.94800 Y5.29490
G01 X-9.01045 Y5.29926
G01 X-9.07244 Y5.29055
G01 X-9.13127 Y5.26914
G01 X-9.14625 Y5.25978
G01 X-9.01294 Y5.14792
G01 X-8.90094 Y5.28140
G04 P0 ( dwell for no time -- G64 should not smooth over this point )
G00 Z0.08000 ( retract )

G00 X-8.86576 Y5.61853 ( rapid move to begin. )
G01 F3.00000
G01 Z-0.00800
G04 P0 ( dwell for no time -- G64 should not smooth over this point )
G01 F6.00000
G01 X-8.86576 Y5.61853
G01 X-8.97956 Y6.11146
G01 X-8.97035 Y6.11388
G01 X-8.95309 Y6.12193
G01 X-8.93788 Y6.13338
G01 X-8.92539 Y6.14776
G01 X-8.91616 Y6.16441
G01 X-8.91059 Y6.18262
G01 X-8.90941 Y6.19389
G01 X-8.91125 Y6.22049
G01 X-8.91745 Y6.23849
G01 X-8.92726 Y6.25481
G01 X-8.94024 Y6.26874
G01 X-8.95584 Y6.27966
G01 X-8.97337 Y6.28710
G01 X-8.99206 Y6.29074
G01 X-9.01110 Y6.29040
G01 X-9.02044 Y6.28853
G01 X-9.13424 Y6.78147
G01 X-9.12948 Y6.78308
G01 X-9.08343 Y6.79371
G01 X-9.07312 Y6.79553
G01 X-9.06268 Y6.79626
G01 X-8.95817 Y6.79808
G01 X-8.93734 Y6.79626
G01 X-8.83473 Y6.77631
G01 X-8.82458 Y6.77378
G01 X-8.81474 Y6.77020
G01 X-8.71852 Y6.72936
G01 X-8.70024 Y6.71922
G01 X-8.61461 Y6.65927
G01 X-8.60637 Y6.65282
G01 X-8.59883 Y6.64555
G01 X-8.52755 Y6.56911
G01 X-8.52082 Y6.56109
G01 X-8.51497 Y6.55241
G01 X-8.46113 Y6.46281
G01 X-8.45229 Y6.44386
G01 X-8.41990 Y6.34978
G01 X-8.41625 Y6.33477
G01 X-8.91125 Y6.22049
G01 X-8.90893 Y6.20159
G01 X-8.90941 Y6.19389
G01 X-8.97956 Y6.11146
G01 X-9.08875 Y6.17951
G01 X-9.58375 Y6.06523
G01 X-9.58010 Y6.05021
G01 X-9.54770 Y5.95613
G01 X-9.53887 Y5.93719
G01 X-9.48503 Y5.84759
G01 X-9.47918 Y5.83891
G01 X-9.47245 Y5.83089
G01 X-9.40116 Y5.75445
G01 X-9.39363 Y5.74717
G01 X-9.38539 Y5.74073
G01 X-9.29976 Y5.68077
G01 X-9.28148 Y5.67064
G01 X-9.18526 Y5.62980
G01 X-9.17542 Y5.62622
G01 X-9.16527 Y5.62369
G01 X-9.06266 Y5.60374
G01 X-9.04183 Y5.60192
G01 X-8.93732 Y5.60374
G01 X-8.92688 Y5.60447
G01 X-8.91657 Y5.60629
G01 X-8.87051 Y5.61692
G01 X-8.86576 Y5.61853
G01 X-8.86078 Y5.61917
G01 X-8.81472 Y5.62980
G01 X-8.79495 Y5.63661
G01 X-8.70022 Y5.68079
G01 X-8.69098 Y5.68570
G01 X-8.68230 Y5.69155
G01 X-8.59882 Y5.75446
G01 X-8.58353 Y5.76872
G01 X-8.51495 Y5.84761
G01 X-8.50296 Y5.86473
G01 X-8.45229 Y5.95615
G01 X-8.44770 Y5.96556
G01 X-8.44412 Y5.97540
G01 X-8.41356 Y6.07536
G01 X-8.41103 Y6.08552
G01 X-8.40957 Y6.09588
G01 X-8.40046 Y6.20001
G01 X-8.40082 Y6.22091
G01 X-8.41295 Y6.31967
G01 X-8.41625 Y6.33477
G04 P0 ( dwell for no time -- G64 should not smooth over this point )
G00 Z0.08000 ( retract )

G00 X-8.97956 Y6.11146 ( rapid move to begin. )
G01 F3.00000
G01 Z-0.00800
G04 P0 ( dwell for no time -- G64 should not smooth over this point )
G01 F6.00000
G01 X-8.97956 Y6.11146
G01 X-8.98890 Y6.10959
G01 X-9.00794 Y6.10926
G01 X-9.02663 Y6.11290
G01 X-9.04416 Y6.12034
G01 X-9.05975 Y6.13126
G01 X-9.07274 Y6.14518
G01 X-9.08255 Y6.16151
G01 X-9.08875 Y6.17951
G01 X-9.09107 Y6.19841
G01 X-9.08941 Y6.21738
G01 X-9.08384 Y6.23559
G01 X-9.07461 Y6.25224
G01 X-9.06212 Y6.26661
G01 X-9.04691 Y6.27807
G01 X-9.02965 Y6.28612
G01 X-9.02044 Y6.28853
G04 P0 ( dwell for no time -- G64 should not smooth over this point )
G00 Z0.08000 ( retract )

G00 X-9.13424 Y6.78147 ( rapid move to begin. )
G01 F3.00000
G01 Z-0.00800
G04 P0 ( dwell for no time -- G64 should not smooth over this point )
G01 F6.00000
G01 X-9.13424 Y6.78147
G01 X-9.13922 Y6.78083
G01 X-9.18528 Y6.77020
G01 X-9.20504 Y6.76339
G01 X-9.29978 Y6.71921
G01 X-9.30902 Y6.71430
G01 X-9.31770 Y6.70845
G01 X-9.40118 Y6.64554
G01 X-9.41647 Y6.63128
G01 X-9.48505 Y6.55239
G01 X-9.49704 Y6.53527
G01 X-9.54771 Y6.44384
G01 X-9.55230 Y6.43444
G01 X-9.55588 Y6.42460
G01 X-9.58644 Y6.32464
G01 X-9.58897 Y6.31448
G01 X-9.59043 Y6.30412
G01 X-9.59954 Y6.19999
G01 X-9.59918 Y6.17909
G01 X-9.58705 Y6.08033
G01 X-9.58375 Y6.06523

G04 P0 ( dwell for no time -- G64 should not smooth over this point )
G00 Z1.000 ( retract )

M5 ( Spindle off. )
G04 P1.000000
M9 ( Coolant off. )
M2 ( Program end. )

