( pcb2gcode 2.5.0 )
( Software-independent Gcode )

G94 ( Inches per minute feed rate. )
G20 ( Units == INCHES. )

G90 ( Absolute coordinates. )
G00 S30000 ( RPM spindle speed. )
G64 P0.00040 ( set maximum deviation from commanded toolpath )
G01 F6.00000 ( Feedrate. )


G00 Z1.00000 (Retract to tool change height)
T1
M5      (Spindle stop.)
G04 P1.00000 (Wait for spindle to stop)
(MSG, Change tool bit to mill diameter 0.20000in)
M6      (Tool change.)
M0      (Temporary machine stop.)
M3 ( Spindle on clockwise. )
G04 P1.00000 (Wait for spindle to get up to speed)
G04 P0 ( dwell for no time -- G64 should not smooth over this point )
G00 Z0.08000 ( retract )

G00 X0.13250 Y0.00000 ( rapid move to begin. )
G01 F3.00000
( Mill infeed pass 1/1 )
G01 Z-0.00800
G04 P0 ( dwell for no time -- G64 should not smooth over this point )
G01 F6.00000
G01 X0.13250 Y0.00000
G01 X0.13250 Y10.00039
G01 X0.13225 Y10.00706
G01 X0.13135 Y10.01654
G01 X0.13075 Y10.02131
G01 X0.12984 Y10.02644
G01 X0.12834 Y10.03267
G01 X0.12572 Y10.04147
G01 X0.12421 Y10.04603
G01 X0.12234 Y10.05089
G01 X0.11951 Y10.05708
G01 X0.11503 Y10.06555
G01 X0.11285 Y10.06938
G01 X0.11006 Y10.07378
G01 X0.10607 Y10.07930
G01 X0.10003 Y10.08673
G01 X0.09660 Y10.09065
G01 X0.09327 Y10.09412
G01 X0.08856 Y10.09847
G01 X0.08118 Y10.10458
G01 X0.07738 Y10.10752
G01 X0.07311 Y10.11050
G01 X0.06765 Y10.11386
G01 X0.05922 Y10.11841
G01 X0.05492 Y10.12055
G01 X0.05052 Y10.12249
G01 X0.04603 Y10.12421
G01 X0.04147 Y10.12572
G01 X0.03267 Y10.12835
G01 X0.02604 Y10.12991
G01 X0.02131 Y10.13075
G01 X0.01654 Y10.13135
G01 X0.00706 Y10.13225
G01 X0.00039 Y10.13250
G01 X-10.00000 Y10.13250
G01 X-10.00667 Y10.13228
G01 X-10.01614 Y10.13139
G01 X-10.02131 Y10.13075
G01 X-10.02604 Y10.12991
G01 X-10.03267 Y10.12835
G01 X-10.04147 Y10.12572
G01 X-10.04603 Y10.12421
G01 X-10.05089 Y10.12234
G01 X-10.05708 Y10.11951
G01 X-10.06555 Y10.11502
G01 X-10.06938 Y10.11285
G01 X-10.07378 Y10.11006
G01 X-10.07930 Y10.10607
G01 X-10.08673 Y10.10003
G01 X-10.09065 Y10.09660
G01 X-10.09412 Y10.09327
G01 X-10.09847 Y10.08856
G01 X-10.10458 Y10.08118
G01 X-10.10752 Y10.07738
G01 X-10.11050 Y10.07311
G01 X-10.11386 Y10.06765
G01 X-10.11841 Y10.05922
G01 X-10.12055 Y10.05492
G01 X-10.12249 Y10.05052
G01 X-10.12421 Y10.04603
G01 X-10.12572 Y10.04147
G01 X-10.12835 Y10.03267
G01 X-10.12991 Y10.02604
G01 X-10.13075 Y10.02131
G01 X-10.13135 Y10.01654
G01 X-10.13225 Y10.00706
G01 X-10.13250 Y10.00039
G01 X-10.13250 Y0.00000
G01 X-10.13228 Y-0.00667
G01 X-10.13139 Y-0.01614
G01 X-10.13075 Y-0.02131
G01 X-10.12991 Y-0.02604
G01 X-10.12835 Y-0.03267
G01 X-10.12572 Y-0.04147
G01 X-10.12421 Y-0.04603
G01 X-10.12234 Y-0.05089
G01 X-10.11951 Y-0.05708
G01 X-10.11502 Y-0.06555
G01 X-10.11285 Y-0.06938
G01 X-10.11006 Y-0.07378
G01 X-10.10607 Y-0.07930
G01 X-10.10003 Y-0.08673
G01 X-10.09660 Y-0.09065
G01 X-10.09327 Y-0.09412
G01 X-10.08856 Y-0.09847
G01 X-10.08118 Y-0.10458
G01 X-10.07738 Y-0.10752
G01 X-10.07311 Y-0.11050
G01 X-10.06765 Y-0.11386
G01 X-10.05922 Y-0.11841
G01 X-10.05492 Y-0.12055
G01 X-10.05052 Y-0.12249
G01 X-10.04603 Y-0.12421
G01 X-10.04147 Y-0.12572
G01 X-10.03267 Y-0.12834
G01 X-10.02604 Y-0.12991
G01 X-10.02131 Y-0.13075
G01 X-10.01654 Y-0.13135
G01 X-10.00706 Y-0.13225
G01 X-10.00039 Y-0.13250
G01 X0.00118 Y-0.13249
G01 X0.00745 Y-0.13222
G01 X0.01694 Y-0.13131
G01 X0.02171 Y-0.13069
G01 X0.02644 Y-0.12984
G01 X0.03267 Y-0.12834
G01 X0.04223 Y-0.12548
G01 X0.04679 Y-0.12394
G01 X0.05126 Y-0.12218
G01 X0.05708 Y-0.11951
G01 X0.06555 Y-0.11503
G01 X0.07007 Y-0.11243
G01 X0.07411 Y-0.10983
G01 X0.07930 Y-0.10607
G01 X0.08673 Y-0.10003
G01 X0.09065 Y-0.09660
G01 X0.09412 Y-0.09327
G01 X0.09847 Y-0.08856
G01 X0.10458 Y-0.08118
G01 X0.10752 Y-0.07738
G01 X0.11050 Y-0.07311
G01 X0.11386 Y-0.06765
G01 X0.11841 Y-0.05922
G01 X0.12055 Y-0.05492
G01 X0.12249 Y-0.05052
G01 X0.12487 Y-0.04414
G01 X0.12768 Y-0.03499
G01 X0.12895 Y-0.03035
G01 X0.12999 Y-0.02565
G01 X0.13108 Y-0.01893
G01 X0.13202 Y-0.00980
G01 X0.13237 Y-0.00510
G01 X0.13250 Y0.00000
G04 P0 ( dwell for no time -- G64 should not smooth over this point )
G00 Z0.08000 ( retract )

G00 X-0.13250 Y0.13250 ( rapid move to begin. )
G01 F3.00000
( Mill infeed pass 1/1 )
G01 Z-0.00800
G04 P0 ( dwell for no time -- G64 should not smooth over this point )
G01 F6.00000
G01 X-0.13250 Y0.13250
G01 X-0.13250 Y9.86750
G01 X-9.86750 Y9.86750
G01 X-9.86750 Y0.13250
G01 X-0.13250 Y0.13250
G04 P0 ( dwell for no time -- G64 should not smooth over this point )
G00 Z0.08000 ( retract )

G00 X-2.17522 Y4.31057 ( rapid move to begin. )
G01 F3.00000
( Mill infeed pass 1/1 )
G01 Z-0.00800
G04 P0 ( dwell for no time -- G64 should not smooth over this point )
G01 F6.00000
G01 X-2.17522 Y4.31057
G01 X-2.17550 Y4.30296
G01 X-2.17637 Y4.29540
G01 X-2.17781 Y4.28793
G01 X-2.17994 Y4.28020
G01 X-2.18252 Y4.27304
G01 X-2.18565 Y4.26610
G01 X-2.18929 Y4.25942
G01 X-2.19366 Y4.25270
G01 X-2.19804 Y4.24698
G01 X-2.20310 Y4.24129
G01 X-2.24158 Y4.20282
G01 X-2.24605 Y4.19881
G01 X-2.25108 Y4.19484
G01 X-2.25635 Y4.19119
G01 X-2.26185 Y4.18789
G01 X-2.26863 Y4.18443
G01 X-2.27566 Y4.18151
G01 X-2.28289 Y4.17912
G01 X-2.28988 Y4.17738
G01 X-2.29738 Y4.17609
G01 X-2.30496 Y4.17537
G01 X-2.31217 Y4.17523
G01 X-2.31977 Y4.17564
G01 X-2.32772 Y4.17669
G01 X-2.33477 Y4.17819
G01 X-2.34170 Y4.18018
G01 X-2.34884 Y4.18283
G01 X-2.35575 Y4.18601
G01 X-2.36241 Y4.18970
G01 X-2.36876 Y4.19389
G01 X-2.37478 Y4.19855
G01 X-2.38128 Y4.20450
G01 X-3.05732 Y4.88054
G01 X-3.06420 Y4.88410
G01 X-3.06961 Y4.88728
G01 X-3.07621 Y4.89161
G01 X-3.08252 Y4.89635
G01 X-3.08704 Y4.90011
G01 X-3.09284 Y4.90547
G01 X-3.09856 Y4.91147
G01 X-3.10215 Y4.91562
G01 X-3.10860 Y4.92409
G01 X-3.11229 Y4.92970
G01 X-3.11493 Y4.93406
G01 X-3.12001 Y4.94385
G01 X-3.12269 Y4.95002
G01 X-3.12454 Y4.95477
G01 X-3.12666 Y4.96114
G01 X-3.12797 Y4.96566
G01 X-3.12953 Y4.97220
G01 X-3.13045 Y4.97681
G01 X-3.13150 Y4.98388
G01 X-3.13198 Y4.98827
G01 X-3.13240 Y4.99547
G01 X-3.13250 Y5.00020
G01 X-3.13240 Y5.00453
G01 X-3.13191 Y5.01245
G01 X-3.13136 Y5.01715
G01 X-3.13027 Y5.02421
G01 X-3.12913 Y5.02961
G01 X-3.12736 Y5.03653
G01 X-3.12597 Y5.04105
G01 X-3.12398 Y5.04667
G01 X-3.12241 Y5.05071
G01 X-3.12050 Y5.05504
G01 X-3.11774 Y5.06076
G01 X-3.11510 Y5.06561
G01 X-3.11182 Y5.07105
G01 X-3.10922 Y5.07501
G01 X-3.10476 Y5.08109
G01 X-3.10182 Y5.08479
G01 X-3.09654 Y5.09071
G01 X-3.09326 Y5.09412
G01 X-3.08744 Y5.09951
G01 X-3.08347 Y5.10290
G01 X-3.07773 Y5.10728
G01 X-3.07379 Y5.11005
G01 X-3.06699 Y5.11429
G01 X-3.06254 Y5.11681
G01 X-3.05542 Y5.12033
G01 X-3.05074 Y5.12240
G01 X-3.04331 Y5.12520
G01 X-3.03845 Y5.12680
G01 X-3.03078 Y5.12885
G01 X-3.02578 Y5.12997
G01 X-3.01757 Y5.13131
G01 X-3.01248 Y5.13191
G01 X-3.00495 Y5.13239
G01 X-2.99983 Y5.13250
G01 X-2.99190 Y5.13223
G01 X-2.98679 Y5.13184
G01 X-2.97932 Y5.13085
G01 X-2.97427 Y5.12998
G01 X-2.96616 Y5.12808
G01 X-2.96123 Y5.12670
G01 X-2.95372 Y5.12413
G01 X-2.94931 Y5.12242
G01 X-2.94173 Y5.11898
G01 X-2.93717 Y5.11665
G01 X-2.93065 Y5.11287
G01 X-2.92632 Y5.11012
G01 X-2.91956 Y5.10526
G01 X-2.91523 Y5.10184
G01 X-2.90959 Y5.09684
G01 X-2.90563 Y5.09300
G01 X-2.89998 Y5.08688
G01 X-2.89620 Y5.08233
G01 X-2.89146 Y5.07598
G01 X-2.88818 Y5.07105
G01 X-2.88393 Y5.06390
G01 X-2.88062 Y5.05739
G01 X-2.20227 Y4.37898
G01 X-2.19907 Y4.37539
G01 X-2.19629 Y4.37197
G01 X-2.19343 Y4.36811
G01 X-2.19076 Y4.36411
G01 X-2.18848 Y4.36034
G01 X-2.18619 Y4.35611
G01 X-2.18410 Y4.35178
G01 X-2.18223 Y4.34735
G01 X-2.18057 Y4.34284
G01 X-2.17912 Y4.33825
G01 X-2.17800 Y4.33399
G01 X-2.17698 Y4.32929
G01 X-2.17620 Y4.32455
G01 X-2.17564 Y4.31977
G01 X-2.17531 Y4.31498
G01 X-2.17522 Y4.31057
G04 P0 ( dwell for no time -- G64 should not smooth over this point )
G00 Z0.08000 ( retract )

G00 X-1.65001 Y5.00156 ( rapid move to begin. )
G01 F3.00000
( Mill infeed pass 1/1 )
G01 Z-0.00800
G04 P0 ( dwell for no time -- G64 should not smooth over this point )
G01 F6.00000
G01 X-1.65001 Y5.00156
G01 X-1.65056 Y5.01974
G01 X-1.65197 Y5.03705
G01 X-1.65429 Y5.05463
G01 X-1.65724 Y5.07081
G01 X-1.66104 Y5.08721
G01 X-1.66588 Y5.10422
G01 X-1.67129 Y5.12021
G01 X-1.67764 Y5.13633
G01 X-1.68480 Y5.15215
G01 X-1.69271 Y5.16756
G01 X-1.70115 Y5.18218
G01 X-1.71051 Y5.19671
G01 X-1.72033 Y5.21044
G01 X-1.73109 Y5.22402
G01 X-1.74253 Y5.23708
G01 X-1.75428 Y5.24924
G01 X-1.76689 Y5.26107
G01 X-1.78009 Y5.27229
G01 X-1.79387 Y5.28286
G01 X-1.80815 Y5.29273
G01 X-1.82287 Y5.30187
G01 X-1.83759 Y5.31004
G01 X-1.85270 Y5.31749
G01 X-1.86859 Y5.32439
G01 X-1.88480 Y5.33050
G01 X-1.90087 Y5.33567
G01 X-1.91756 Y5.34015
G01 X-1.93402 Y5.34372
G01 X-1.95063 Y5.34650
G01 X-1.96784 Y5.34852
G01 X-1.98516 Y5.34969
G01 X-2.00248 Y5.34999
G01 X-2.01936 Y5.34946
G01 X-2.03658 Y5.34808
G01 X-2.05373 Y5.34585
G01 X-2.07037 Y5.34285
G01 X-2.08725 Y5.33895
G01 X-2.10350 Y5.33435
G01 X-2.11991 Y5.32882
G01 X-2.13645 Y5.32231
G01 X-2.15190 Y5.31532
G01 X-2.16735 Y5.30740
G01 X-2.18235 Y5.29874
G01 X-2.19654 Y5.28960
G01 X-2.21063 Y5.27952
G01 X-2.22420 Y5.26876
G01 X-2.23690 Y5.25763
G01 X-2.24936 Y5.24560
G01 X-2.26121 Y5.23296
G01 X-2.27214 Y5.22009
G01 X-2.28267 Y5.20639
G01 X-2.29227 Y5.19255
G01 X-2.30120 Y5.17827
G01 X-2.30965 Y5.16315
G01 X-2.31736 Y5.14759
G01 X-2.32429 Y5.13167
G01 X-2.33040 Y5.11547
G01 X-2.33559 Y5.09940
G01 X-2.34009 Y5.08267
G01 X-2.34378 Y5.06570
G01 X-2.34661 Y5.04857
G01 X-2.34859 Y5.03137
G01 X-2.34970 Y5.01452
G01 X-2.34999 Y4.99761
G01 X-2.34942 Y4.97985
G01 X-2.34803 Y4.96295
G01 X-2.34571 Y4.94537
G01 X-2.34276 Y4.92919
G01 X-2.33896 Y4.91279
G01 X-2.33412 Y4.89578
G01 X-2.32871 Y4.87979
G01 X-2.32236 Y4.86367
G01 X-2.31520 Y4.84785
G01 X-2.30729 Y4.83244
G01 X-2.29885 Y4.81782
G01 X-2.28949 Y4.80329
G01 X-2.27967 Y4.78956
G01 X-2.26891 Y4.77598
G01 X-2.25747 Y4.76292
G01 X-2.24572 Y4.75075
G01 X-2.23311 Y4.73893
G01 X-2.21991 Y4.72771
G01 X-2.20613 Y4.71714
G01 X-2.19185 Y4.70727
G01 X-2.17713 Y4.69813
G01 X-2.16241 Y4.68996
G01 X-2.14730 Y4.68251
G01 X-2.13141 Y4.67561
G01 X-2.11520 Y4.66950
G01 X-2.09913 Y4.66433
G01 X-2.08244 Y4.65985
G01 X-2.06598 Y4.65627
G01 X-2.04937 Y4.65350
G01 X-2.03216 Y4.65148
G01 X-2.01484 Y4.65031
G01 X-1.99752 Y4.65001
G01 X-1.98064 Y4.65053
G01 X-1.96342 Y4.65192
G01 X-1.94627 Y4.65415
G01 X-1.92962 Y4.65715
G01 X-1.91275 Y4.66105
G01 X-1.89650 Y4.66565
G01 X-1.88009 Y4.67118
G01 X-1.86355 Y4.67769
G01 X-1.84810 Y4.68468
G01 X-1.83265 Y4.69260
G01 X-1.81765 Y4.70125
G01 X-1.80346 Y4.71040
G01 X-1.78937 Y4.72048
G01 X-1.77579 Y4.73124
G01 X-1.76310 Y4.74236
G01 X-1.75064 Y4.75440
G01 X-1.73879 Y4.76704
G01 X-1.72786 Y4.77991
G01 X-1.71733 Y4.79361
G01 X-1.70773 Y4.80745
G01 X-1.69880 Y4.82173
G01 X-1.69035 Y4.83685
G01 X-1.68264 Y4.85241
G01 X-1.67571 Y4.86833
G01 X-1.66959 Y4.88453
G01 X-1.66441 Y4.90060
G01 X-1.65990 Y4.91733
G01 X-1.65622 Y4.93429
G01 X-1.65339 Y4.95143
G01 X-1.65145 Y4.96823
G01 X-1.65032 Y4.98507
G01 X-1.65001 Y5.00156
G04 P0 ( dwell for no time -- G64 should not smooth over this point )
G00 Z0.08000 ( retract )

G00 X-3.77626 Y4.91161 ( rapid move to begin. )
G01 F3.00000
( Mill infeed pass 1/1 )
G01 Z-0.00800
G04 P0 ( dwell for no time -- G64 should not smooth over this point )
G01 F6.00000
G01 X-3.77626 Y4.91161
G01 X-3.77652 Y4.90440
G01 X-3.77735 Y4.89684
G01 X-3.77876 Y4.88936
G01 X-3.78062 Y4.88239
G01 X-3.78297 Y4.87558
G01 X-3.78581 Y4.86895
G01 X-3.78912 Y4.86254
G01 X-3.79311 Y4.85605
G01 X-3.79588 Y4.85212
G01 X-3.79883 Y4.84833
G01 X-3.80196 Y4.84468
G01 X-3.80526 Y4.84118
G01 X-3.84262 Y4.80387
G01 X-3.84833 Y4.79883
G01 X-3.85473 Y4.79401
G01 X-3.86046 Y4.79033
G01 X-3.86643 Y4.78705
G01 X-3.87223 Y4.78433
G01 X-3.87858 Y4.78187
G01 X-3.88509 Y4.77984
G01 X-3.89171 Y4.77826
G01 X-3.89803 Y4.77718
G01 X-3.90480 Y4.77649
G01 X-3.91161 Y4.77626
G01 X-3.91802 Y4.77646
G01 X-3.92480 Y4.77713
G01 X-3.93151 Y4.77826
G01 X-3.93814 Y4.77984
G01 X-3.94464 Y4.78187
G01 X-3.95062 Y4.78418
G01 X-3.95680 Y4.78705
G01 X-3.96311 Y4.79053
G01 X-3.96882 Y4.79424
G01 X-3.97427 Y4.79832
G01 X-3.97973 Y4.80304
G01 X-4.05732 Y4.88054
G01 X-4.06693 Y4.88565
G01 X-4.07621 Y4.89161
G01 X-4.08466 Y4.89807
G01 X-4.09284 Y4.90547
G01 X-4.09586 Y4.90855
G01 X-4.10064 Y4.91382
G01 X-4.10362 Y4.91746
G01 X-4.10769 Y4.92281
G01 X-4.11013 Y4.92636
G01 X-4.11414 Y4.93271
G01 X-4.11946 Y4.94268
G01 X-4.19530 Y5.01853
G01 X-4.19989 Y5.02356
G01 X-4.20412 Y5.02890
G01 X-4.20799 Y5.03451
G01 X-4.21146 Y5.04037
G01 X-4.21452 Y5.04645
G01 X-4.21731 Y5.05310
G01 X-4.21950 Y5.05955
G01 X-4.22124 Y5.06614
G01 X-4.22253 Y5.07282
G01 X-4.22339 Y5.07998
G01 X-4.22373 Y5.08678
G01 X-4.22361 Y5.09359
G01 X-4.22297 Y5.10078
G01 X-4.22190 Y5.10750
G01 X-4.22037 Y5.11414
G01 X-4.21826 Y5.12104
G01 X-4.21582 Y5.12739
G01 X-4.21295 Y5.13357
G01 X-4.20987 Y5.13919
G01 X-4.20644 Y5.14461
G01 X-4.20292 Y5.14948
G01 X-4.19857 Y5.15472
G01 X-4.19474 Y5.15881
G01 X-4.15853 Y5.19502
G01 X-4.15229 Y5.20066
G01 X-4.14560 Y5.20576
G01 X-4.13850 Y5.21028
G01 X-4.13069 Y5.21436
G01 X-4.12554 Y5.21658
G01 X-4.12028 Y5.21852
G01 X-4.11491 Y5.22016
G01 X-4.10907 Y5.22158
G01 X-4.10356 Y5.22259
G01 X-4.09799 Y5.22328
G01 X-4.09239 Y5.22366
G01 X-4.08678 Y5.22373
G01 X-4.08118 Y5.22348
G01 X-4.07560 Y5.22292
G01 X-4.07006 Y5.22205
G01 X-4.06457 Y5.22087
G01 X-4.05917 Y5.21938
G01 X-4.05385 Y5.21759
G01 X-4.04828 Y5.21535
G01 X-4.04320 Y5.21295
G01 X-4.03689 Y5.20946
G01 X-4.03118 Y5.20576
G01 X-4.02573 Y5.20168
G01 X-4.02027 Y5.19696
G01 X-3.94268 Y5.11946
G01 X-3.93307 Y5.11435
G01 X-3.92379 Y5.10839
G01 X-3.91534 Y5.10193
G01 X-3.90715 Y5.09453
G01 X-3.90387 Y5.09116
G01 X-3.89910 Y5.08588
G01 X-3.89231 Y5.07719
G01 X-3.88987 Y5.07364
G01 X-3.88586 Y5.06729
G01 X-3.88054 Y5.05731
G01 X-3.80554 Y4.98232
G01 X-3.80143 Y4.97795
G01 X-3.79588 Y4.97110
G01 X-3.79311 Y4.96717
G01 X-3.79053 Y4.96311
G01 X-3.78816 Y4.95893
G01 X-3.78616 Y4.95500
G01 X-3.78269 Y4.94690
G01 X-3.77995 Y4.93852
G01 X-3.77885 Y4.93425
G01 X-3.77788 Y4.92955
G01 X-3.77668 Y4.92082
G01 X-3.77637 Y4.91642
G01 X-3.77626 Y4.91161
G04 P0 ( dwell for no time -- G64 should not smooth over this point )
G00 Z0.08000 ( retract )

G00 X-5.86915 Y4.97938 ( rapid move to begin. )
G01 F3.00000
( Mill infeed pass 1/1 )
G01 Z-0.00800
G04 P0 ( dwell for no time -- G64 should not smooth over this point )
G01 F6.00000
G01 X-5.86915 Y4.97938
G01 X-5.42137 Y5.42704
G01 X-5.41464 Y5.43272
G01 X-5.41076 Y5.43557
G01 X-5.40709 Y5.43801
G01 X-5.40332 Y5.44029
G01 X-5.39909 Y5.44258
G01 X-5.39108 Y5.44625
G01 X-5.38277 Y5.44919
G01 X-5.37814 Y5.45048
G01 X-5.37385 Y5.45147
G01 X-5.36951 Y5.45227
G01 X-5.36475 Y5.45292
G01 X-5.35596 Y5.45352
G01 X-5.34715 Y5.45335
G01 X-5.33838 Y5.45240
G01 X-5.32974 Y5.45068
G01 X-5.32128 Y5.44820
G01 X-5.31308 Y5.44499
G01 X-5.30518 Y5.44107
G01 X-5.29766 Y5.43648
G01 X-5.29089 Y5.43149
G01 X-5.28692 Y5.42812
G01 X-5.28284 Y5.42426
G01 X-4.99072 Y5.13214
G01 X-4.98506 Y5.13165
G01 X-4.98037 Y5.13103
G01 X-4.97372 Y5.12985
G01 X-4.96872 Y5.12875
G01 X-4.95760 Y5.12553
G01 X-4.95343 Y5.12402
G01 X-4.94673 Y5.12131
G01 X-4.94198 Y5.11911
G01 X-4.93628 Y5.11615
G01 X-4.92866 Y5.11163
G01 X-4.92336 Y5.10806
G01 X-4.91952 Y5.10526
G01 X-4.91582 Y5.10227
G01 X-4.91005 Y5.09729
G01 X-4.90601 Y5.09336
G01 X-4.90056 Y5.08757
G01 X-4.89726 Y5.08364
G01 X-4.89243 Y5.07736
G01 X-4.88953 Y5.07313
G01 X-4.88514 Y5.06605
G01 X-4.88269 Y5.06155
G01 X-4.87920 Y5.05443
G01 X-4.87721 Y5.04971
G01 X-4.87430 Y5.04191
G01 X-4.87280 Y5.03701
G01 X-4.87079 Y5.02933
G01 X-4.86978 Y5.02431
G01 X-4.86852 Y5.01639
G01 X-4.86781 Y5.00880
G01 X-4.86755 Y5.00358
G01 X-4.86759 Y4.99556
G01 X-4.86785 Y4.99035
G01 X-4.86868 Y4.98236
G01 X-4.86964 Y4.97642
G01 X-4.87117 Y4.96902
G01 X-4.87282 Y4.96293
G01 X-4.87537 Y4.95501
G01 X-4.87847 Y4.94727
G01 X-4.88115 Y4.94143
G01 X-4.88491 Y4.93434
G01 X-4.88760 Y4.92987
G01 X-4.89200 Y4.92324
G01 X-4.89531 Y4.91882
G01 X-4.90060 Y4.91239
G01 X-4.90408 Y4.90863
G01 X-4.90970 Y4.90304
G01 X-4.91323 Y4.89989
G01 X-4.91911 Y4.89506
G01 X-4.92266 Y4.89243
G01 X-4.92829 Y4.88858
G01 X-4.93274 Y4.88586
G01 X-4.93901 Y4.88238
G01 X-4.94325 Y4.88028
G01 X-4.94870 Y4.87786
G01 X-4.95679 Y4.87476
G01 X-4.96328 Y4.87270
G01 X-4.96832 Y4.87135
G01 X-4.97419 Y4.87004
G01 X-4.97854 Y4.86925
G01 X-4.98606 Y4.86825
G01 X-4.99075 Y4.86782
G01 X-5.49497 Y4.36360
G01 X-5.50117 Y4.35791
G01 X-5.50555 Y4.35441
G01 X-5.50980 Y4.35139
G01 X-5.51419 Y4.34859
G01 X-5.51872 Y4.34603
G01 X-5.52338 Y4.34370
G01 X-5.52816 Y4.34162
G01 X-5.53304 Y4.33979
G01 X-5.53839 Y4.33811
G01 X-5.54343 Y4.33682
G01 X-5.54893 Y4.33573
G01 X-5.55449 Y4.33494
G01 X-5.55968 Y4.33450
G01 X-5.56488 Y4.33432
G01 X-5.57009 Y4.33441
G01 X-5.57569 Y4.33481
G01 X-5.58085 Y4.33547
G01 X-5.58833 Y4.33691
G01 X-5.59567 Y4.33892
G01 X-5.60284 Y4.34147
G01 X-5.60979 Y4.34457
G01 X-5.61649 Y4.34818
G01 X-5.62290 Y4.35230
G01 X-5.62897 Y4.35689
G01 X-5.63467 Y4.36192
G01 X-5.99079 Y4.71801
G01 X-5.99641 Y4.72427
G01 X-6.00126 Y4.73066
G01 X-6.00577 Y4.73775
G01 X-6.00951 Y4.74484
G01 X-6.01178 Y4.74997
G01 X-6.01376 Y4.75522
G01 X-6.01555 Y4.76096
G01 X-6.01691 Y4.76640
G01 X-6.01802 Y4.77230
G01 X-6.01874 Y4.77787
G01 X-6.01914 Y4.78346
G01 X-6.01923 Y4.78907
G01 X-6.01901 Y4.79467
G01 X-6.01847 Y4.80026
G01 X-6.01762 Y4.80580
G01 X-6.01636 Y4.81168
G01 X-6.01487 Y4.81709
G01 X-6.01295 Y4.82278
G01 X-6.01084 Y4.82798
G01 X-6.00845 Y4.83305
G01 X-6.00597 Y4.83764
G01 X-6.00326 Y4.84208
G01 X-6.00033 Y4.84639
G01 X-5.99717 Y4.85053
G01 X-5.99163 Y4.85686
G01 X-5.97931 Y4.86922
G01 X-5.97364 Y4.87215
G01 X-5.96557 Y4.87668
G01 X-5.95277 Y4.88466
G01 X-5.94262 Y4.89178
G01 X-5.93560 Y4.89717
G01 X-5.92684 Y4.90448
G01 X-5.91652 Y4.91408
G01 X-5.90895 Y4.92189
G01 X-5.90144 Y4.93039
G01 X-5.89591 Y4.93719
G01 X-5.88862 Y4.94700
G01 X-5.87990 Y4.96021
G01 X-5.87385 Y4.97053
G01 X-5.86915 Y4.97938
G01 X-5.86797 Y4.98886
G01 X-5.86758 Y4.99566
G01 X-5.86751 Y5.00048
G01 X-5.86802 Y5.01171
G01 X-5.86948 Y5.02285
G01 X-5.87140 Y5.03185
G01 X-5.87317 Y5.03831
G01 X-5.87624 Y5.04731
G01 X-5.87964 Y5.05534
G01 X-5.88283 Y5.06185
G01 X-5.88743 Y5.06986
G01 X-5.89073 Y5.07492
G01 X-5.89567 Y5.08167
G01 X-5.89943 Y5.08624
G01 X-5.90586 Y5.09324
G01 X-5.91250 Y5.09948
G01 X-5.91765 Y5.10378
G01 X-5.92497 Y5.10921
G01 X-5.93233 Y5.11388
G01 X-5.93865 Y5.11743
G01 X-5.94609 Y5.12101
G01 X-6.12172 Y5.49758
G01 X-6.12435 Y5.50253
G01 X-6.12704 Y5.50700
G01 X-6.12996 Y5.51131
G01 X-6.13310 Y5.51547
G01 X-6.13645 Y5.51945
G01 X-6.14028 Y5.52355
G01 X-6.14434 Y5.52742
G01 X-6.14830 Y5.53081
G01 X-6.15341 Y5.53468
G01 X-6.15909 Y5.53844
G01 X-6.16502 Y5.54179
G01 X-6.17079 Y5.54458
G01 X-6.17673 Y5.54699
G01 X-6.18320 Y5.54912
G01 X-6.18980 Y5.55081
G01 X-6.19610 Y5.55199
G01 X-6.20286 Y5.55280
G01 X-6.20926 Y5.55313
G01 X-6.21607 Y5.55304
G01 X-6.22246 Y5.55253
G01 X-6.22881 Y5.55161
G01 X-6.23547 Y5.55019
G01 X-6.24202 Y5.54832
G01 X-6.24842 Y5.54601
G01 X-6.25357 Y5.54378
G01 X-6.70997 Y5.33089
G01 X-6.71626 Y5.32738
G01 X-6.72295 Y5.32296
G01 X-6.72895 Y5.31828
G01 X-6.73457 Y5.31315
G01 X-6.73953 Y5.30791
G01 X-6.74434 Y5.30201
G01 X-6.74868 Y5.29576
G01 X-6.75254 Y5.28920
G01 X-6.75506 Y5.28419
G01 X-6.75729 Y5.27904
G01 X-6.75923 Y5.27378
G01 X-6.76087 Y5.26841
G01 X-6.76221 Y5.26297
G01 X-6.76324 Y5.25745
G01 X-6.76396 Y5.25189
G01 X-6.76436 Y5.24629
G01 X-6.76446 Y5.24069
G01 X-6.76423 Y5.23508
G01 X-6.76370 Y5.22950
G01 X-6.76285 Y5.22395
G01 X-6.76169 Y5.21847
G01 X-6.76023 Y5.21305
G01 X-6.75846 Y5.20773
G01 X-6.75640 Y5.20251
G01 X-6.54220 Y4.74319
G01 X-6.53869 Y4.73689
G01 X-6.53427 Y4.73021
G01 X-6.52959 Y4.72421
G01 X-6.52446 Y4.71858
G01 X-6.51922 Y4.71362
G01 X-6.51332 Y4.70882
G01 X-6.50707 Y4.70447
G01 X-6.50051 Y4.70061
G01 X-6.49586 Y4.69827
G01 X-6.49146 Y4.69632
G01 X-6.48660 Y4.69445
G01 X-6.48165 Y4.69284
G01 X-6.47701 Y4.69158
G01 X-6.47192 Y4.69047
G01 X-6.46718 Y4.68968
G01 X-6.46200 Y4.68908
G01 X-6.45720 Y4.68877
G01 X-6.45200 Y4.68870
G01 X-6.44719 Y4.68887
G01 X-6.44200 Y4.68931
G01 X-6.43724 Y4.68996
G01 X-6.43212 Y4.69093
G01 X-6.42706 Y4.69216
G01 X-6.42206 Y4.69365
G01 X-6.41678 Y4.69554
G01 X-6.41125 Y4.69789
G01 X-6.03647 Y4.87266
G01 X-6.02898 Y4.87071
G01 X-6.02002 Y4.86903
G01 X-6.01337 Y4.86819
G01 X-6.00459 Y4.86758
G01 X-5.99422 Y4.86763
G01 X-5.98477 Y4.86839
G01 X-5.97957 Y4.86909
G01 X-5.97660 Y4.87058
G04 P0 ( dwell for no time -- G64 should not smooth over this point )
G00 Z0.08000 ( retract )

G00 X-6.73930 Y4.80832 ( rapid move to begin. )
G01 F3.00000
( Mill infeed pass 1/1 )
G01 Z-0.00800
G04 P0 ( dwell for no time -- G64 should not smooth over this point )
G01 F6.00000
G01 X-6.73930 Y4.80832
G01 X-6.73964 Y4.81672
G01 X-6.74075 Y4.82546
G01 X-6.81608 Y5.25268
G01 X-6.81714 Y5.25778
G01 X-6.81824 Y5.26204
G01 X-6.82018 Y5.26815
G01 X-6.82234 Y5.27375
G01 X-6.82502 Y5.27957
G01 X-6.82806 Y5.28521
G01 X-6.83123 Y5.29031
G01 X-6.83495 Y5.29553
G01 X-6.83899 Y5.30050
G01 X-6.84335 Y5.30520
G01 X-6.84799 Y5.30961
G01 X-6.85260 Y5.31346
G01 X-6.85775 Y5.31727
G01 X-6.86314 Y5.32073
G01 X-6.86839 Y5.32366
G01 X-6.87416 Y5.32643
G01 X-6.88010 Y5.32882
G01 X-6.88619 Y5.33083
G01 X-6.89200 Y5.33236
G01 X-6.89749 Y5.33347
G01 X-6.90344 Y5.33431
G01 X-6.90902 Y5.33477
G01 X-6.91503 Y5.33492
G01 X-6.92103 Y5.33471
G01 X-6.92661 Y5.33419
G01 X-6.93255 Y5.33328
G01 X-6.93842 Y5.33202
G01 X-6.94421 Y5.33041
G01 X-6.94951 Y5.32859
G01 X-6.95507 Y5.32632
G01 X-6.96048 Y5.32372
G01 X-6.96539 Y5.32100
G01 X-6.97046 Y5.31779
G01 X-6.97502 Y5.31453
G01 X-6.97877 Y5.31153
G01 X-7.31290 Y5.03109
G01 X-7.31782 Y5.02638
G01 X-7.32266 Y5.02104
G01 X-7.32686 Y5.01570
G01 X-7.33091 Y5.00973
G01 X-7.33433 Y5.00385
G01 X-7.33750 Y4.99738
G01 X-7.34007 Y4.99107
G01 X-7.34220 Y4.98461
G01 X-7.34421 Y4.97644
G01 X-7.34553 Y4.96814
G01 X-7.34615 Y4.95976
G01 X-7.34606 Y4.95135
G01 X-7.34532 Y4.94338
G01 X-7.34387 Y4.93510
G01 X-7.34171 Y4.92697
G01 X-7.33889 Y4.91905
G01 X-7.33559 Y4.91176
G01 X-7.33130 Y4.90407
G01 X-7.32682 Y4.89743
G01 X-7.32157 Y4.89086
G01 X-7.31578 Y4.88476
G01 X-7.30950 Y4.87917
G01 X-7.30278 Y4.87413
G01 X-7.29600 Y4.86987
G01 X-7.28854 Y4.86599
G01 X-7.28078 Y4.86276
G01 X-6.87350 Y4.71452
G01 X-6.86742 Y4.71252
G01 X-6.86200 Y4.71110
G01 X-6.85611 Y4.70991
G01 X-6.85056 Y4.70912
G01 X-6.84457 Y4.70863
G01 X-6.83857 Y4.70849
G01 X-6.83297 Y4.70869
G01 X-6.82738 Y4.70920
G01 X-6.82144 Y4.71010
G01 X-6.81557 Y4.71134
G01 X-6.81016 Y4.71283
G01 X-6.80447 Y4.71475
G01 X-6.79928 Y4.71685
G01 X-6.79420 Y4.71924
G01 X-6.78893 Y4.72210
G01 X-6.78417 Y4.72506
G01 X-6.77926 Y4.72852
G01 X-6.77456 Y4.73227
G01 X-6.77040 Y4.73602
G01 X-6.76644 Y4.73999
G01 X-6.76246 Y4.74449
G01 X-6.75900 Y4.74890
G01 X-6.75578 Y4.75349
G01 X-6.75263 Y4.75860
G01 X-6.74997 Y4.76354
G01 X-6.74760 Y4.76861
G01 X-6.74537 Y4.77419
G01 X-6.74359 Y4.77951
G01 X-6.74203 Y4.78531
G01 X-6.74081 Y4.79119
G01 X-6.74000 Y4.79673
G01 X-6.73947 Y4.80272
G01 X-6.73930 Y4.80832
G04 P0 ( dwell for no time -- G64 should not smooth over this point )
G00 Z0.08000 ( retract )

G00 X-7.65000 Y4.99980 ( rapid move to begin. )
G01 F3.00000
( Mill infeed pass 1/1 )
G01 Z-0.00800
G04 P0 ( dwell for no time -- G64 should not smooth over this point )
G01 F6.00000
G01 X-7.65000 Y4.99980
G01 X-7.65017 Y5.00581
G01 X-7.65070 Y5.01181
G01 X-7.65159 Y5.01776
G01 X-7.65274 Y5.02326
G01 X-7.65432 Y5.02906
G01 X-7.65638 Y5.03514
G01 X-7.65866 Y5.04071
G01 X-7.66127 Y5.04613
G01 X-7.78840 Y5.26651
G01 X-7.79090 Y5.27062
G01 X-7.79361 Y5.27460
G01 X-7.79725 Y5.27939
G01 X-7.80117 Y5.28395
G01 X-7.80536 Y5.28827
G01 X-7.80980 Y5.29233
G01 X-7.81448 Y5.29612
G01 X-7.81938 Y5.29961
G01 X-7.82413 Y5.30260
G01 X-7.82940 Y5.30551
G01 X-7.83447 Y5.30793
G01 X-7.84004 Y5.31020
G01 X-7.84574 Y5.31213
G01 X-7.85155 Y5.31372
G01 X-7.85744 Y5.31495
G01 X-7.86339 Y5.31583
G01 X-7.86899 Y5.31632
G01 X-7.87500 Y5.31651
G01 X-8.12500 Y5.31651
G01 X-8.13061 Y5.31635
G01 X-8.13701 Y5.31578
G01 X-8.14375 Y5.31473
G01 X-8.15040 Y5.31323
G01 X-8.15655 Y5.31140
G01 X-8.16294 Y5.30903
G01 X-8.16880 Y5.30640
G01 X-8.17483 Y5.30321
G01 X-8.18062 Y5.29961
G01 X-8.18520 Y5.29636
G01 X-8.18928 Y5.29311
G01 X-8.19318 Y5.28965
G01 X-8.19691 Y5.28600
G01 X-8.20043 Y5.28216
G01 X-8.20375 Y5.27813
G01 X-8.20663 Y5.27427
G01 X-8.20974 Y5.26960
G01 X-8.33720 Y5.04895
G01 X-8.34016 Y5.04326
G01 X-8.34275 Y5.03739
G01 X-8.34483 Y5.03174
G01 X-8.34667 Y5.02559
G01 X-8.34811 Y5.01934
G01 X-8.34915 Y5.01300
G01 X-8.34978 Y5.00662
G01 X-8.35000 Y5.00020
G01 X-8.34983 Y4.99418
G01 X-8.34925 Y4.98779
G01 X-8.34834 Y4.98184
G01 X-8.34707 Y4.97596
G01 X-8.34545 Y4.97017
G01 X-8.34348 Y4.96448
G01 X-8.34117 Y4.95892
G01 X-8.33854 Y4.95351
G01 X-8.21140 Y4.73315
G01 X-8.20663 Y4.72572
G01 X-8.20300 Y4.72092
G01 X-8.19910 Y4.71634
G01 X-8.19493 Y4.71201
G01 X-8.19050 Y4.70793
G01 X-8.18584 Y4.70413
G01 X-8.18128 Y4.70084
G01 X-8.17621 Y4.69760
G01 X-8.17095 Y4.69468
G01 X-8.16553 Y4.69207
G01 X-8.15995 Y4.68980
G01 X-8.15426 Y4.68787
G01 X-8.14845 Y4.68628
G01 X-8.14256 Y4.68505
G01 X-8.13661 Y4.68417
G01 X-8.13101 Y4.68367
G01 X-8.12500 Y4.68349
G01 X-7.87500 Y4.68349
G01 X-7.86939 Y4.68365
G01 X-7.86299 Y4.68422
G01 X-7.85625 Y4.68527
G01 X-7.84960 Y4.68677
G01 X-7.84345 Y4.68860
G01 X-7.83706 Y4.69097
G01 X-7.83120 Y4.69360
G01 X-7.82517 Y4.69679
G01 X-7.81938 Y4.70039
G01 X-7.81512 Y4.70340
G01 X-7.81103 Y4.70663
G01 X-7.80711 Y4.71007
G01 X-7.80309 Y4.71400
G01 X-7.79957 Y4.71784
G01 X-7.79625 Y4.72186
G01 X-7.79314 Y4.72605
G01 X-7.79026 Y4.73040
G01 X-7.66280 Y4.95105
G01 X-7.65984 Y4.95674
G01 X-7.65725 Y4.96261
G01 X-7.65517 Y4.96826
G01 X-7.65333 Y4.97441
G01 X-7.65189 Y4.98066
G01 X-7.65085 Y4.98700
G01 X-7.65022 Y4.99338
G01 X-7.65000 Y4.99980
G04 P0 ( dwell for no time -- G64 should not smooth over this point )
G00 Z0.08000 ( retract )

G00 X-8.40000 Y4.99949 ( rapid move to begin. )
G01 F3.00000
( Mill infeed pass 1/1 )
G01 Z-0.00800
G04 P0 ( dwell for no time -- G64 should not smooth over this point )
G01 F6.00000
G01 X-8.40000 Y4.99949
G01 X-8.40016 Y5.01391
G01 X-8.40069 Y5.02876
G01 X-8.40159 Y5.04362
G01 X-8.40285 Y5.05845
G01 X-8.40449 Y5.07324
G01 X-8.40648 Y5.08797
G01 X-8.40877 Y5.10222
G01 X-8.41149 Y5.11684
G01 X-8.41456 Y5.13138
G01 X-8.41789 Y5.14543
G01 X-8.42167 Y5.15980
G01 X-8.42581 Y5.17410
G01 X-8.43030 Y5.18826
G01 X-8.43499 Y5.20190
G01 X-8.44000 Y5.21542
G01 X-8.44551 Y5.22921
G01 X-8.45118 Y5.24249
G01 X-8.45736 Y5.25600
G01 X-8.46387 Y5.26938
G01 X-8.47072 Y5.28260
G01 X-8.47788 Y5.29562
G01 X-8.48514 Y5.30810
G01 X-8.49292 Y5.32074
G01 X-8.50079 Y5.33285
G01 X-8.50919 Y5.34511
G01 X-8.51788 Y5.35716
G01 X-8.52687 Y5.36898
G01 X-8.53590 Y5.38027
G01 X-8.54546 Y5.39165
G01 X-8.55501 Y5.40248
G01 X-8.56511 Y5.41336
G01 X-8.57518 Y5.42371
G01 X-8.58579 Y5.43408
G01 X-8.59639 Y5.44396
G01 X-8.60934 Y5.45543
G01 X-8.61879 Y5.46337
G01 X-8.63089 Y5.47303
G01 X-8.64231 Y5.48173
G01 X-8.65434 Y5.49043
G01 X-8.66624 Y5.49860
G01 X-8.67869 Y5.50672
G01 X-8.69136 Y5.51453
G01 X-8.70420 Y5.52201
G01 X-8.71684 Y5.52898
G01 X-8.73001 Y5.53582
G01 X-8.74299 Y5.54217
G01 X-8.75650 Y5.54837
G01 X-8.77015 Y5.55423
G01 X-8.78356 Y5.55960
G01 X-8.79748 Y5.56479
G01 X-8.81153 Y5.56963
G01 X-8.82530 Y5.57400
G01 X-8.83955 Y5.57815
G01 X-8.85351 Y5.58184
G01 X-8.86795 Y5.58529
G01 X-8.88207 Y5.58830
G01 X-8.89666 Y5.59103
G01 X-8.91091 Y5.59335
G01 X-8.92563 Y5.59537
G01 X-8.94001 Y5.59699
G01 X-8.95525 Y5.59833
G01 X-8.97008 Y5.59925
G01 X-8.98451 Y5.59980
G01 X-8.99937 Y5.60000
G01 X-9.01425 Y5.59983
G01 X-9.02913 Y5.59929
G01 X-9.04396 Y5.59839
G01 X-9.05833 Y5.59716
G01 X-9.07266 Y5.59558
G01 X-9.08739 Y5.59360
G01 X-9.10209 Y5.59125
G01 X-9.11672 Y5.58854
G01 X-9.13126 Y5.58547
G01 X-9.14531 Y5.58214
G01 X-9.15968 Y5.57836
G01 X-9.17358 Y5.57434
G01 X-9.18815 Y5.56974
G01 X-9.20181 Y5.56504
G01 X-9.21574 Y5.55987
G01 X-9.22954 Y5.55436
G01 X-9.24281 Y5.54867
G01 X-9.25631 Y5.54250
G01 X-9.26929 Y5.53617
G01 X-9.28249 Y5.52934
G01 X-9.29551 Y5.52218
G01 X-9.30800 Y5.51492
G01 X-9.32065 Y5.50713
G01 X-9.33313 Y5.49902
G01 X-9.34539 Y5.49062
G01 X-9.35742 Y5.48192
G01 X-9.36891 Y5.47318
G01 X-9.38018 Y5.46418
G01 X-9.39123 Y5.45491
G01 X-9.40236 Y5.44509
G01 X-9.41295 Y5.43528
G01 X-9.42359 Y5.42493
G01 X-9.43370 Y5.41462
G01 X-9.44387 Y5.40371
G01 X-9.45542 Y5.39066
G01 X-9.46364 Y5.38088
G01 X-9.47324 Y5.36884
G01 X-9.48194 Y5.35740
G01 X-9.49063 Y5.34537
G01 X-9.49879 Y5.33348
G01 X-9.50666 Y5.32139
G01 X-9.51447 Y5.30875
G01 X-9.52196 Y5.29591
G01 X-9.52893 Y5.28326
G01 X-9.53578 Y5.27007
G01 X-9.54231 Y5.25670
G01 X-9.54850 Y5.24319
G01 X-9.55420 Y5.22992
G01 X-9.55972 Y5.21612
G01 X-9.56491 Y5.20218
G01 X-9.56974 Y5.18812
G01 X-9.57411 Y5.17436
G01 X-9.57825 Y5.16008
G01 X-9.58204 Y5.14569
G01 X-9.58547 Y5.13123
G01 X-9.58846 Y5.11710
G01 X-9.59118 Y5.10249
G01 X-9.59354 Y5.08782
G01 X-9.59548 Y5.07351
G01 X-9.59712 Y5.05876
G01 X-9.59836 Y5.04437
G01 X-9.59927 Y5.02954
G01 X-9.59982 Y5.01467
G01 X-9.60000 Y5.00021
G01 X-9.59982 Y4.98537
G01 X-9.59928 Y4.97051
G01 X-9.59836 Y4.95566
G01 X-9.59708 Y4.94083
G01 X-9.59542 Y4.92605
G01 X-9.59341 Y4.91130
G01 X-9.59103 Y4.89663
G01 X-9.58837 Y4.88244
G01 X-9.58528 Y4.86790
G01 X-9.58182 Y4.85343
G01 X-9.57812 Y4.83945
G01 X-9.57398 Y4.82522
G01 X-9.56961 Y4.81147
G01 X-9.56477 Y4.79742
G01 X-9.55958 Y4.78350
G01 X-9.55436 Y4.77047
G01 X-9.54834 Y4.75643
G01 X-9.54214 Y4.74293
G01 X-9.53580 Y4.72996
G01 X-9.52895 Y4.71679
G01 X-9.52198 Y4.70414
G01 X-9.51449 Y4.69130
G01 X-9.50668 Y4.67863
G01 X-9.49855 Y4.66617
G01 X-9.49012 Y4.65391
G01 X-9.48140 Y4.64187
G01 X-9.47264 Y4.63039
G01 X-9.46334 Y4.61880
G01 X-9.45376 Y4.60744
G01 X-9.44418 Y4.59663
G01 X-9.43405 Y4.58576
G01 X-9.42365 Y4.57512
G01 X-9.41298 Y4.56474
G01 X-9.40181 Y4.55441
G01 X-9.39048 Y4.54441
G01 X-9.37990 Y4.53559
G01 X-9.36858 Y4.52655
G01 X-9.35643 Y4.51734
G01 X-9.34504 Y4.50914
G01 X-9.33278 Y4.50074
G01 X-9.32029 Y4.49264
G01 X-9.30763 Y4.48486
G01 X-9.29514 Y4.47761
G01 X-9.28213 Y4.47047
G01 X-9.26930 Y4.46383
G01 X-9.25594 Y4.45733
G01 X-9.24242 Y4.45115
G01 X-9.22914 Y4.44548
G01 X-9.21536 Y4.43998
G01 X-9.20182 Y4.43496
G01 X-9.18776 Y4.43013
G01 X-9.17357 Y4.42565
G01 X-9.15929 Y4.42153
G01 X-9.14532 Y4.41786
G01 X-9.13088 Y4.41445
G01 X-9.11675 Y4.41147
G01 X-9.10216 Y4.40876
G01 X-9.08790 Y4.40647
G01 X-9.07317 Y4.40448
G01 X-9.05840 Y4.40285
G01 X-9.04401 Y4.40162
G01 X-9.02918 Y4.40071
G01 X-9.01431 Y4.40017
G01 X-8.99984 Y4.40000
G01 X-8.98457 Y4.40020
G01 X-8.97016 Y4.40074
G01 X-8.95536 Y4.40166
G01 X-8.94095 Y4.40291
G01 X-8.92618 Y4.40456
G01 X-8.91189 Y4.40650
G01 X-8.89766 Y4.40879
G01 X-8.88304 Y4.41151
G01 X-8.86851 Y4.41459
G01 X-8.85445 Y4.41792
G01 X-8.84008 Y4.42170
G01 X-8.82579 Y4.42585
G01 X-8.81162 Y4.43034
G01 X-8.79799 Y4.43503
G01 X-8.78447 Y4.44005
G01 X-8.77066 Y4.44556
G01 X-8.75698 Y4.45142
G01 X-8.74345 Y4.45761
G01 X-8.73010 Y4.46413
G01 X-8.71730 Y4.47077
G01 X-8.70466 Y4.47772
G01 X-8.69183 Y4.48519
G01 X-8.67953 Y4.49275
G01 X-8.66707 Y4.50084
G01 X-8.65481 Y4.50924
G01 X-8.64277 Y4.51794
G01 X-8.63126 Y4.52668
G01 X-8.61965 Y4.53596
G01 X-8.60859 Y4.54525
G01 X-8.59746 Y4.55507
G01 X-8.58687 Y4.56489
G01 X-8.57622 Y4.57525
G01 X-8.56583 Y4.58588
G01 X-8.55597 Y4.59647
G01 X-8.54432 Y4.60963
G01 X-8.53663 Y4.61879
G01 X-8.52690 Y4.63098
G01 X-8.51820 Y4.64241
G01 X-8.50951 Y4.65444
G01 X-8.50133 Y4.66634
G01 X-8.49322 Y4.67879
G01 X-8.48541 Y4.69146
G01 X-8.47793 Y4.70430
G01 X-8.47115 Y4.71659
G01 X-8.46412 Y4.73012
G01 X-8.45779 Y4.74308
G01 X-8.45177 Y4.75619
G01 X-8.44590 Y4.76984
G01 X-8.44037 Y4.78363
G01 X-8.43533 Y4.79716
G01 X-8.43047 Y4.81121
G01 X-8.42597 Y4.82538
G01 X-8.42194 Y4.83924
G01 X-8.41813 Y4.85361
G01 X-8.41468 Y4.86808
G01 X-8.41159 Y4.88264
G01 X-8.40886 Y4.89725
G01 X-8.40656 Y4.91151
G01 X-8.40455 Y4.92623
G01 X-8.40291 Y4.94100
G01 X-8.40166 Y4.95539
G01 X-8.40074 Y4.97022
G01 X-8.40019 Y4.98507
G01 X-8.40000 Y4.99949
G04 P0 ( dwell for no time -- G64 should not smooth over this point )
G00 Z0.08000 ( retract )

G00 X-8.70003 Y4.99652 ( rapid move to begin. )
G01 F3.00000
( Mill infeed pass 1/1 )
G01 Z-0.00800
G04 P0 ( dwell for no time -- G64 should not smooth over this point )
G01 F6.00000
G01 X-8.70003 Y4.99652
G01 X-8.70021 Y5.01089
G01 X-8.70057 Y5.01843
G01 X-8.70180 Y5.03275
G01 X-8.70372 Y5.04702
G01 X-8.70493 Y5.05412
G01 X-8.70786 Y5.06822
G01 X-8.70959 Y5.07521
G01 X-8.71148 Y5.08215
G01 X-8.71575 Y5.09590
G01 X-8.72068 Y5.10943
G01 X-8.72339 Y5.11610
G01 X-8.72926 Y5.12922
G01 X-8.73260 Y5.13599
G01 X-8.73894 Y5.14777
G01 X-8.85207 Y5.01294
G01 X-8.71725 Y4.89981
G01 X-8.71347 Y4.91114
G01 X-8.70945 Y4.92531
G01 X-8.70620 Y4.93934
G01 X-8.70483 Y4.94641
G01 X-8.70260 Y4.96063
G01 X-8.70174 Y4.96778
G01 X-8.70054 Y4.98213
G01 X-8.70003 Y4.99652
G04 P0 ( dwell for no time -- G64 should not smooth over this point )
G00 Z0.08000 ( retract )

G00 X-8.85223 Y4.73894 ( rapid move to begin. )
G01 F3.00000
( Mill infeed pass 1/1 )
G01 Z-0.00800
G04 P0 ( dwell for no time -- G64 should not smooth over this point )
G01 F6.00000
G01 X-8.85223 Y4.73894
G01 X-8.86356 Y4.73283
G01 X-8.87001 Y4.72963
G01 X-8.88313 Y4.72370
G01 X-8.89653 Y4.71842
G01 X-8.91047 Y4.71368
G01 X-8.91734 Y4.71162
G01 X-8.93127 Y4.70798
G01 X-8.94534 Y4.70503
G01 X-8.95988 Y4.70270
G01 X-8.97419 Y4.70112
G01 X-8.98856 Y4.70022
G01 X-9.00293 Y4.70002
G01 X-9.01765 Y4.70053
G01 X-9.03200 Y4.70172
G01 X-9.03915 Y4.70257
G01 X-9.05337 Y4.70479
G01 X-9.06748 Y4.70769
G01 X-9.08174 Y4.71136
G01 X-9.08862 Y4.71339
G01 X-9.10019 Y4.71725
G01 X-8.98706 Y4.85207
G01 X-8.85223 Y4.73894
G04 P0 ( dwell for no time -- G64 should not smooth over this point )
G00 Z0.08000 ( retract )

G00 X-9.14793 Y4.98706 ( rapid move to begin. )
G01 F3.00000
( Mill infeed pass 1/1 )
G01 Z-0.00800
G04 P0 ( dwell for no time -- G64 should not smooth over this point )
G01 F6.00000
G01 X-9.14793 Y4.98706
G01 X-9.26106 Y4.85223
G01 X-9.26734 Y4.86390
G01 X-9.27053 Y4.87035
G01 X-9.27644 Y4.88348
G01 X-9.28171 Y4.89688
G01 X-9.28633 Y4.91052
G01 X-9.29038 Y4.92467
G01 X-9.29366 Y4.93867
G01 X-9.29626 Y4.95283
G01 X-9.29818 Y4.96710
G01 X-9.29889 Y4.97426
G01 X-9.29978 Y4.98864
G01 X-9.29998 Y5.00303
G01 X-9.29982 Y5.01021
G01 X-9.29896 Y5.02490
G01 X-9.29742 Y5.03920
G01 X-9.29514 Y5.05374
G01 X-9.29222 Y5.06784
G01 X-9.28863 Y5.08178
G01 X-9.28658 Y5.08869
G01 X-9.28275 Y5.10019
G01 X-9.14793 Y4.98706
G04 P0 ( dwell for no time -- G64 should not smooth over this point )
G00 Z0.08000 ( retract )

G00 X-8.89981 Y5.28275 ( rapid move to begin. )
G01 F3.00000
( Mill infeed pass 1/1 )
G01 Z-0.00800
G04 P0 ( dwell for no time -- G64 should not smooth over this point )
G01 F6.00000
G01 X-8.89981 Y5.28275
G01 X-8.91122 Y5.28655
G01 X-8.91845 Y5.28870
G01 X-8.93238 Y5.29227
G01 X-8.94648 Y5.29518
G01 X-8.96070 Y5.29741
G01 X-8.97502 Y5.29895
G01 X-8.98939 Y5.29981
G01 X-8.99659 Y5.29997
G01 X-9.01099 Y5.29979
G01 X-9.02568 Y5.29889
G01 X-9.04029 Y5.29727
G01 X-9.05449 Y5.29500
G01 X-9.06858 Y5.29205
G01 X-9.07557 Y5.29032
G01 X-9.08939 Y5.28636
G01 X-9.10333 Y5.28163
G01 X-9.11673 Y5.27635
G01 X-9.12985 Y5.27043
G01 X-9.13630 Y5.26724
G01 X-9.14777 Y5.26106
G01 X-9.01294 Y5.14793
G01 X-8.89981 Y5.28275
G04 P0 ( dwell for no time -- G64 should not smooth over this point )
G00 Z0.08000 ( retract )

G00 X-8.86506 Y5.61552 ( rapid move to begin. )
G01 F3.00000
( Mill infeed pass 1/1 )
G01 Z-0.00800
G04 P0 ( dwell for no time -- G64 should not smooth over this point )
G01 F6.00000
G01 X-8.86506 Y5.61552
G01 X-8.97946 Y6.11103
G01 X-8.97246 Y6.11303
G01 X-8.96829 Y6.11444
G01 X-8.96045 Y6.11777
G01 X-8.95293 Y6.12184
G01 X-8.94585 Y6.12656
G01 X-8.93927 Y6.13190
G01 X-8.93379 Y6.13725
G01 X-8.93047 Y6.14093
G01 X-8.92769 Y6.14436
G01 X-8.92508 Y6.14793
G01 X-8.92278 Y6.15143
G01 X-8.91986 Y6.15643
G01 X-8.91672 Y6.16273
G01 X-8.91516 Y6.16648
G01 X-8.91360 Y6.17066
G01 X-8.91218 Y6.17530
G01 X-8.91088 Y6.18057
G01 X-8.90966 Y6.18721
G01 X-8.90888 Y6.19536
G01 X-8.90885 Y6.20419
G01 X-8.90964 Y6.21267
G01 X-8.91103 Y6.22054
G01 X-8.91303 Y6.22754
G01 X-8.91444 Y6.23170
G01 X-8.91777 Y6.23954
G01 X-8.91965 Y6.24318
G01 X-8.92181 Y6.24703
G01 X-8.92669 Y6.25431
G01 X-8.93206 Y6.26091
G01 X-8.93804 Y6.26697
G01 X-8.94363 Y6.27172
G01 X-8.94833 Y6.27519
G01 X-8.95172 Y6.27742
G01 X-8.95918 Y6.28159
G01 X-8.96289 Y6.28335
G01 X-8.96696 Y6.28503
G01 X-8.97243 Y6.28695
G01 X-8.97955 Y6.28892
G01 X-8.98761 Y6.29040
G01 X-8.99608 Y6.29116
G01 X-9.00051 Y6.29122
G01 X-9.00492 Y6.29111
G01 X-9.01337 Y6.29026
G01 X-9.02054 Y6.28896
G01 X-9.02758 Y6.28695
G01 X-9.03148 Y6.28564
G01 X-9.03932 Y6.28233
G01 X-9.04679 Y6.27833
G01 X-9.05263 Y6.27450
G01 X-9.05741 Y6.27090
G01 X-9.06354 Y6.26546
G01 X-9.06937 Y6.25926
G01 X-9.07218 Y6.25580
G01 X-9.07546 Y6.25124
G01 X-9.07933 Y6.24508
G01 X-9.08305 Y6.23778
G01 X-9.08523 Y6.23250
G01 X-9.08701 Y6.22738
G01 X-9.08870 Y6.22139
G01 X-9.09026 Y6.21336
G01 X-9.09078 Y6.20896
G01 X-9.09113 Y6.20456
G01 X-9.09117 Y6.19637
G01 X-9.09060 Y6.18943
G01 X-9.08976 Y6.18371
G01 X-9.08897 Y6.17946
G01 X-9.08697 Y6.17246
G01 X-9.08555 Y6.16829
G01 X-9.08223 Y6.16045
G01 X-9.07959 Y6.15544
G01 X-9.07661 Y6.15048
G01 X-9.07331 Y6.14569
G01 X-9.07058 Y6.14221
G01 X-9.06794 Y6.13909
G01 X-9.06196 Y6.13302
G01 X-9.05525 Y6.12739
G01 X-9.04905 Y6.12309
G01 X-9.04444 Y6.12032
G01 X-9.03711 Y6.11665
G01 X-9.03303 Y6.11496
G01 X-9.02757 Y6.11305
G01 X-9.02045 Y6.11108
G01 X-9.01575 Y6.11015
G01 X-9.01000 Y6.10933
G01 X-9.00391 Y6.10884
G01 X-8.99949 Y6.10878
G01 X-8.99507 Y6.10889
G01 X-8.98663 Y6.10974
G01 X-8.97946 Y6.11103
G01 X-8.97246 Y6.11303
G01 X-8.96829 Y6.11444
G01 X-8.96045 Y6.11777
G01 X-8.95293 Y6.12184
G01 X-8.94585 Y6.12656
G01 X-8.93927 Y6.13190
G01 X-8.93379 Y6.13725
G01 X-8.93047 Y6.14093
G01 X-8.92769 Y6.14436
G01 X-8.92508 Y6.14793
G01 X-8.92071 Y6.15485
G01 X-8.91837 Y6.15927
G01 X-8.91596 Y6.16453
G01 X-8.91360 Y6.17066
G01 X-8.91239 Y6.17457
G01 X-8.91132 Y6.17853
G01 X-8.91040 Y6.18285
G01 X-8.90966 Y6.18721
G01 X-8.90908 Y6.19262
G01 X-8.90888 Y6.19536
G01 X-8.90880 Y6.20160
G01 X-8.90908 Y6.20738
G01 X-8.90964 Y6.21267
G01 X-8.91103 Y6.22054
G01 X-8.41553 Y6.33494
G01 X-8.41679 Y6.34096
G01 X-8.42050 Y6.35546
G01 X-8.42451 Y6.36972
G01 X-8.42913 Y6.38467
G01 X-8.43347 Y6.39759
G01 X-8.43865 Y6.41188
G01 X-8.44375 Y6.42492
G01 X-8.44947 Y6.43857
G01 X-8.45519 Y6.45135
G01 X-8.46156 Y6.46473
G01 X-8.46827 Y6.47797
G01 X-8.47511 Y6.49067
G01 X-8.48223 Y6.50318
G01 X-8.48966 Y6.51552
G01 X-8.49738 Y6.52768
G01 X-8.50540 Y6.53966
G01 X-8.51371 Y6.55146
G01 X-8.52328 Y6.56432
G01 X-8.53142 Y6.57474
G01 X-8.54005 Y6.58528
G01 X-8.54999 Y6.59685
G01 X-8.56022 Y6.60816
G01 X-8.57100 Y6.61946
G01 X-8.58033 Y6.62881
G01 X-8.58987 Y6.63793
G01 X-8.60140 Y6.64846
G01 X-8.61262 Y6.65819
G01 X-8.62437 Y6.66786
G01 X-8.63507 Y6.67626
G01 X-8.64564 Y6.68417
G01 X-8.65834 Y6.69322
G01 X-8.67029 Y6.70129
G01 X-8.68383 Y6.70993
G01 X-8.69513 Y6.71677
G01 X-8.70657 Y6.72335
G01 X-8.72032 Y6.73083
G01 X-8.73354 Y6.73759
G01 X-8.74692 Y6.74401
G01 X-8.76117 Y6.75041
G01 X-8.77334 Y6.75554
G01 X-8.78562 Y6.76039
G01 X-8.80026 Y6.76578
G01 X-8.81391 Y6.77041
G01 X-8.82925 Y6.77518
G01 X-8.84197 Y6.77881
G01 X-8.85554 Y6.78235
G01 X-8.87037 Y6.78583
G01 X-8.88565 Y6.78900
G01 X-8.89863 Y6.79138
G01 X-8.91167 Y6.79346
G01 X-8.92715 Y6.79556
G01 X-8.94231 Y6.79722
G01 X-8.95747 Y6.79848
G01 X-8.97067 Y6.79928
G01 X-8.98428 Y6.79979
G01 X-8.99952 Y6.80000
G01 X-9.01552 Y6.79979
G01 X-9.02871 Y6.79931
G01 X-9.04189 Y6.79853
G01 X-9.05668 Y6.79731
G01 X-9.07223 Y6.79564
G01 X-9.08730 Y6.79361
G01 X-9.10073 Y6.79148
G01 X-9.11372 Y6.78912
G01 X-9.12833 Y6.78611
G01 X-9.13494 Y6.78447
G01 X-9.14157 Y6.78306
G01 X-9.16323 Y6.77737
G01 X-9.17638 Y6.77349
G01 X-9.18667 Y6.77022
G01 X-9.19804 Y6.76637
G01 X-9.21045 Y6.76188
G01 X-9.22053 Y6.75800
G01 X-9.23165 Y6.75348
G01 X-9.24267 Y6.74873
G01 X-9.25287 Y6.74411
G01 X-9.26478 Y6.73841
G01 X-9.27594 Y6.73278
G01 X-9.29614 Y6.72182
G01 X-9.30724 Y6.71536
G01 X-9.31647 Y6.70975
G01 X-9.32660 Y6.70332
G01 X-9.33734 Y6.69618
G01 X-9.35610 Y6.68290
G01 X-9.36636 Y6.67516
G01 X-9.37516 Y6.66824
G01 X-9.38415 Y6.66090
G01 X-9.39359 Y6.65286
G01 X-9.40168 Y6.64570
G01 X-9.41205 Y6.63613
G01 X-9.42756 Y6.62093
G01 X-9.43651 Y6.61165
G01 X-9.44439 Y6.60313
G01 X-9.45183 Y6.59477
G01 X-9.46100 Y6.58403
G01 X-9.47511 Y6.56643
G01 X-9.48213 Y6.55714
G01 X-9.48871 Y6.54807
G01 X-9.49648 Y6.53690
G01 X-9.50268 Y6.52758
G01 X-9.50914 Y6.51746
G01 X-9.51599 Y6.50618
G01 X-9.52143 Y6.49684
G01 X-9.52745 Y6.48600
G01 X-9.53288 Y6.47575
G01 X-9.53793 Y6.46575
G01 X-9.54398 Y6.45313
G01 X-9.54846 Y6.44330
G01 X-9.55306 Y6.43265
G01 X-9.55819 Y6.42005
G01 X-9.56220 Y6.40959
G01 X-9.56616 Y6.39864
G01 X-9.57323 Y6.37721
G01 X-9.57724 Y6.36368
G01 X-9.58020 Y6.35288
G01 X-9.58304 Y6.34163
G01 X-9.58601 Y6.32877
G01 X-9.58832 Y6.31780
G01 X-9.59049 Y6.30641
G01 X-9.59256 Y6.29418
G01 X-9.59455 Y6.28057
G01 X-9.59709 Y6.25900
G01 X-9.59816 Y6.24700
G01 X-9.59893 Y6.23583
G01 X-9.59982 Y6.21479
G01 X-9.59997 Y6.19568
G01 X-9.59932 Y6.17161
G01 X-9.59812 Y6.15253
G01 X-9.59613 Y6.13199
G01 X-9.59344 Y6.11152
G01 X-9.58997 Y6.09077
G01 X-9.58597 Y6.07102
G01 X-9.58447 Y6.06506
G01 X-9.58266 Y6.05683
G01 X-9.57926 Y6.04361
G01 X-9.57556 Y6.03052
G01 X-9.57121 Y6.01637
G01 X-9.56637 Y6.00196
G01 X-9.56117 Y5.98768
G01 X-9.55637 Y5.97538
G01 X-9.55129 Y5.96320
G01 X-9.54509 Y5.94926
G01 X-9.53835 Y5.93509
G01 X-9.53127 Y5.92117
G01 X-9.52501 Y5.90954
G01 X-9.51829 Y5.89771
G01 X-9.51022 Y5.88429
G01 X-9.50227 Y5.87179
G01 X-9.49379 Y5.85917
G01 X-9.48618 Y5.84839
G01 X-9.47832 Y5.83778
G01 X-9.46874 Y5.82546
G01 X-9.45961 Y5.81430
G01 X-9.44911 Y5.80214
G01 X-9.44024 Y5.79234
G01 X-9.43087 Y5.78245
G01 X-9.41984 Y5.77136
G01 X-9.40855 Y5.76059
G01 X-9.39879 Y5.75171
G01 X-9.38883 Y5.74305
G01 X-9.37680 Y5.73307
G01 X-9.36512 Y5.72389
G01 X-9.35322 Y5.71499
G01 X-9.34047 Y5.70596
G01 X-9.32952 Y5.69858
G01 X-9.31841 Y5.69146
G01 X-9.30508 Y5.68335
G01 X-9.29257 Y5.67617
G01 X-9.27844 Y5.66853
G01 X-9.26669 Y5.66253
G01 X-9.25479 Y5.65679
G01 X-9.24017 Y5.65016
G01 X-9.22651 Y5.64440
G01 X-9.21236 Y5.63884
G01 X-9.19997 Y5.63430
G01 X-9.18747 Y5.63004
G01 X-9.17257 Y5.62535
G01 X-9.15789 Y5.62115
G01 X-9.14272 Y5.61723
G01 X-9.12986 Y5.61422
G01 X-9.11694 Y5.61151
G01 X-9.10081 Y5.60853
G01 X-9.08738 Y5.60640
G01 X-9.07430 Y5.60462
G01 X-9.05955 Y5.60297
G01 X-9.04397 Y5.60161
G01 X-9.02957 Y5.60073
G01 X-9.01434 Y5.60017
G01 X-8.99912 Y5.60001
G01 X-8.98592 Y5.60016
G01 X-8.97273 Y5.60063
G01 X-8.95673 Y5.60156
G01 X-8.94113 Y5.60290
G01 X-8.92801 Y5.60433
G01 X-8.91492 Y5.60607
G01 X-8.89950 Y5.60848
G01 X-8.88492 Y5.61114
G01 X-8.87091 Y5.61405
G01 X-8.86506 Y5.61552
G01 X-8.85728 Y5.61724
G01 X-8.83618 Y5.62280
G01 X-8.82462 Y5.62620
G01 X-8.81280 Y5.62995
G01 X-8.80181 Y5.63368
G01 X-8.79165 Y5.63734
G01 X-8.77932 Y5.64206
G01 X-8.76857 Y5.64643
G01 X-8.75828 Y5.65085
G01 X-8.74553 Y5.65664
G01 X-8.73543 Y5.66148
G01 X-8.72542 Y5.66651
G01 X-8.71340 Y5.67288
G01 X-8.70209 Y5.67920
G01 X-8.68415 Y5.68987
G01 X-8.67427 Y5.69612
G01 X-8.66260 Y5.70386
G01 X-8.65340 Y5.71024
G01 X-8.64399 Y5.71703
G01 X-8.63345 Y5.72498
G01 X-8.62465 Y5.73191
G01 X-8.61567 Y5.73925
G01 X-8.60563 Y5.74782
G01 X-8.59725 Y5.75526
G01 X-8.58869 Y5.76316
G01 X-8.57257 Y5.77894
G01 X-8.56332 Y5.78852
G01 X-8.55545 Y5.79704
G01 X-8.54801 Y5.80541
G01 X-8.53943 Y5.81545
G01 X-8.53208 Y5.82443
G01 X-8.52516 Y5.83323
G01 X-8.51720 Y5.84376
G01 X-8.51040 Y5.85316
G01 X-8.50402 Y5.86237
G01 X-8.49670 Y5.87336
G01 X-8.49048 Y5.88315
G01 X-8.48466 Y5.89272
G01 X-8.47782 Y5.90448
G01 X-8.47240 Y5.91428
G01 X-8.46716 Y5.92418
G01 X-8.46087 Y5.93669
G01 X-8.45604 Y5.94680
G01 X-8.45123 Y5.95740
G01 X-8.44250 Y5.97821
G01 X-8.43744 Y5.99138
G01 X-8.43377 Y6.00154
G01 X-8.42991 Y6.01291
G01 X-8.42594 Y6.02550
G01 X-8.42278 Y6.03624
G01 X-8.41982 Y6.04707
G01 X-8.41423 Y6.07011
G01 X-8.40988 Y6.09163
G01 X-8.40754 Y6.10518
G01 X-8.40570 Y6.11745
G01 X-8.40422 Y6.12896
G01 X-8.40300 Y6.14009
G01 X-8.40186 Y6.15284
G01 X-8.40097 Y6.16596
G01 X-8.40015 Y6.18659
G01 X-8.40004 Y6.20647
G01 X-8.40061 Y6.22710
G01 X-8.40190 Y6.24770
G01 X-8.40377 Y6.26711
G01 X-8.40654 Y6.28834
G01 X-8.40979 Y6.30795
G01 X-8.41386 Y6.32822
G01 X-8.41553 Y6.33494
G04 P0 ( dwell for no time -- G64 should not smooth over this point )
G00 Z0.08000 ( retract )

G00 X-9.13494 Y6.78447 ( rapid move to begin. )
G01 F3.00000
( Mill infeed pass 1/1 )
G01 Z-0.00800
G04 P0 ( dwell for no time -- G64 should not smooth over this point )
G01 F6.00000
G01 X-9.13494 Y6.78447
G01 X-9.02054 Y6.28896
G01 X-9.02758 Y6.28695
G01 X-9.03148 Y6.28564
G01 X-9.03932 Y6.28233
G01 X-9.04679 Y6.27833
G01 X-9.05389 Y6.27363
G01 X-9.06054 Y6.26825
G01 X-9.06667 Y6.26228
G01 X-9.06937 Y6.25926
G01 X-9.07218 Y6.25580
G01 X-9.07459 Y6.25254
G01 X-9.07722 Y6.24857
G01 X-9.07933 Y6.24508
G01 X-9.08305 Y6.23778
G01 X-9.08621 Y6.22987
G01 X-9.08870 Y6.22139
G01 X-9.09026 Y6.21336
G01 X-9.09113 Y6.20456
G01 X-9.09117 Y6.19637
G01 X-9.09043 Y6.18789
G01 X-9.08897 Y6.17946
G01 X-9.58447 Y6.06506

G04 P0 ( dwell for no time -- G64 should not smooth over this point )
G00 Z1.000000 ( retract )

M5 ( Spindle off. )
G04 P1.000000
M9 ( Coolant off. )
M2 ( Program end. )

