( pcb2gcode 2.5.0 )
( Software-independent Gcode )
( This file uses a mill head of 1.00000mm to drill the 9 hole sizes. )
( Hole sizes: [1mm] [1.5mm] [1.8mm] [1.9mm] [2mm] [2.5mm] [2.8mm] [2.9mm] [3mm] )

G94       (Millimeters per minute feed rate.)
G21       (Units == Millimeters.)
G91.1     (Incremental arc distance mode.)
G90       (Absolute coordinates.)
S2000    (RPM spindle speed.)

G01 F600.00000 (Feedrate)
G00 Z10.00000 (Retract to tool change height)
T1
M5        (Spindle stop.)
G04 P1.00000
(MSG, Change tool bit to drill size 1.00000mm)
M6        (Tool change.)
M0        (Temporary machine stop.)
M3        (Spindle on clockwise.)
G04 P1.00000
G00 Z1.50000

G0 X0.00000 Y0.00000
G1 Z-1.75000 F300.00000
G1 Z1.50000 F300.00000

G0 X0.00000 Y5.00000
G1 Z0.29167 F300.00000
G1 F600.00000
G1 X0.00000 Y10.00000 Z0.14583
G1 X0.00000 Y5.00000 Z-0.00000
G1 X0.00000 Y10.00000 Z-0.14583
G1 X0.00000 Y5.00000 Z-0.29167
G1 X0.00000 Y10.00000 Z-0.43750
G1 X0.00000 Y5.00000 Z-0.58333
G1 X0.00000 Y10.00000 Z-0.72917
G1 X0.00000 Y5.00000 Z-0.87500
G1 X0.00000 Y10.00000 Z-1.02083
G1 X0.00000 Y5.00000 Z-1.16667
G1 X0.00000 Y10.00000 Z-1.31250
G1 X0.00000 Y5.00000 Z-1.45833
G1 X0.00000 Y10.00000 Z-1.60417
G1 X0.00000 Y5.00000 Z-1.75000
G1 X0.00000 Y10.00000
G1 Z1.50000 F300.00000

G0 X5.25000 Y0.00000
G1 Z0.29167 F300.00000
G1 F600.00000
G2 X5.25000 Y0.00000 Z-0.00000 I-0.25000 J0.00000
G2 X5.25000 Y0.00000 Z-0.29167 I-0.25000 J0.00000
G2 X5.25000 Y0.00000 Z-0.58333 I-0.25000 J0.00000
G2 X5.25000 Y0.00000 Z-0.87500 I-0.25000 J0.00000
G2 X5.25000 Y0.00000 Z-1.16667 I-0.25000 J0.00000
G2 X5.25000 Y0.00000 Z-1.45833 I-0.25000 J0.00000
G2 X5.25000 Y0.00000 Z-1.75000 I-0.25000 J0.00000
G2 X5.25000 Y0.00000 I-0.25000 J0.00000
G1 Z1.50000 F300.00000

G0 X5.25000 Y5.00000
G1 Z0.29167 F300.00000
G1 F600.00000
G2 X4.75000 Y5.00000 Z0.27187 I-0.25000 J0.00000
G1 X4.75000 Y10.00000 Z0.14583
G2 X5.25000 Y10.00000 Z0.12604 I0.25000 J0.00000
G1 X5.25000 Y5.00000 Z-0.00000
G2 X4.75000 Y5.00000 Z-0.01980 I-0.25000 J0.00000
G1 X4.75000 Y10.00000 Z-0.14583
G2 X5.25000 Y10.00000 Z-0.16563 I0.25000 J0.00000
G1 X5.25000 Y5.00000 Z-0.29167
G2 X4.75000 Y5.00000 Z-0.31146 I-0.25000 J0.00000
G1 X4.75000 Y10.00000 Z-0.43750
G2 X5.25000 Y10.00000 Z-0.45730 I0.25000 J0.00000
G1 X5.25000 Y5.00000 Z-0.58333
G2 X4.75000 Y5.00000 Z-0.60313 I-0.25000 J0.00000
G1 X4.75000 Y10.00000 Z-0.72917
G2 X5.25000 Y10.00000 Z-0.74896 I0.25000 J0.00000
G1 X5.25000 Y5.00000 Z-0.87500
G2 X4.75000 Y5.00000 Z-0.89480 I-0.25000 J0.00000
G1 X4.75000 Y10.00000 Z-1.02083
G2 X5.25000 Y10.00000 Z-1.04063 I0.25000 J0.00000
G1 X5.25000 Y5.00000 Z-1.16667
G2 X4.75000 Y5.00000 Z-1.18646 I-0.25000 J0.00000
G1 X4.75000 Y10.00000 Z-1.31250
G2 X5.25000 Y10.00000 Z-1.33230 I0.25000 J0.00000
G1 X5.25000 Y5.00000 Z-1.45833
G2 X4.75000 Y5.00000 Z-1.47813 I-0.25000 J0.00000
G1 X4.75000 Y10.00000 Z-1.60417
G2 X5.25000 Y10.00000 Z-1.62396 I0.25000 J0.00000
G1 X5.25000 Y5.00000 Z-1.75000
G2 X4.75000 Y5.00000 I-0.25000 J0.00000
G1 X4.75000 Y10.00000
G2 X5.25000 Y10.00000 I0.25000 J0.00000
G1 X5.25000 Y5.00000
G1 Z1.50000 F300.00000

G0 X10.40000 Y0.00000
G1 Z0.29167 F300.00000
G1 F600.00000
G2 X10.40000 Y0.00000 Z-0.00000 I-0.40000 J0.00000
G2 X10.40000 Y0.00000 Z-0.29167 I-0.40000 J0.00000
G2 X10.40000 Y0.00000 Z-0.58333 I-0.40000 J0.00000
G2 X10.40000 Y0.00000 Z-0.87500 I-0.40000 J0.00000
G2 X10.40000 Y0.00000 Z-1.16667 I-0.40000 J0.00000
G2 X10.40000 Y0.00000 Z-1.45833 I-0.40000 J0.00000
G2 X10.40000 Y0.00000 Z-1.75000 I-0.40000 J0.00000
G2 X10.40000 Y0.00000 I-0.40000 J0.00000
G1 Z1.50000 F300.00000

G0 X10.40000 Y5.00000
G1 Z0.29167 F300.00000
G1 F600.00000
G2 X9.60000 Y5.00000 Z0.26238 I-0.40000 J0.00000
G1 X9.60000 Y10.00000 Z0.14583
G2 X10.40000 Y10.00000 Z0.11654 I0.40000 J0.00000
G1 X10.40000 Y5.00000 Z-0.00000
G2 X9.60000 Y5.00000 Z-0.02929 I-0.40000 J0.00000
G1 X9.60000 Y10.00000 Z-0.14583
G2 X10.40000 Y10.00000 Z-0.17512 I0.40000 J0.00000
G1 X10.40000 Y5.00000 Z-0.29167
G2 X9.60000 Y5.00000 Z-0.32096 I-0.40000 J0.00000
G1 X9.60000 Y10.00000 Z-0.43750
G2 X10.40000 Y10.00000 Z-0.46679 I0.40000 J0.00000
G1 X10.40000 Y5.00000 Z-0.58333
G2 X9.60000 Y5.00000 Z-0.61262 I-0.40000 J0.00000
G1 X9.60000 Y10.00000 Z-0.72917
G2 X10.40000 Y10.00000 Z-0.75846 I0.40000 J0.00000
G1 X10.40000 Y5.00000 Z-0.87500
G2 X9.60000 Y5.00000 Z-0.90429 I-0.40000 J0.00000
G1 X9.60000 Y10.00000 Z-1.02083
G2 X10.40000 Y10.00000 Z-1.05012 I0.40000 J0.00000
G1 X10.40000 Y5.00000 Z-1.16667
G2 X9.60000 Y5.00000 Z-1.19596 I-0.40000 J0.00000
G1 X9.60000 Y10.00000 Z-1.31250
G2 X10.40000 Y10.00000 Z-1.34179 I0.40000 J0.00000
G1 X10.40000 Y5.00000 Z-1.45833
G2 X9.60000 Y5.00000 Z-1.48762 I-0.40000 J0.00000
G1 X9.60000 Y10.00000 Z-1.60417
G2 X10.40000 Y10.00000 Z-1.63346 I0.40000 J0.00000
G1 X10.40000 Y5.00000 Z-1.75000
G2 X9.60000 Y5.00000 I-0.40000 J0.00000
G1 X9.60000 Y10.00000
G2 X10.40000 Y10.00000 I0.40000 J0.00000
G1 X10.40000 Y5.00000
G1 Z1.50000 F300.00000

G0 X15.45000 Y0.00000
G1 Z0.29167 F300.00000
G1 F600.00000
G2 X15.45000 Y0.00000 Z-0.00000 I-0.45000 J0.00000
G2 X15.45000 Y0.00000 Z-0.29167 I-0.45000 J0.00000
G2 X15.45000 Y0.00000 Z-0.58333 I-0.45000 J0.00000
G2 X15.45000 Y0.00000 Z-0.87500 I-0.45000 J0.00000
G2 X15.45000 Y0.00000 Z-1.16667 I-0.45000 J0.00000
G2 X15.45000 Y0.00000 Z-1.45833 I-0.45000 J0.00000
G2 X15.45000 Y0.00000 Z-1.75000 I-0.45000 J0.00000
G2 X15.45000 Y0.00000 I-0.45000 J0.00000
G1 Z1.50000 F300.00000

G0 X15.45000 Y5.00000
G1 Z0.29167 F300.00000
G1 F600.00000
G2 X14.55000 Y5.00000 Z0.25952 I-0.45000 J0.00000
G1 X14.55000 Y10.00000 Z0.14583
G2 X15.45000 Y10.00000 Z0.11369 I0.45000 J0.00000
G1 X15.45000 Y5.00000 Z-0.00000
G2 X14.55000 Y5.00000 Z-0.03214 I-0.45000 J0.00000
G1 X14.55000 Y10.00000 Z-0.14583
G2 X15.45000 Y10.00000 Z-0.17798 I0.45000 J0.00000
G1 X15.45000 Y5.00000 Z-0.29167
G2 X14.55000 Y5.00000 Z-0.32381 I-0.45000 J0.00000
G1 X14.55000 Y10.00000 Z-0.43750
G2 X15.45000 Y10.00000 Z-0.46964 I0.45000 J0.00000
G1 X15.45000 Y5.00000 Z-0.58333
G2 X14.55000 Y5.00000 Z-0.61548 I-0.45000 J0.00000
G1 X14.55000 Y10.00000 Z-0.72917
G2 X15.45000 Y10.00000 Z-0.76131 I0.45000 J0.00000
G1 X15.45000 Y5.00000 Z-0.87500
G2 X14.55000 Y5.00000 Z-0.90714 I-0.45000 J0.00000
G1 X14.55000 Y10.00000 Z-1.02083
G2 X15.45000 Y10.00000 Z-1.05298 I0.45000 J0.00000
G1 X15.45000 Y5.00000 Z-1.16667
G2 X14.55000 Y5.00000 Z-1.19881 I-0.45000 J0.00000
G1 X14.55000 Y10.00000 Z-1.31250
G2 X15.45000 Y10.00000 Z-1.34464 I0.45000 J0.00000
G1 X15.45000 Y5.00000 Z-1.45833
G2 X14.55000 Y5.00000 Z-1.49048 I-0.45000 J0.00000
G1 X14.55000 Y10.00000 Z-1.60417
G2 X15.45000 Y10.00000 Z-1.63631 I0.45000 J0.00000
G1 X15.45000 Y5.00000 Z-1.75000
G2 X14.55000 Y5.00000 I-0.45000 J0.00000
G1 X14.55000 Y10.00000
G2 X15.45000 Y10.00000 I0.45000 J0.00000
G1 X15.45000 Y5.00000
G1 Z1.50000 F300.00000

G0 X20.25000 Y0.00000
G1 Z0.29167 F300.00000
G1 F600.00000
G2 X20.25000 Y0.00000 Z-0.00000 I-0.25000 J0.00000
G2 X20.25000 Y0.00000 Z-0.29167 I-0.25000 J0.00000
G2 X20.25000 Y0.00000 Z-0.58333 I-0.25000 J0.00000
G2 X20.25000 Y0.00000 Z-0.87500 I-0.25000 J0.00000
G2 X20.25000 Y0.00000 Z-1.16667 I-0.25000 J0.00000
G2 X20.25000 Y0.00000 Z-1.45833 I-0.25000 J0.00000
G2 X20.25000 Y0.00000 Z-1.75000 I-0.25000 J0.00000
G2 X20.25000 Y0.00000 I-0.25000 J0.00000
G1 Z0.29167 F300.00000

G0 X20.50000 Y0.00000
G1 Z0.29167 F300.00000
G1 F600.00000
G2 X20.50000 Y0.00000 Z-0.00000 I-0.50000 J0.00000
G2 X20.50000 Y0.00000 Z-0.29167 I-0.50000 J0.00000
G2 X20.50000 Y0.00000 Z-0.58333 I-0.50000 J0.00000
G2 X20.50000 Y0.00000 Z-0.87500 I-0.50000 J0.00000
G2 X20.50000 Y0.00000 Z-1.16667 I-0.50000 J0.00000
G2 X20.50000 Y0.00000 Z-1.45833 I-0.50000 J0.00000
G2 X20.50000 Y0.00000 Z-1.75000 I-0.50000 J0.00000
G2 X20.50000 Y0.00000 I-0.50000 J0.00000
G1 Z1.50000 F300.00000

G0 X20.25000 Y5.00000
G1 Z0.29167 F300.00000
G1 F600.00000
G2 X19.75000 Y5.00000 Z0.27187 I-0.25000 J0.00000
G1 X19.75000 Y10.00000 Z0.14583
G2 X20.25000 Y10.00000 Z0.12604 I0.25000 J0.00000
G1 X20.25000 Y5.00000 Z-0.00000
G2 X19.75000 Y5.00000 Z-0.01980 I-0.25000 J0.00000
G1 X19.75000 Y10.00000 Z-0.14583
G2 X20.25000 Y10.00000 Z-0.16563 I0.25000 J0.00000
G1 X20.25000 Y5.00000 Z-0.29167
G2 X19.75000 Y5.00000 Z-0.31146 I-0.25000 J0.00000
G1 X19.75000 Y10.00000 Z-0.43750
G2 X20.25000 Y10.00000 Z-0.45730 I0.25000 J0.00000
G1 X20.25000 Y5.00000 Z-0.58333
G2 X19.75000 Y5.00000 Z-0.60313 I-0.25000 J0.00000
G1 X19.75000 Y10.00000 Z-0.72917
G2 X20.25000 Y10.00000 Z-0.74896 I0.25000 J0.00000
G1 X20.25000 Y5.00000 Z-0.87500
G2 X19.75000 Y5.00000 Z-0.89480 I-0.25000 J0.00000
G1 X19.75000 Y10.00000 Z-1.02083
G2 X20.25000 Y10.00000 Z-1.04063 I0.25000 J0.00000
G1 X20.25000 Y5.00000 Z-1.16667
G2 X19.75000 Y5.00000 Z-1.18646 I-0.25000 J0.00000
G1 X19.75000 Y10.00000 Z-1.31250
G2 X20.25000 Y10.00000 Z-1.33230 I0.25000 J0.00000
G1 X20.25000 Y5.00000 Z-1.45833
G2 X19.75000 Y5.00000 Z-1.47813 I-0.25000 J0.00000
G1 X19.75000 Y10.00000 Z-1.60417
G2 X20.25000 Y10.00000 Z-1.62396 I0.25000 J0.00000
G1 X20.25000 Y5.00000 Z-1.75000
G2 X19.75000 Y5.00000 I-0.25000 J0.00000
G1 X19.75000 Y10.00000
G2 X20.25000 Y10.00000 I0.25000 J0.00000
G1 X20.25000 Y5.00000
G1 Z0.29167 F300.00000

G0 X20.50000 Y5.00000
G1 Z0.29167 F300.00000
G1 F600.00000
G2 X19.50000 Y5.00000 Z0.25680 I-0.50000 J0.00000
G1 X19.50000 Y10.00000 Z0.14583
G2 X20.50000 Y10.00000 Z0.11097 I0.50000 J0.00000
G1 X20.50000 Y5.00000 Z-0.00000
G2 X19.50000 Y5.00000 Z-0.03486 I-0.50000 J0.00000
G1 X19.50000 Y10.00000 Z-0.14583
G2 X20.50000 Y10.00000 Z-0.18070 I0.50000 J0.00000
G1 X20.50000 Y5.00000 Z-0.29167
G2 X19.50000 Y5.00000 Z-0.32653 I-0.50000 J0.00000
G1 X19.50000 Y10.00000 Z-0.43750
G2 X20.50000 Y10.00000 Z-0.47236 I0.50000 J0.00000
G1 X20.50000 Y5.00000 Z-0.58333
G2 X19.50000 Y5.00000 Z-0.61820 I-0.50000 J0.00000
G1 X19.50000 Y10.00000 Z-0.72917
G2 X20.50000 Y10.00000 Z-0.76403 I0.50000 J0.00000
G1 X20.50000 Y5.00000 Z-0.87500
G2 X19.50000 Y5.00000 Z-0.90986 I-0.50000 J0.00000
G1 X19.50000 Y10.00000 Z-1.02083
G2 X20.50000 Y10.00000 Z-1.05570 I0.50000 J0.00000
G1 X20.50000 Y5.00000 Z-1.16667
G2 X19.50000 Y5.00000 Z-1.20153 I-0.50000 J0.00000
G1 X19.50000 Y10.00000 Z-1.31250
G2 X20.50000 Y10.00000 Z-1.34736 I0.50000 J0.00000
G1 X20.50000 Y5.00000 Z-1.45833
G2 X19.50000 Y5.00000 Z-1.49320 I-0.50000 J0.00000
G1 X19.50000 Y10.00000 Z-1.60417
G2 X20.50000 Y10.00000 Z-1.63903 I0.50000 J0.00000
G1 X20.50000 Y5.00000 Z-1.75000
G2 X19.50000 Y5.00000 I-0.50000 J0.00000
G1 X19.50000 Y10.00000
G2 X20.50000 Y10.00000 I0.50000 J0.00000
G1 X20.50000 Y5.00000
G1 Z1.50000 F300.00000

G0 X25.25000 Y0.00000
G1 Z0.29167 F300.00000
G1 F600.00000
G2 X25.25000 Y0.00000 Z-0.00000 I-0.25000 J0.00000
G2 X25.25000 Y0.00000 Z-0.29167 I-0.25000 J0.00000
G2 X25.25000 Y0.00000 Z-0.58333 I-0.25000 J0.00000
G2 X25.25000 Y0.00000 Z-0.87500 I-0.25000 J0.00000
G2 X25.25000 Y0.00000 Z-1.16667 I-0.25000 J0.00000
G2 X25.25000 Y0.00000 Z-1.45833 I-0.25000 J0.00000
G2 X25.25000 Y0.00000 Z-1.75000 I-0.25000 J0.00000
G2 X25.25000 Y0.00000 I-0.25000 J0.00000
G1 Z0.29167 F300.00000

G0 X25.75000 Y0.00000
G1 Z0.29167 F300.00000
G1 F600.00000
G2 X25.75000 Y0.00000 Z-0.00000 I-0.75000 J0.00000
G2 X25.75000 Y0.00000 Z-0.29167 I-0.75000 J0.00000
G2 X25.75000 Y0.00000 Z-0.58333 I-0.75000 J0.00000
G2 X25.75000 Y0.00000 Z-0.87500 I-0.75000 J0.00000
G2 X25.75000 Y0.00000 Z-1.16667 I-0.75000 J0.00000
G2 X25.75000 Y0.00000 Z-1.45833 I-0.75000 J0.00000
G2 X25.75000 Y0.00000 Z-1.75000 I-0.75000 J0.00000
G2 X25.75000 Y0.00000 I-0.75000 J0.00000
G1 Z1.50000 F300.00000

G0 X25.25000 Y5.00000
G1 Z0.29167 F300.00000
G1 F600.00000
G2 X24.75000 Y5.00000 Z0.27187 I-0.25000 J0.00000
G1 X24.75000 Y10.00000 Z0.14583
G2 X25.25000 Y10.00000 Z0.12604 I0.25000 J0.00000
G1 X25.25000 Y5.00000 Z-0.00000
G2 X24.75000 Y5.00000 Z-0.01980 I-0.25000 J0.00000
G1 X24.75000 Y10.00000 Z-0.14583
G2 X25.25000 Y10.00000 Z-0.16563 I0.25000 J0.00000
G1 X25.25000 Y5.00000 Z-0.29167
G2 X24.75000 Y5.00000 Z-0.31146 I-0.25000 J0.00000
G1 X24.75000 Y10.00000 Z-0.43750
G2 X25.25000 Y10.00000 Z-0.45730 I0.25000 J0.00000
G1 X25.25000 Y5.00000 Z-0.58333
G2 X24.75000 Y5.00000 Z-0.60313 I-0.25000 J0.00000
G1 X24.75000 Y10.00000 Z-0.72917
G2 X25.25000 Y10.00000 Z-0.74896 I0.25000 J0.00000
G1 X25.25000 Y5.00000 Z-0.87500
G2 X24.75000 Y5.00000 Z-0.89480 I-0.25000 J0.00000
G1 X24.75000 Y10.00000 Z-1.02083
G2 X25.25000 Y10.00000 Z-1.04063 I0.25000 J0.00000
G1 X25.25000 Y5.00000 Z-1.16667
G2 X24.75000 Y5.00000 Z-1.18646 I-0.25000 J0.00000
G1 X24.75000 Y10.00000 Z-1.31250
G2 X25.25000 Y10.00000 Z-1.33230 I0.25000 J0.00000
G1 X25.25000 Y5.00000 Z-1.45833
G2 X24.75000 Y5.00000 Z-1.47813 I-0.25000 J0.00000
G1 X24.75000 Y10.00000 Z-1.60417
G2 X25.25000 Y10.00000 Z-1.62396 I0.25000 J0.00000
G1 X25.25000 Y5.00000 Z-1.75000
G2 X24.75000 Y5.00000 I-0.25000 J0.00000
G1 X24.75000 Y10.00000
G2 X25.25000 Y10.00000 I0.25000 J0.00000
G1 X25.25000 Y5.00000
G1 Z0.29167 F300.00000

G0 X25.75000 Y5.00000
G1 Z0.29167 F300.00000
G1 F600.00000
G2 X24.25000 Y5.00000 Z0.24496 I-0.75000 J0.00000
G1 X24.25000 Y10.00000 Z0.14583
G2 X25.75000 Y10.00000 Z0.09912 I0.75000 J0.00000
G1 X25.75000 Y5.00000 Z-0.00000
G2 X24.25000 Y5.00000 Z-0.04671 I-0.75000 J0.00000
G1 X24.25000 Y10.00000 Z-0.14583
G2 X25.75000 Y10.00000 Z-0.19254 I0.75000 J0.00000
G1 X25.75000 Y5.00000 Z-0.29167
G2 X24.25000 Y5.00000 Z-0.33838 I-0.75000 J0.00000
G1 X24.25000 Y10.00000 Z-0.43750
G2 X25.75000 Y10.00000 Z-0.48421 I0.75000 J0.00000
G1 X25.75000 Y5.00000 Z-0.58333
G2 X24.25000 Y5.00000 Z-0.63004 I-0.75000 J0.00000
G1 X24.25000 Y10.00000 Z-0.72917
G2 X25.75000 Y10.00000 Z-0.77588 I0.75000 J0.00000
G1 X25.75000 Y5.00000 Z-0.87500
G2 X24.25000 Y5.00000 Z-0.92171 I-0.75000 J0.00000
G1 X24.25000 Y10.00000 Z-1.02083
G2 X25.75000 Y10.00000 Z-1.06754 I0.75000 J0.00000
G1 X25.75000 Y5.00000 Z-1.16667
G2 X24.25000 Y5.00000 Z-1.21338 I-0.75000 J0.00000
G1 X24.25000 Y10.00000 Z-1.31250
G2 X25.75000 Y10.00000 Z-1.35921 I0.75000 J0.00000
G1 X25.75000 Y5.00000 Z-1.45833
G2 X24.25000 Y5.00000 Z-1.50504 I-0.75000 J0.00000
G1 X24.25000 Y10.00000 Z-1.60417
G2 X25.75000 Y10.00000 Z-1.65088 I0.75000 J0.00000
G1 X25.75000 Y5.00000 Z-1.75000
G2 X24.25000 Y5.00000 I-0.75000 J0.00000
G1 X24.25000 Y10.00000
G2 X25.75000 Y10.00000 I0.75000 J0.00000
G1 X25.75000 Y5.00000
G1 Z1.50000 F300.00000

G0 X30.40000 Y0.00000
G1 Z0.29167 F300.00000
G1 F600.00000
G2 X30.40000 Y0.00000 Z-0.00000 I-0.40000 J0.00000
G2 X30.40000 Y0.00000 Z-0.29167 I-0.40000 J0.00000
G2 X30.40000 Y0.00000 Z-0.58333 I-0.40000 J0.00000
G2 X30.40000 Y0.00000 Z-0.87500 I-0.40000 J0.00000
G2 X30.40000 Y0.00000 Z-1.16667 I-0.40000 J0.00000
G2 X30.40000 Y0.00000 Z-1.45833 I-0.40000 J0.00000
G2 X30.40000 Y0.00000 Z-1.75000 I-0.40000 J0.00000
G2 X30.40000 Y0.00000 I-0.40000 J0.00000
G1 Z0.29167 F300.00000

G0 X30.90000 Y0.00000
G1 Z0.29167 F300.00000
G1 F600.00000
G2 X30.90000 Y0.00000 Z-0.00000 I-0.90000 J0.00000
G2 X30.90000 Y0.00000 Z-0.29167 I-0.90000 J0.00000
G2 X30.90000 Y0.00000 Z-0.58333 I-0.90000 J0.00000
G2 X30.90000 Y0.00000 Z-0.87500 I-0.90000 J0.00000
G2 X30.90000 Y0.00000 Z-1.16667 I-0.90000 J0.00000
G2 X30.90000 Y0.00000 Z-1.45833 I-0.90000 J0.00000
G2 X30.90000 Y0.00000 Z-1.75000 I-0.90000 J0.00000
G2 X30.90000 Y0.00000 I-0.90000 J0.00000
G1 Z1.50000 F300.00000

G0 X30.40000 Y5.00000
G1 Z0.29167 F300.00000
G1 F600.00000
G2 X29.60000 Y5.00000 Z0.26238 I-0.40000 J0.00000
G1 X29.60000 Y10.00000 Z0.14583
G2 X30.40000 Y10.00000 Z0.11654 I0.40000 J0.00000
G1 X30.40000 Y5.00000 Z-0.00000
G2 X29.60000 Y5.00000 Z-0.02929 I-0.40000 J0.00000
G1 X29.60000 Y10.00000 Z-0.14583
G2 X30.40000 Y10.00000 Z-0.17512 I0.40000 J0.00000
G1 X30.40000 Y5.00000 Z-0.29167
G2 X29.60000 Y5.00000 Z-0.32096 I-0.40000 J0.00000
G1 X29.60000 Y10.00000 Z-0.43750
G2 X30.40000 Y10.00000 Z-0.46679 I0.40000 J0.00000
G1 X30.40000 Y5.00000 Z-0.58333
G2 X29.60000 Y5.00000 Z-0.61262 I-0.40000 J0.00000
G1 X29.60000 Y10.00000 Z-0.72917
G2 X30.40000 Y10.00000 Z-0.75846 I0.40000 J0.00000
G1 X30.40000 Y5.00000 Z-0.87500
G2 X29.60000 Y5.00000 Z-0.90429 I-0.40000 J0.00000
G1 X29.60000 Y10.00000 Z-1.02083
G2 X30.40000 Y10.00000 Z-1.05012 I0.40000 J0.00000
G1 X30.40000 Y5.00000 Z-1.16667
G2 X29.60000 Y5.00000 Z-1.19596 I-0.40000 J0.00000
G1 X29.60000 Y10.00000 Z-1.31250
G2 X30.40000 Y10.00000 Z-1.34179 I0.40000 J0.00000
G1 X30.40000 Y5.00000 Z-1.45833
G2 X29.60000 Y5.00000 Z-1.48762 I-0.40000 J0.00000
G1 X29.60000 Y10.00000 Z-1.60417
G2 X30.40000 Y10.00000 Z-1.63346 I0.40000 J0.00000
G1 X30.40000 Y5.00000 Z-1.75000
G2 X29.60000 Y5.00000 I-0.40000 J0.00000
G1 X29.60000 Y10.00000
G2 X30.40000 Y10.00000 I0.40000 J0.00000
G1 X30.40000 Y5.00000
G1 Z0.29167 F300.00000

G0 X30.90000 Y5.00000
G1 Z0.29167 F300.00000
G1 F600.00000
G2 X29.10000 Y5.00000 Z0.23899 I-0.90000 J0.00000
G1 X29.10000 Y10.00000 Z0.14583
G2 X30.90000 Y10.00000 Z0.09316 I0.90000 J0.00000
G1 X30.90000 Y5.00000 Z-0.00000
G2 X29.10000 Y5.00000 Z-0.05268 I-0.90000 J0.00000
G1 X29.10000 Y10.00000 Z-0.14583
G2 X30.90000 Y10.00000 Z-0.19851 I0.90000 J0.00000
G1 X30.90000 Y5.00000 Z-0.29167
G2 X29.10000 Y5.00000 Z-0.34434 I-0.90000 J0.00000
G1 X29.10000 Y10.00000 Z-0.43750
G2 X30.90000 Y10.00000 Z-0.49018 I0.90000 J0.00000
G1 X30.90000 Y5.00000 Z-0.58333
G2 X29.10000 Y5.00000 Z-0.63601 I-0.90000 J0.00000
G1 X29.10000 Y10.00000 Z-0.72917
G2 X30.90000 Y10.00000 Z-0.78184 I0.90000 J0.00000
G1 X30.90000 Y5.00000 Z-0.87500
G2 X29.10000 Y5.00000 Z-0.92768 I-0.90000 J0.00000
G1 X29.10000 Y10.00000 Z-1.02083
G2 X30.90000 Y10.00000 Z-1.07351 I0.90000 J0.00000
G1 X30.90000 Y5.00000 Z-1.16667
G2 X29.10000 Y5.00000 Z-1.21934 I-0.90000 J0.00000
G1 X29.10000 Y10.00000 Z-1.31250
G2 X30.90000 Y10.00000 Z-1.36518 I0.90000 J0.00000
G1 X30.90000 Y5.00000 Z-1.45833
G2 X29.10000 Y5.00000 Z-1.51101 I-0.90000 J0.00000
G1 X29.10000 Y10.00000 Z-1.60417
G2 X30.90000 Y10.00000 Z-1.65684 I0.90000 J0.00000
G1 X30.90000 Y5.00000 Z-1.75000
G2 X29.10000 Y5.00000 I-0.90000 J0.00000
G1 X29.10000 Y10.00000
G2 X30.90000 Y10.00000 I0.90000 J0.00000
G1 X30.90000 Y5.00000
G1 Z1.50000 F300.00000

G0 X35.45000 Y0.00000
G1 Z0.29167 F300.00000
G1 F600.00000
G2 X35.45000 Y0.00000 Z-0.00000 I-0.45000 J0.00000
G2 X35.45000 Y0.00000 Z-0.29167 I-0.45000 J0.00000
G2 X35.45000 Y0.00000 Z-0.58333 I-0.45000 J0.00000
G2 X35.45000 Y0.00000 Z-0.87500 I-0.45000 J0.00000
G2 X35.45000 Y0.00000 Z-1.16667 I-0.45000 J0.00000
G2 X35.45000 Y0.00000 Z-1.45833 I-0.45000 J0.00000
G2 X35.45000 Y0.00000 Z-1.75000 I-0.45000 J0.00000
G2 X35.45000 Y0.00000 I-0.45000 J0.00000
G1 Z0.29167 F300.00000

G0 X35.95000 Y0.00000
G1 Z0.29167 F300.00000
G1 F600.00000
G2 X35.95000 Y0.00000 Z-0.00000 I-0.95000 J0.00000
G2 X35.95000 Y0.00000 Z-0.29167 I-0.95000 J0.00000
G2 X35.95000 Y0.00000 Z-0.58333 I-0.95000 J0.00000
G2 X35.95000 Y0.00000 Z-0.87500 I-0.95000 J0.00000
G2 X35.95000 Y0.00000 Z-1.16667 I-0.95000 J0.00000
G2 X35.95000 Y0.00000 Z-1.45833 I-0.95000 J0.00000
G2 X35.95000 Y0.00000 Z-1.75000 I-0.95000 J0.00000
G2 X35.95000 Y0.00000 I-0.95000 J0.00000
G1 Z1.50000 F300.00000

G0 X35.45000 Y5.00000
G1 Z0.29167 F300.00000
G1 F600.00000
G2 X34.55000 Y5.00000 Z0.25952 I-0.45000 J0.00000
G1 X34.55000 Y10.00000 Z0.14583
G2 X35.45000 Y10.00000 Z0.11369 I0.45000 J0.00000
G1 X35.45000 Y5.00000 Z-0.00000
G2 X34.55000 Y5.00000 Z-0.03214 I-0.45000 J0.00000
G1 X34.55000 Y10.00000 Z-0.14583
G2 X35.45000 Y10.00000 Z-0.17798 I0.45000 J0.00000
G1 X35.45000 Y5.00000 Z-0.29167
G2 X34.55000 Y5.00000 Z-0.32381 I-0.45000 J0.00000
G1 X34.55000 Y10.00000 Z-0.43750
G2 X35.45000 Y10.00000 Z-0.46964 I0.45000 J0.00000
G1 X35.45000 Y5.00000 Z-0.58333
G2 X34.55000 Y5.00000 Z-0.61548 I-0.45000 J0.00000
G1 X34.55000 Y10.00000 Z-0.72917
G2 X35.45000 Y10.00000 Z-0.76131 I0.45000 J0.00000
G1 X35.45000 Y5.00000 Z-0.87500
G2 X34.55000 Y5.00000 Z-0.90714 I-0.45000 J0.00000
G1 X34.55000 Y10.00000 Z-1.02083
G2 X35.45000 Y10.00000 Z-1.05298 I0.45000 J0.00000
G1 X35.45000 Y5.00000 Z-1.16667
G2 X34.55000 Y5.00000 Z-1.19881 I-0.45000 J0.00000
G1 X34.55000 Y10.00000 Z-1.31250
G2 X35.45000 Y10.00000 Z-1.34464 I0.45000 J0.00000
G1 X35.45000 Y5.00000 Z-1.45833
G2 X34.55000 Y5.00000 Z-1.49048 I-0.45000 J0.00000
G1 X34.55000 Y10.00000 Z-1.60417
G2 X35.45000 Y10.00000 Z-1.63631 I0.45000 J0.00000
G1 X35.45000 Y5.00000 Z-1.75000
G2 X34.55000 Y5.00000 I-0.45000 J0.00000
G1 X34.55000 Y10.00000
G2 X35.45000 Y10.00000 I0.45000 J0.00000
G1 X35.45000 Y5.00000
G1 Z0.29167 F300.00000

G0 X35.95000 Y5.00000
G1 Z0.29167 F300.00000
G1 F600.00000
G2 X34.05000 Y5.00000 Z0.23716 I-0.95000 J0.00000
G1 X34.05000 Y10.00000 Z0.14583
G2 X35.95000 Y10.00000 Z0.09132 I0.95000 J0.00000
G1 X35.95000 Y5.00000 Z-0.00000
G2 X34.05000 Y5.00000 Z-0.05451 I-0.95000 J0.00000
G1 X34.05000 Y10.00000 Z-0.14583
G2 X35.95000 Y10.00000 Z-0.20034 I0.95000 J0.00000
G1 X35.95000 Y5.00000 Z-0.29167
G2 X34.05000 Y5.00000 Z-0.34618 I-0.95000 J0.00000
G1 X34.05000 Y10.00000 Z-0.43750
G2 X35.95000 Y10.00000 Z-0.49201 I0.95000 J0.00000
G1 X35.95000 Y5.00000 Z-0.58333
G2 X34.05000 Y5.00000 Z-0.63784 I-0.95000 J0.00000
G1 X34.05000 Y10.00000 Z-0.72917
G2 X35.95000 Y10.00000 Z-0.78368 I0.95000 J0.00000
G1 X35.95000 Y5.00000 Z-0.87500
G2 X34.05000 Y5.00000 Z-0.92951 I-0.95000 J0.00000
G1 X34.05000 Y10.00000 Z-1.02083
G2 X35.95000 Y10.00000 Z-1.07534 I0.95000 J0.00000
G1 X35.95000 Y5.00000 Z-1.16667
G2 X34.05000 Y5.00000 Z-1.22118 I-0.95000 J0.00000
G1 X34.05000 Y10.00000 Z-1.31250
G2 X35.95000 Y10.00000 Z-1.36701 I0.95000 J0.00000
G1 X35.95000 Y5.00000 Z-1.45833
G2 X34.05000 Y5.00000 Z-1.51284 I-0.95000 J0.00000
G1 X34.05000 Y10.00000 Z-1.60417
G2 X35.95000 Y10.00000 Z-1.65868 I0.95000 J0.00000
G1 X35.95000 Y5.00000 Z-1.75000
G2 X34.05000 Y5.00000 I-0.95000 J0.00000
G1 X34.05000 Y10.00000
G2 X35.95000 Y10.00000 I0.95000 J0.00000
G1 X35.95000 Y5.00000
G1 Z1.50000 F300.00000

G0 X40.25000 Y0.00000
G1 Z0.29167 F300.00000
G1 F600.00000
G2 X40.25000 Y0.00000 Z-0.00000 I-0.25000 J0.00000
G2 X40.25000 Y0.00000 Z-0.29167 I-0.25000 J0.00000
G2 X40.25000 Y0.00000 Z-0.58333 I-0.25000 J0.00000
G2 X40.25000 Y0.00000 Z-0.87500 I-0.25000 J0.00000
G2 X40.25000 Y0.00000 Z-1.16667 I-0.25000 J0.00000
G2 X40.25000 Y0.00000 Z-1.45833 I-0.25000 J0.00000
G2 X40.25000 Y0.00000 Z-1.75000 I-0.25000 J0.00000
G2 X40.25000 Y0.00000 I-0.25000 J0.00000
G1 Z0.29167 F300.00000

G0 X40.62500 Y0.00000
G1 Z0.29167 F300.00000
G1 F600.00000
G2 X40.62500 Y0.00000 Z-0.00000 I-0.62500 J0.00000
G2 X40.62500 Y0.00000 Z-0.29167 I-0.62500 J0.00000
G2 X40.62500 Y0.00000 Z-0.58333 I-0.62500 J0.00000
G2 X40.62500 Y0.00000 Z-0.87500 I-0.62500 J0.00000
G2 X40.62500 Y0.00000 Z-1.16667 I-0.62500 J0.00000
G2 X40.62500 Y0.00000 Z-1.45833 I-0.62500 J0.00000
G2 X40.62500 Y0.00000 Z-1.75000 I-0.62500 J0.00000
G2 X40.62500 Y0.00000 I-0.62500 J0.00000
G1 Z0.29167 F300.00000

G0 X41.00000 Y0.00000
G1 Z0.29167 F300.00000
G1 F600.00000
G2 X41.00000 Y0.00000 Z-0.00000 I-1.00000 J0.00000
G2 X41.00000 Y0.00000 Z-0.29167 I-1.00000 J0.00000
G2 X41.00000 Y0.00000 Z-0.58333 I-1.00000 J0.00000
G2 X41.00000 Y0.00000 Z-0.87500 I-1.00000 J0.00000
G2 X41.00000 Y0.00000 Z-1.16667 I-1.00000 J0.00000
G2 X41.00000 Y0.00000 Z-1.45833 I-1.00000 J0.00000
G2 X41.00000 Y0.00000 Z-1.75000 I-1.00000 J0.00000
G2 X41.00000 Y0.00000 I-1.00000 J0.00000
G1 Z1.50000 F300.00000

G0 X40.25000 Y5.00000
G1 Z0.29167 F300.00000
G1 F600.00000
G2 X39.75000 Y5.00000 Z0.27187 I-0.25000 J0.00000
G1 X39.75000 Y10.00000 Z0.14583
G2 X40.25000 Y10.00000 Z0.12604 I0.25000 J0.00000
G1 X40.25000 Y5.00000 Z-0.00000
G2 X39.75000 Y5.00000 Z-0.01980 I-0.25000 J0.00000
G1 X39.75000 Y10.00000 Z-0.14583
G2 X40.25000 Y10.00000 Z-0.16563 I0.25000 J0.00000
G1 X40.25000 Y5.00000 Z-0.29167
G2 X39.75000 Y5.00000 Z-0.31146 I-0.25000 J0.00000
G1 X39.75000 Y10.00000 Z-0.43750
G2 X40.25000 Y10.00000 Z-0.45730 I0.25000 J0.00000
G1 X40.25000 Y5.00000 Z-0.58333
G2 X39.75000 Y5.00000 Z-0.60313 I-0.25000 J0.00000
G1 X39.75000 Y10.00000 Z-0.72917
G2 X40.25000 Y10.00000 Z-0.74896 I0.25000 J0.00000
G1 X40.25000 Y5.00000 Z-0.87500
G2 X39.75000 Y5.00000 Z-0.89480 I-0.25000 J0.00000
G1 X39.75000 Y10.00000 Z-1.02083
G2 X40.25000 Y10.00000 Z-1.04063 I0.25000 J0.00000
G1 X40.25000 Y5.00000 Z-1.16667
G2 X39.75000 Y5.00000 Z-1.18646 I-0.25000 J0.00000
G1 X39.75000 Y10.00000 Z-1.31250
G2 X40.25000 Y10.00000 Z-1.33230 I0.25000 J0.00000
G1 X40.25000 Y5.00000 Z-1.45833
G2 X39.75000 Y5.00000 Z-1.47813 I-0.25000 J0.00000
G1 X39.75000 Y10.00000 Z-1.60417
G2 X40.25000 Y10.00000 Z-1.62396 I0.25000 J0.00000
G1 X40.25000 Y5.00000 Z-1.75000
G2 X39.75000 Y5.00000 I-0.25000 J0.00000
G1 X39.75000 Y10.00000
G2 X40.25000 Y10.00000 I0.25000 J0.00000
G1 X40.25000 Y5.00000
G1 Z0.29167 F300.00000

G0 X40.62500 Y5.00000
G1 Z0.29167 F300.00000
G1 F600.00000
G2 X39.37500 Y5.00000 Z0.25055 I-0.62500 J0.00000
G1 X39.37500 Y10.00000 Z0.14583
G2 X40.62500 Y10.00000 Z0.10471 I0.62500 J0.00000
G1 X40.62500 Y5.00000 Z-0.00000
G2 X39.37500 Y5.00000 Z-0.04112 I-0.62500 J0.00000
G1 X39.37500 Y10.00000 Z-0.14583
G2 X40.62500 Y10.00000 Z-0.18695 I0.62500 J0.00000
G1 X40.62500 Y5.00000 Z-0.29167
G2 X39.37500 Y5.00000 Z-0.33279 I-0.62500 J0.00000
G1 X39.37500 Y10.00000 Z-0.43750
G2 X40.62500 Y10.00000 Z-0.47862 I0.62500 J0.00000
G1 X40.62500 Y5.00000 Z-0.58333
G2 X39.37500 Y5.00000 Z-0.62445 I-0.62500 J0.00000
G1 X39.37500 Y10.00000 Z-0.72917
G2 X40.62500 Y10.00000 Z-0.77029 I0.62500 J0.00000
G1 X40.62500 Y5.00000 Z-0.87500
G2 X39.37500 Y5.00000 Z-0.91612 I-0.62500 J0.00000
G1 X39.37500 Y10.00000 Z-1.02083
G2 X40.62500 Y10.00000 Z-1.06195 I0.62500 J0.00000
G1 X40.62500 Y5.00000 Z-1.16667
G2 X39.37500 Y5.00000 Z-1.20779 I-0.62500 J0.00000
G1 X39.37500 Y10.00000 Z-1.31250
G2 X40.62500 Y10.00000 Z-1.35362 I0.62500 J0.00000
G1 X40.62500 Y5.00000 Z-1.45833
G2 X39.37500 Y5.00000 Z-1.49945 I-0.62500 J0.00000
G1 X39.37500 Y10.00000 Z-1.60417
G2 X40.62500 Y10.00000 Z-1.64529 I0.62500 J0.00000
G1 X40.62500 Y5.00000 Z-1.75000
G2 X39.37500 Y5.00000 I-0.62500 J0.00000
G1 X39.37500 Y10.00000
G2 X40.62500 Y10.00000 I0.62500 J0.00000
G1 X40.62500 Y5.00000
G1 Z0.29167 F300.00000

G0 X41.00000 Y5.00000
G1 Z0.29167 F300.00000
G1 F600.00000
G2 X39.00000 Y5.00000 Z0.23539 I-1.00000 J0.00000
G1 X39.00000 Y10.00000 Z0.14583
G2 X41.00000 Y10.00000 Z0.08956 I1.00000 J0.00000
G1 X41.00000 Y5.00000 Z-0.00000
G2 X39.00000 Y5.00000 Z-0.05627 I-1.00000 J0.00000
G1 X39.00000 Y10.00000 Z-0.14583
G2 X41.00000 Y10.00000 Z-0.20211 I1.00000 J0.00000
G1 X41.00000 Y5.00000 Z-0.29167
G2 X39.00000 Y5.00000 Z-0.34794 I-1.00000 J0.00000
G1 X39.00000 Y10.00000 Z-0.43750
G2 X41.00000 Y10.00000 Z-0.49377 I1.00000 J0.00000
G1 X41.00000 Y5.00000 Z-0.58333
G2 X39.00000 Y5.00000 Z-0.63961 I-1.00000 J0.00000
G1 X39.00000 Y10.00000 Z-0.72917
G2 X41.00000 Y10.00000 Z-0.78544 I1.00000 J0.00000
G1 X41.00000 Y5.00000 Z-0.87500
G2 X39.00000 Y5.00000 Z-0.93127 I-1.00000 J0.00000
G1 X39.00000 Y10.00000 Z-1.02083
G2 X41.00000 Y10.00000 Z-1.07711 I1.00000 J0.00000
G1 X41.00000 Y5.00000 Z-1.16667
G2 X39.00000 Y5.00000 Z-1.22294 I-1.00000 J0.00000
G1 X39.00000 Y10.00000 Z-1.31250
G2 X41.00000 Y10.00000 Z-1.36877 I1.00000 J0.00000
G1 X41.00000 Y5.00000 Z-1.45833
G2 X39.00000 Y5.00000 Z-1.51461 I-1.00000 J0.00000
G1 X39.00000 Y10.00000 Z-1.60417
G2 X41.00000 Y10.00000 Z-1.66044 I1.00000 J0.00000
G1 X41.00000 Y5.00000 Z-1.75000
G2 X39.00000 Y5.00000 I-1.00000 J0.00000
G1 X39.00000 Y10.00000
G2 X41.00000 Y10.00000 I1.00000 J0.00000
G1 X41.00000 Y5.00000
G1 Z1.50000 F300.00000

G00 Z10.000000 ( All done -- retract )

M5      (Spindle off.)
G04 P1.000000
M9      (Coolant off.)
M2      (Program end.)

