( pcb2gcode 2.5.0 )
( Software-independent Gcode )

G94 ( Inches per minute feed rate. )
G20 ( Units == INCHES. )

G90 ( Absolute coordinates. )
G00 S12000 ( RPM spindle speed. )
G64 P0.00040 ( set maximum deviation from commanded toolpath )
G01 F360.00000 ( Feedrate. )


G00 Z1.00000 (Retract to tool change height)
T1
M5      (Spindle stop.)
G04 P1.00000 (Wait for spindle to stop)
(MSG, Change tool bit to mill diameter 0.00000in)
M6      (Tool change.)
M0      (Temporary machine stop.)
M3 ( Spindle on clockwise. )
G04 P1.00000 (Wait for spindle to get up to speed)
G04 P0 ( dwell for no time -- G64 should not smooth over this point )
G00 Z0.08000 ( retract )

G00 X-3.05000 Y-2.64772 ( rapid move to begin. )
G01 F180.00000
( Mill infeed pass 1/1 )
G01 Z-0.04000
G04 P0 ( dwell for no time -- G64 should not smooth over this point )
G01 F360.00000
G01 X-3.05000 Y-2.64772
G01 X-3.07811 Y-2.65186
G01 X-3.08390 Y-2.65257
G01 X-3.13402 Y-2.65771
G01 X-3.16835 Y-2.66171
G01 X-3.19328 Y-2.66511
G01 X-3.21071 Y-2.66779
G01 X-3.22212 Y-2.66938
G01 X-3.23414 Y-2.67046
G01 X-3.24564 Y-2.67095
G01 X-3.25520 Y-2.67091
G01 X-3.26080 Y-2.67072
G01 X-3.27250 Y-2.66992
G01 X-3.27810 Y-2.66933
G01 X-3.29006 Y-2.66765
G01 X-3.29565 Y-2.66666
G01 X-3.30774 Y-2.66410
G01 X-3.31775 Y-2.66150
G01 X-3.32552 Y-2.65920
G01 X-3.52782 Y-2.65920
G01 X-3.58181 Y-2.63684
G01 X-3.59242 Y-2.63601
G01 X-3.60657 Y-2.63422
G01 X-3.61900 Y-2.63193
G01 X-3.62977 Y-2.62930
G01 X-3.63942 Y-2.62636
G01 X-3.64901 Y-2.62281
G01 X-3.65738 Y-2.61912
G01 X-3.66648 Y-2.61436
G01 X-3.67183 Y-2.61115
G01 X-3.67816 Y-2.60689
G01 X-3.68279 Y-2.60339
G01 X-3.69428 Y-2.59374
G01 X-3.69882 Y-2.59016
G01 X-3.70564 Y-2.58513
G01 X-3.71461 Y-2.57902
G01 X-3.71578 Y-2.57290
G01 X-3.71670 Y-2.56655
G01 X-3.71793 Y-2.55200
G01 X-3.71890 Y-2.54508
G01 X-3.72432 Y-2.53829
G01 X-3.73066 Y-2.53242
G01 X-3.73792 Y-2.52747
G01 X-3.74610 Y-2.52343
G01 X-3.83152 Y-2.48805
G01 X-3.83338 Y-2.48805
G01 X-3.88232 Y-2.46777
G01 X-3.91110 Y-2.43900
G01 X-3.91610 Y-2.43462
G01 X-3.92110 Y-2.43150
G01 X-3.92610 Y-2.42962
G01 X-3.93110 Y-2.42900
G01 X-4.06890 Y-2.42900
G01 X-4.07390 Y-2.42962
G01 X-4.07890 Y-2.43150
G01 X-4.08390 Y-2.43462
G01 X-4.08890 Y-2.43900
G01 X-4.12418 Y-2.47428
G01 X-4.14506 Y-2.52470
G01 X-4.11287 Y-2.57680
G01 X-4.10382 Y-2.58909
G01 X-4.09348 Y-2.59878
G01 X-4.08184 Y-2.60588
G01 X-4.06890 Y-2.61039
G01 X-4.00277 Y-2.62600
G01 X-3.93310 Y-2.62600
G01 X-3.93110 Y-2.62800
G01 X-3.92077 Y-2.63980
G01 X-3.91340 Y-2.65160
G01 X-3.90897 Y-2.66340
G01 X-3.90750 Y-2.67520
G01 X-3.90750 Y-2.69490
G01 X-3.90602 Y-2.70670
G01 X-3.90160 Y-2.71850
G01 X-3.89422 Y-2.73030
G01 X-3.88390 Y-2.74210
G01 X-3.81131 Y-2.81470
G01 X-3.74610 Y-2.81470
G01 X-3.73384 Y-2.81439
G01 X-3.71979 Y-2.80948
G01 X-3.70810 Y-2.81159
G01 X-3.69480 Y-2.81447
G01 X-3.68297 Y-2.81751
G01 X-3.67158 Y-2.82091
G01 X-3.66112 Y-2.82451
G01 X-3.65536 Y-2.82667
G01 X-3.64453 Y-2.83115
G01 X-3.61614 Y-2.84409
G01 X-3.61146 Y-2.84340
G01 X-3.59646 Y-2.84044
G01 X-3.59303 Y-2.83958
G01 X-3.58116 Y-2.83600
G01 X-3.57800 Y-2.83487
G01 X-3.56947 Y-2.83148
G01 X-3.56288 Y-2.82666
G01 X-3.55421 Y-2.82097
G01 X-3.54942 Y-2.81820
G01 X-3.54137 Y-2.81408
G01 X-3.53404 Y-2.81094
G01 X-3.52803 Y-2.80880
G01 X-3.52037 Y-2.80666
G01 X-3.51507 Y-2.80554
G01 X-3.50831 Y-2.80457
G01 X-3.50100 Y-2.80407
G01 X-3.49388 Y-2.80415
G01 X-3.48599 Y-2.80488
G01 X-3.47857 Y-2.80618
G01 X-3.47097 Y-2.80814
G01 X-3.46270 Y-2.81098
G01 X-3.45471 Y-2.81443
G01 X-3.45349 Y-2.82051
G01 X-3.45168 Y-2.82805
G01 X-3.45022 Y-2.83607
G01 X-3.44939 Y-2.84449
G01 X-3.44926 Y-2.85238
G01 X-3.44975 Y-2.86011
G01 X-3.45022 Y-2.86393
G01 X-3.45168 Y-2.87195
G01 X-3.45377 Y-2.88066
G01 X-3.45471 Y-2.88546
G01 X-3.45614 Y-2.89505
G01 X-3.45682 Y-2.90111
G01 X-3.45824 Y-2.91943
G01 X-3.45897 Y-2.93466
G01 X-3.45955 Y-2.95439
G01 X-3.45342 Y-2.98075
G01 X-3.44461 Y-3.00979
G01 X-3.41279 Y-3.00966
G01 X-3.39868 Y-3.01910
G01 X-3.39469 Y-3.02162
G01 X-3.38321 Y-3.02847
G01 X-3.37768 Y-3.03158
G01 X-3.36369 Y-3.04641
G01 X-3.36075 Y-3.04976
G01 X-3.35164 Y-3.06078
G01 X-3.34195 Y-3.07387
G01 X-3.33410 Y-3.08593
G01 X-3.33209 Y-3.08929
G01 X-3.32673 Y-3.09905
G01 X-3.32384 Y-3.10489
G01 X-3.32023 Y-3.11302
G01 X-3.31721 Y-3.12084
G01 X-3.31469 Y-3.12841
G01 X-3.31264 Y-3.13575
G01 X-3.31101 Y-3.14291
G01 X-3.30977 Y-3.14996
G01 X-3.30900 Y-3.15577
G01 X-3.31167 Y-3.16406
G01 X-3.31414 Y-3.17058
G01 X-3.31675 Y-3.17657
G01 X-3.32084 Y-3.18459
G01 X-3.32402 Y-3.19000
G01 X-3.32886 Y-3.19713
G01 X-3.33248 Y-3.20179
G01 X-3.33743 Y-3.20742
G01 X-3.34531 Y-3.21062
G01 X-3.45432 Y-3.21065
G01 X-3.46260 Y-3.21401
G01 X-3.47072 Y-3.21805
G01 X-3.47912 Y-3.22298
G01 X-3.48447 Y-3.22655
G01 X-3.48850 Y-3.22944
G01 X-3.49489 Y-3.23437
G01 X-3.49869 Y-3.23753
G01 X-3.50610 Y-3.24414
G01 X-3.51219 Y-3.25000
G01 X-3.65734 Y-3.25000
G01 X-3.66546 Y-3.24856
G01 X-3.67244 Y-3.24482
G01 X-3.67787 Y-3.24212
G01 X-3.68623 Y-3.23833
G01 X-3.69685 Y-3.23421
G01 X-3.70467 Y-3.23165
G01 X-3.70893 Y-3.23042
G01 X-3.71634 Y-3.22858
G01 X-3.72683 Y-3.22660
G01 X-3.73422 Y-3.22564
G01 X-3.74497 Y-3.22490
G01 X-3.75522 Y-3.22491
G01 X-3.76701 Y-3.22578
G01 X-3.77441 Y-3.22680
G01 X-3.78516 Y-3.22893
G01 X-3.79888 Y-3.22510
G01 X-3.81260 Y-3.22382
G01 X-3.88740 Y-3.22382
G01 X-3.89788 Y-3.22456
G01 X-3.90836 Y-3.22680
G01 X-3.91884 Y-3.23053
G01 X-3.92932 Y-3.23575
G01 X-3.97068 Y-3.23575
G01 X-3.98116 Y-3.23053
G01 X-3.99164 Y-3.22680
G01 X-4.00212 Y-3.22456
G01 X-4.01260 Y-3.22382
G01 X-4.04280 Y-3.22382
G01 X-4.04951 Y-3.22358
G01 X-4.05684 Y-3.22285
G01 X-4.05992 Y-3.22240
G01 X-4.06758 Y-3.22087
G01 X-4.07066 Y-3.22010
G01 X-4.07885 Y-3.21760
G01 X-4.08740 Y-3.21436
G01 X-4.10147 Y-3.20965
G01 X-4.11712 Y-3.20652
G01 X-4.12421 Y-3.20225
G01 X-4.13403 Y-3.19694
G01 X-4.14740 Y-3.19070
G01 X-4.15985 Y-3.18578
G01 X-4.16972 Y-3.18241
G01 X-4.17447 Y-3.18093
G01 X-4.18583 Y-3.17779
G01 X-4.19082 Y-3.17656
G01 X-4.20399 Y-3.17373
G01 X-4.20924 Y-3.17276
G01 X-4.22478 Y-3.17037
G01 X-4.23032 Y-3.16968
G01 X-4.24968 Y-3.16789
G01 X-4.26285 Y-3.16714
G01 X-4.29192 Y-3.09697
G01 X-4.29883 Y-3.09025
G01 X-4.31006 Y-3.07864
G01 X-4.31441 Y-3.07384
G01 X-4.32286 Y-3.06395
G01 X-4.32671 Y-3.05915
G01 X-4.33288 Y-3.05099
G01 X-4.33601 Y-3.04659
G01 X-4.34807 Y-3.02868
G01 X-4.35728 Y-3.01576
G01 X-4.36357 Y-3.00740
G01 X-4.37472 Y-2.99337
G01 X-4.38035 Y-2.98561
G01 X-4.38331 Y-2.98117
G01 X-4.38823 Y-2.97306
G01 X-4.39026 Y-2.96944
G01 X-4.39479 Y-2.96059
G01 X-4.39938 Y-2.95033
G01 X-4.40203 Y-2.94368
G01 X-4.40566 Y-2.93337
G01 X-4.41044 Y-2.93139
G01 X-4.42379 Y-2.92882
G01 X-4.42791 Y-2.92783
G01 X-4.43931 Y-2.92459
G01 X-4.44977 Y-2.92083
G01 X-4.45869 Y-2.91693
G01 X-4.46295 Y-2.91482
G01 X-4.46875 Y-2.91162
G01 X-4.47713 Y-2.90628
G01 X-4.48036 Y-2.90396
G01 X-4.48564 Y-2.89982
G01 X-4.49040 Y-2.89567
G01 X-4.49428 Y-2.89192
G01 X-4.49616 Y-2.88107
G01 X-4.49888 Y-2.86932
G01 X-4.49982 Y-2.86374
G01 X-4.50043 Y-2.85826
G01 X-4.50074 Y-2.85283
G01 X-4.50065 Y-2.84503
G01 X-4.49997 Y-2.83737
G01 X-4.49875 Y-2.83007
G01 X-4.49494 Y-2.82764
G01 X-4.48779 Y-2.82364
G01 X-4.48117 Y-2.82058
G01 X-4.47494 Y-2.81826
G01 X-4.46899 Y-2.81655
G01 X-4.46324 Y-2.81538
G01 X-4.45762 Y-2.81468
G01 X-4.45228 Y-2.81442
G01 X-4.44509 Y-2.81471
G01 X-4.43979 Y-2.81539
G01 X-4.43239 Y-2.81700
G01 X-4.42517 Y-2.81933
G01 X-4.30000 Y-2.81933
G01 X-4.29545 Y-2.81952
G01 X-4.28937 Y-2.82027
G01 X-4.28311 Y-2.82168
G01 X-4.27653 Y-2.82384
G01 X-4.27257 Y-2.82549
G01 X-4.26948 Y-2.82695
G01 X-4.26483 Y-2.82944
G01 X-4.26174 Y-2.83129
G01 X-4.25610 Y-2.83507
G01 X-4.25301 Y-2.83736
G01 X-4.24601 Y-2.84314
G01 X-4.23866 Y-2.85000
G01 X-4.21133 Y-2.87733
G01 X-4.19612 Y-2.88363
G01 X-4.06278 Y-3.01698
G01 X-4.05487 Y-3.02440
G01 X-4.04266 Y-3.03442
G01 X-4.04019 Y-3.03625
G01 X-4.02635 Y-3.04549
G01 X-4.02366 Y-3.04710
G01 X-4.00773 Y-3.05560
G01 X-3.99693 Y-3.06050
G01 X-3.72627 Y-3.06053
G01 X-3.71439 Y-3.06392
G01 X-3.70879 Y-3.06533
G01 X-3.69883 Y-3.06755
G01 X-3.68904 Y-3.06931
G01 X-3.67713 Y-3.07089
G01 X-3.67154 Y-3.07145
G01 X-3.66261 Y-3.07210
G01 X-3.65347 Y-3.07239
G01 X-3.64096 Y-3.07223
G01 X-3.63537 Y-3.07196
G01 X-3.62342 Y-3.07095
G01 X-3.61783 Y-3.07028
G01 X-3.60555 Y-3.06836
G01 X-3.59996 Y-3.06728
G01 X-3.58722 Y-3.06434
G01 X-3.58162 Y-3.06284
G01 X-3.56662 Y-3.05818
G01 X-3.56414 Y-3.05781
G01 X-3.54459 Y-3.05391
G01 X-3.54155 Y-3.05315
G01 X-3.52091 Y-3.04688
G01 X-3.51787 Y-3.04579
G01 X-3.50688 Y-3.04154
G01 X-3.48047 Y-3.03060
G01 X-3.46862 Y-3.02306
G01 X-3.45534 Y-3.01541
G01 X-3.44461 Y-3.00979
G01 X-3.45342 Y-2.98075
G01 X-3.45955 Y-2.95439
G01 X-3.45897 Y-2.93466
G01 X-3.45824 Y-2.91943
G01 X-3.45682 Y-2.90111
G01 X-3.45614 Y-2.89505
G01 X-3.45471 Y-2.88546
G01 X-3.45377 Y-2.88066
G01 X-3.45168 Y-2.87195
G01 X-3.45022 Y-2.86393
G01 X-3.44975 Y-2.86011
G01 X-3.44926 Y-2.85238
G01 X-3.44939 Y-2.84449
G01 X-3.45022 Y-2.83607
G01 X-3.45168 Y-2.82805
G01 X-3.45349 Y-2.82051
G01 X-3.45471 Y-2.81443
G01 X-3.44743 Y-2.80988
G01 X-3.44015 Y-2.80663
G01 X-3.43287 Y-2.80468
G01 X-3.42559 Y-2.80403
G01 X-3.37441 Y-2.80403
G01 X-3.36427 Y-2.80529
G01 X-3.35413 Y-2.80907
G01 X-3.34751 Y-2.80913
G01 X-3.33939 Y-2.80979
G01 X-3.33103 Y-2.81130
G01 X-3.32799 Y-2.81206
G01 X-3.32226 Y-2.81380
G01 X-3.31609 Y-2.81609
G01 X-3.24539 Y-2.84538
G01 X-3.24266 Y-2.85196
G01 X-3.23657 Y-2.85874
G01 X-3.23319 Y-2.86274
G01 X-3.22931 Y-2.86757
G01 X-3.22339 Y-2.87554
G01 X-3.21863 Y-2.88263
G01 X-3.21616 Y-2.88663
G01 X-3.21069 Y-2.89651
G01 X-3.20783 Y-2.90250
G01 X-3.20611 Y-2.90650
G01 X-3.20373 Y-2.91273
G01 X-3.20193 Y-2.91824
G01 X-3.20036 Y-2.92398
G01 X-3.19911 Y-2.92965
G01 X-3.19819 Y-2.93521
G01 X-3.19761 Y-2.94021
G01 X-3.19722 Y-2.94632
G01 X-3.19728 Y-2.95522
G01 X-3.19778 Y-2.96150
G01 X-3.19915 Y-2.97052
G01 X-3.20078 Y-2.97767
G01 X-3.20365 Y-2.98704
G01 X-3.20574 Y-2.99260
G01 X-3.20907 Y-3.00020
G01 X-3.20907 Y-3.18021
G01 X-3.20928 Y-3.18574
G01 X-3.20979 Y-3.19082
G01 X-3.21024 Y-3.19386
G01 X-3.21143 Y-3.19970
G01 X-3.21633 Y-3.20587
G01 X-3.22018 Y-3.21003
G01 X-3.29187 Y-3.28163
G01 X-3.29825 Y-3.28705
G01 X-3.30545 Y-3.29204
G01 X-3.30814 Y-3.29365
G01 X-3.31367 Y-3.29660
G01 X-3.32251 Y-3.30053
G01 X-3.32766 Y-3.29750
G01 X-3.33326 Y-3.29455
G01 X-3.33859 Y-3.29205
G01 X-3.34526 Y-3.28938
G01 X-3.45429 Y-3.28938
G01 X-3.46054 Y-3.28691
G01 X-3.46772 Y-3.28353
G01 X-3.47587 Y-3.27902
G01 X-3.48459 Y-3.27337
G01 X-3.49051 Y-3.26906
G01 X-3.49453 Y-3.26591
G01 X-3.50186 Y-3.25970
G01 X-3.51219 Y-3.25000
G01 X-3.50186 Y-3.25970
G01 X-3.49453 Y-3.26591
G01 X-3.49051 Y-3.26906
G01 X-3.48459 Y-3.27337
G01 X-3.47587 Y-3.27902
G01 X-3.46772 Y-3.28353
G01 X-3.46054 Y-3.28691
G01 X-3.45429 Y-3.28938
G01 X-3.34526 Y-3.28938
G01 X-3.33859 Y-3.29205
G01 X-3.33326 Y-3.29455
G01 X-3.32766 Y-3.29750
G01 X-3.32251 Y-3.30053
G01 X-3.32335 Y-3.30532
G01 X-3.32476 Y-3.31179
G01 X-3.32634 Y-3.31765
G01 X-3.32806 Y-3.32298
G01 X-3.32990 Y-3.32789
G01 X-3.33186 Y-3.33242
G01 X-3.33525 Y-3.33908
G01 X-3.33767 Y-3.34315
G01 X-3.34008 Y-3.34677
G01 X-3.34345 Y-3.35123
G01 X-3.34826 Y-3.35669
G01 X-3.35216 Y-3.36048
G01 X-3.35779 Y-3.36516
G01 X-3.36201 Y-3.36817
G01 X-3.36548 Y-3.36878
G01 X-3.37099 Y-3.36946
G01 X-3.37741 Y-3.36979
G01 X-3.42199 Y-3.36980
G01 X-3.42634 Y-3.36966
G01 X-3.43275 Y-3.36904
G01 X-3.44100 Y-3.36751
G01 X-3.44596 Y-3.36619
G01 X-3.45279 Y-3.36389
G01 X-3.67296 Y-3.36386
G01 X-3.67915 Y-3.36343
G01 X-3.68369 Y-3.36280
G01 X-3.71947 Y-3.35647
G01 X-3.72748 Y-3.35824
G01 X-3.73428 Y-3.35932
G01 X-3.74136 Y-3.36003
G01 X-3.74848 Y-3.36033
G01 X-3.75507 Y-3.36023
G01 X-3.76316 Y-3.35962
G01 X-3.77217 Y-3.35831
G01 X-3.77767 Y-3.35717
G01 X-3.78367 Y-3.35564
G01 X-3.78789 Y-3.35438
G01 X-3.79024 Y-3.34513
G01 X-3.79472 Y-3.33249
G01 X-3.79707 Y-3.32417
G01 X-3.79817 Y-3.31909
G01 X-3.79900 Y-3.31411
G01 X-3.79985 Y-3.30536
G01 X-3.79999 Y-3.29939
G01 X-3.79985 Y-3.29456
G01 X-3.79903 Y-3.28610
G01 X-3.79822 Y-3.28118
G01 X-3.79679 Y-3.27468
G01 X-3.79532 Y-3.26944
G01 X-3.79348 Y-3.26393
G01 X-3.79116 Y-3.25770
G01 X-3.78914 Y-3.25095
G01 X-3.78722 Y-3.24223
G01 X-3.78516 Y-3.22893
G01 X-3.79888 Y-3.22510
G01 X-3.81260 Y-3.22382
G01 X-3.88740 Y-3.22382
G01 X-3.89788 Y-3.22456
G01 X-3.90836 Y-3.22680
G01 X-3.91884 Y-3.23053
G01 X-3.92932 Y-3.23575
G01 X-3.97068 Y-3.23575
G01 X-3.98116 Y-3.23053
G01 X-3.99164 Y-3.22680
G01 X-4.00212 Y-3.22456
G01 X-4.01260 Y-3.22382
G01 X-4.04280 Y-3.22382
G01 X-4.04951 Y-3.22358
G01 X-4.05684 Y-3.22285
G01 X-4.05992 Y-3.22240
G01 X-4.06758 Y-3.22087
G01 X-4.07066 Y-3.22010
G01 X-4.07885 Y-3.21760
G01 X-4.08740 Y-3.21436
G01 X-4.10147 Y-3.20965
G01 X-4.11712 Y-3.20652
G01 X-4.12421 Y-3.20225
G01 X-4.13403 Y-3.19694
G01 X-4.14740 Y-3.19070
G01 X-4.15985 Y-3.18578
G01 X-4.16972 Y-3.18241
G01 X-4.17447 Y-3.18093
G01 X-4.18583 Y-3.17779
G01 X-4.19082 Y-3.17656
G01 X-4.20399 Y-3.17373
G01 X-4.20924 Y-3.17276
G01 X-4.22478 Y-3.17037
G01 X-4.23032 Y-3.16968
G01 X-4.24968 Y-3.16789
G01 X-4.26285 Y-3.16714
G01 X-4.29192 Y-3.09697
G01 X-4.29883 Y-3.09025
G01 X-4.31006 Y-3.07864
G01 X-4.31441 Y-3.07384
G01 X-4.32286 Y-3.06395
G01 X-4.32671 Y-3.05915
G01 X-4.33288 Y-3.05099
G01 X-4.33601 Y-3.04659
G01 X-4.34807 Y-3.02868
G01 X-4.35728 Y-3.01576
G01 X-4.36357 Y-3.00740
G01 X-4.37472 Y-2.99337
G01 X-4.38035 Y-2.98561
G01 X-4.38331 Y-2.98117
G01 X-4.38823 Y-2.97306
G01 X-4.39026 Y-2.96944
G01 X-4.39479 Y-2.96059
G01 X-4.39938 Y-2.95033
G01 X-4.40203 Y-2.94368
G01 X-4.40566 Y-2.93337
G01 X-4.41044 Y-2.93139
G01 X-4.42379 Y-2.92882
G01 X-4.42791 Y-2.92783
G01 X-4.43931 Y-2.92459
G01 X-4.44977 Y-2.92083
G01 X-4.45869 Y-2.91693
G01 X-4.46295 Y-2.91482
G01 X-4.46875 Y-2.91162
G01 X-4.47713 Y-2.90628
G01 X-4.48036 Y-2.90396
G01 X-4.48564 Y-2.89982
G01 X-4.49040 Y-2.89567
G01 X-4.49428 Y-2.89192
G01 X-4.49616 Y-2.88107
G01 X-4.49888 Y-2.86932
G01 X-4.49982 Y-2.86374
G01 X-4.50043 Y-2.85826
G01 X-4.50074 Y-2.85283
G01 X-4.50065 Y-2.84503
G01 X-4.49997 Y-2.83737
G01 X-4.49875 Y-2.83007
G01 X-4.50441 Y-2.82441
G01 X-4.50941 Y-2.82003
G01 X-4.51441 Y-2.81691
G01 X-4.51941 Y-2.81503
G01 X-4.52441 Y-2.81441
G01 X-4.57559 Y-2.81441
G01 X-4.58269 Y-2.81567
G01 X-4.58980 Y-2.81945
G01 X-4.60000 Y-2.81945
G01 X-4.60451 Y-2.81964
G01 X-4.61057 Y-2.82039
G01 X-4.61377 Y-2.82103
G01 X-4.62031 Y-2.82285
G01 X-4.62335 Y-2.82394
G01 X-4.63346 Y-2.82807
G01 X-4.69279 Y-2.88740
G01 X-4.70219 Y-2.89109
G01 X-4.70722 Y-2.89342
G01 X-4.71413 Y-2.89710
G01 X-4.72192 Y-2.90203
G01 X-4.72747 Y-2.90616
G01 X-4.73147 Y-2.90951
G01 X-4.73640 Y-2.91416
G01 X-4.74069 Y-2.91876
G01 X-4.74637 Y-2.92587
G01 X-4.74770 Y-2.93199
G01 X-4.74851 Y-2.93718
G01 X-4.74912 Y-2.94335
G01 X-4.74934 Y-2.94984
G01 X-4.74909 Y-2.95710
G01 X-4.74852 Y-2.96276
G01 X-4.74778 Y-2.96756
G01 X-4.74640 Y-2.97414
G01 X-4.74205 Y-2.97966
G01 X-4.73793 Y-2.98427
G01 X-4.73383 Y-2.98834
G01 X-4.73025 Y-2.99154
G01 X-4.72571 Y-2.99522
G01 X-4.71954 Y-2.99958
G01 X-4.71377 Y-3.00312
G01 X-4.70786 Y-3.00627
G01 X-4.70325 Y-3.00844
G01 X-4.69655 Y-3.01121
G01 X-4.68875 Y-3.01392
G01 X-4.67990 Y-3.01642
G01 X-4.67058 Y-3.01848
G01 X-4.66174 Y-3.01996
G01 X-4.65236 Y-3.02109
G01 X-4.64185 Y-3.02188
G01 X-4.62893 Y-3.02223
G01 X-4.61946 Y-3.02211
G01 X-4.60233 Y-3.02120
G01 X-4.58876 Y-3.01993
G01 X-4.55285 Y-3.05583
G01 X-4.54199 Y-3.05897
G01 X-4.52939 Y-3.06328
G01 X-4.52165 Y-3.06631
G01 X-4.49865 Y-3.07583
G01 X-4.47462 Y-3.10000
G01 X-4.47131 Y-3.10358
G01 X-4.46438 Y-3.11176
G01 X-4.45873 Y-3.11937
G01 X-4.45437 Y-3.12610
G01 X-4.45094 Y-3.13224
G01 X-4.44804 Y-3.13827
G01 X-4.44518 Y-3.14560
G01 X-4.44293 Y-3.15335
G01 X-4.44149 Y-3.16100
G01 X-4.44085 Y-3.16840
G01 X-4.44092 Y-3.17573
G01 X-4.44173 Y-3.18312
G01 X-4.44247 Y-3.18715
G01 X-4.44340 Y-3.19104
G01 X-4.44454 Y-3.19497
G01 X-4.44592 Y-3.19902
G01 X-4.44832 Y-3.20489
G01 X-4.45113 Y-3.21063
G01 X-4.55467 Y-3.21062
G01 X-4.55796 Y-3.21187
G01 X-4.56528 Y-3.21509
G01 X-4.57033 Y-3.21765
G01 X-4.57562 Y-3.22065
G01 X-4.58120 Y-3.22413
G01 X-4.58710 Y-3.22820
G01 X-4.60099 Y-3.23842
G01 X-4.62146 Y-3.25305
G01 X-4.67389 Y-3.28942
G01 X-4.73601 Y-3.31188
G01 X-4.77109 Y-3.32542
G01 X-4.80861 Y-3.34141
G01 X-4.81829 Y-3.34571
G01 X-4.87888 Y-3.37410
G01 X-4.90000 Y-3.38489
G01 X-4.87888 Y-3.37410
G01 X-4.81829 Y-3.34571
G01 X-4.80861 Y-3.34141
G01 X-4.77109 Y-3.32542
G01 X-4.73601 Y-3.31188
G01 X-4.67389 Y-3.28942
G01 X-4.47427 Y-3.28941
G01 X-4.41979 Y-3.28924
G01 X-4.41441 Y-3.28904
G01 X-4.40967 Y-3.28857
G01 X-4.40663 Y-3.28812
G01 X-4.39863 Y-3.28637
G01 X-4.39020 Y-3.28364
G01 X-4.38090 Y-3.27987
G01 X-4.37455 Y-3.27696
G01 X-4.36710 Y-3.27297
G01 X-4.36406 Y-3.27115
G01 X-4.35531 Y-3.26528
G01 X-4.35227 Y-3.26303
G01 X-4.34164 Y-3.25426
G01 X-4.33230 Y-3.24550
G01 X-4.26968 Y-3.18289
G01 X-4.26285 Y-3.16714
G01 X-4.24968 Y-3.16789
G01 X-4.23032 Y-3.16968
G01 X-4.22478 Y-3.17037
G01 X-4.20924 Y-3.17276
G01 X-4.20399 Y-3.17373
G01 X-4.19082 Y-3.17656
G01 X-4.18583 Y-3.17779
G01 X-4.17447 Y-3.18093
G01 X-4.16972 Y-3.18241
G01 X-4.15985 Y-3.18578
G01 X-4.14740 Y-3.19070
G01 X-4.13403 Y-3.19694
G01 X-4.12421 Y-3.20225
G01 X-4.11712 Y-3.20652
G01 X-4.11564 Y-3.22203
G01 X-4.11484 Y-3.22884
G01 X-4.11390 Y-3.23559
G01 X-4.11203 Y-3.24594
G01 X-4.11096 Y-3.25054
G01 X-4.10896 Y-3.25735
G01 X-4.10594 Y-3.26554
G01 X-4.10427 Y-3.27079
G01 X-4.10291 Y-3.27590
G01 X-4.10120 Y-3.28451
G01 X-4.10044 Y-3.29069
G01 X-4.10001 Y-3.29912
G01 X-4.10015 Y-3.30534
G01 X-4.10065 Y-3.31132
G01 X-4.10181 Y-3.31896
G01 X-4.10321 Y-3.32529
G01 X-4.10520 Y-3.33223
G01 X-4.10925 Y-3.34352
G01 X-4.11018 Y-3.34655
G01 X-4.11156 Y-3.35190
G01 X-4.11367 Y-3.36292
G01 X-4.11475 Y-3.37041
G01 X-4.11573 Y-3.37873
G01 X-4.11714 Y-3.39367
G01 X-4.11810 Y-3.40631
G01 X-4.12025 Y-3.44307
G01 X-4.12115 Y-3.46167
G01 X-4.12272 Y-3.50104
G01 X-4.11744 Y-3.60000
G01 X-3.05000 Y-3.60000
G01 X-3.05000 Y-2.35000
G01 X-4.90000 Y-2.35000
G01 X-4.90000 Y-2.71024
G01 X-4.88586 Y-2.71101
G01 X-4.85989 Y-2.71145
G01 X-4.83267 Y-2.71078
G01 X-4.80761 Y-2.70899
G01 X-4.78498 Y-2.70629
G01 X-4.76530 Y-2.70297
G01 X-4.76059 Y-2.70203
G01 X-4.74714 Y-2.69901
G01 X-4.71771 Y-2.69152
G01 X-4.69449 Y-2.68598
G01 X-4.67158 Y-2.68094
G01 X-4.64073 Y-2.67468
G01 X-4.63037 Y-2.67214
G01 X-4.62130 Y-2.66958
G01 X-4.37875 Y-2.66958
G01 X-4.36799 Y-2.67256
G01 X-4.35586 Y-2.67541
G01 X-4.35106 Y-2.67639
G01 X-4.33984 Y-2.67834
G01 X-4.32497 Y-2.68017
G01 X-4.32057 Y-2.68055
G01 X-4.30581 Y-2.68129
G01 X-4.29551 Y-2.68132
G01 X-4.28118 Y-2.68069
G01 X-4.15689 Y-2.71003
G01 X-4.14785 Y-2.71247
G01 X-4.13647 Y-2.71637
G01 X-4.12821 Y-2.71981
G01 X-4.12284 Y-2.72845
G01 X-4.11747 Y-2.73847
G01 X-4.11603 Y-2.74151
G01 X-4.11402 Y-2.74604
G01 X-4.08629 Y-2.81300
G01 X-4.08329 Y-2.81870
G01 X-4.07939 Y-2.82349
G01 X-4.07460 Y-2.82739
G01 X-4.06890 Y-2.83039
G01 X-3.96421 Y-2.87375
G01 X-3.93110 Y-2.87375
G01 X-3.91613 Y-2.87283
G01 X-3.90115 Y-2.87006
G01 X-3.88618 Y-2.86545
G01 X-3.87121 Y-2.85899
G01 X-3.85623 Y-2.85068
G01 X-3.84126 Y-2.84053
G01 X-3.82628 Y-2.82854
G01 X-3.81131 Y-2.81470
G01 X-3.82628 Y-2.82854
G01 X-3.84126 Y-2.84053
G01 X-3.85623 Y-2.85068
G01 X-3.87121 Y-2.85899
G01 X-3.88618 Y-2.86545
G01 X-3.90115 Y-2.87006
G01 X-3.91613 Y-2.87283
G01 X-3.93110 Y-2.87375
G01 X-3.96421 Y-2.87375
G01 X-4.06890 Y-2.83039
G01 X-4.07460 Y-2.82739
G01 X-4.07939 Y-2.82349
G01 X-4.08329 Y-2.81870
G01 X-4.08629 Y-2.81300
G01 X-4.11402 Y-2.74604
G01 X-4.11603 Y-2.74151
G01 X-4.11747 Y-2.73847
G01 X-4.12284 Y-2.72845
G01 X-4.12821 Y-2.71981
G01 X-4.13647 Y-2.71637
G01 X-4.14785 Y-2.71247
G01 X-4.15689 Y-2.71003
G01 X-4.28118 Y-2.68069
G01 X-4.29551 Y-2.68132
G01 X-4.30581 Y-2.68129
G01 X-4.32057 Y-2.68055
G01 X-4.32497 Y-2.68017
G01 X-4.33984 Y-2.67834
G01 X-4.35106 Y-2.67639
G01 X-4.35586 Y-2.67541
G01 X-4.36799 Y-2.67256
G01 X-4.37875 Y-2.66958
G01 X-4.62130 Y-2.66958
G01 X-4.63037 Y-2.67214
G01 X-4.64073 Y-2.67468
G01 X-4.67158 Y-2.68094
G01 X-4.69449 Y-2.68598
G01 X-4.71771 Y-2.69152
G01 X-4.74714 Y-2.69901
G01 X-4.76059 Y-2.70203
G01 X-4.76530 Y-2.70297
G01 X-4.78498 Y-2.70629
G01 X-4.80761 Y-2.70899
G01 X-4.83267 Y-2.71078
G01 X-4.85989 Y-2.71145
G01 X-4.88586 Y-2.71101
G01 X-4.90000 Y-2.71024
G01 X-4.90000 Y-3.60000
G01 X-4.11744 Y-3.60000

G04 P0 ( dwell for no time -- G64 should not smooth over this point )
G00 Z1.000000 ( retract )

M5 ( Spindle off. )
G04 P1.000000
M9 ( Coolant off. )
M2 ( Program end. )

