( pcb2gcode 1.3.2 )
( Software-independent Gcode )
( This file uses a mill head of 0.80000inch to drill the 2 bit sizes. )
( Bit sizes: [0.0314961 inch] [0.0394094 inch] )

G94       (Inches per minute feed rate.)
G20       (Units == INCHES.)
G91.1     (Incremental arc distance mode.)
G90       (Absolute coordinates.)
S10000    (RPM spindle speed.)
G01 F100.00000 (Feedrate)
M3        (Spindle on clockwise.)
G04 P1.00000
G00 Z0.08000

G0 X-3.40000 Y-2.85000
G1 Z-1.60000
G0 Z0.08000

G0 X-3.49843 Y-2.85000
G1 Z-1.60000
G0 Z0.08000

G0 X-3.40000 Y-3.17126
G1 Z-1.60000
G0 Z0.08000

G0 X-3.40000 Y-3.25000
G1 Z-1.60000
G0 Z0.08000

G0 X-3.40000 Y-3.32874
G1 Z-1.60000
G0 Z0.08000

G0 X-4.45157 Y-2.85000
G1 Z-1.60000
G0 Z0.08000

G0 X-4.55000 Y-2.85000
G1 Z-1.60000
G0 Z0.08000

G0 X-4.50000 Y-3.17126
G1 Z-1.60000
G0 Z0.08000

G0 X-4.50000 Y-3.25000
G1 Z-1.60000
G0 Z0.08000

G0 X-4.50000 Y-3.32874
G1 Z-1.60000
G0 Z0.08000

G0 X-3.25000 Y-2.95000
G1 Z-1.60000
G0 Z0.08000

G0 X-3.25000 Y-2.55000
G1 Z-1.60000
G0 Z0.08000

G0 X-3.65000 Y-2.55000
G1 Z-1.60000
G0 Z0.08000

G0 X-3.81500 Y-2.66535
G1 Z0.17778 F75.00000
G1 X-3.81500 Y-2.58665 Z0.08889
G1 X-3.81500 Y-2.66535 Z-0.00000
G1 X-3.81500 Y-2.58665 Z-0.08889
G1 X-3.81500 Y-2.66535 Z-0.17778
G1 X-3.81500 Y-2.58665 Z-0.26667
G1 X-3.81500 Y-2.66535 Z-0.35556
G1 X-3.81500 Y-2.58665 Z-0.44444
G1 X-3.81500 Y-2.66535 Z-0.53333
G1 X-3.81500 Y-2.58665 Z-0.62222
G1 X-3.81500 Y-2.66535 Z-0.71111
G1 X-3.81500 Y-2.58665 Z-0.80000
G1 X-3.81500 Y-2.66535 Z-0.88889
G1 X-3.81500 Y-2.58665 Z-0.97778
G1 X-3.81500 Y-2.66535 Z-1.06667
G1 X-3.81500 Y-2.58665 Z-1.15556
G1 X-3.81500 Y-2.66535 Z-1.24444
G1 X-3.81500 Y-2.58665 Z-1.33333
G1 X-3.81500 Y-2.66535 Z-1.42222
G1 X-3.81500 Y-2.58665 Z-1.51111
G1 X-3.81500 Y-2.66535 Z-1.60000
G1 X-3.81500 Y-2.58665
G0 Z0.08000

G0 X-3.96067 Y-2.50791
G1 Z0.17778 F75.00000
G1 X-4.03933 Y-2.50791 Z0.08889
G1 X-3.96067 Y-2.50791 Z-0.00000
G1 X-4.03933 Y-2.50791 Z-0.08889
G1 X-3.96067 Y-2.50791 Z-0.17778
G1 X-4.03933 Y-2.50791 Z-0.26667
G1 X-3.96067 Y-2.50791 Z-0.35556
G1 X-4.03933 Y-2.50791 Z-0.44444
G1 X-3.96067 Y-2.50791 Z-0.53333
G1 X-4.03933 Y-2.50791 Z-0.62222
G1 X-3.96067 Y-2.50791 Z-0.71111
G1 X-4.03933 Y-2.50791 Z-0.80000
G1 X-3.96067 Y-2.50791 Z-0.88889
G1 X-4.03933 Y-2.50791 Z-0.97778
G1 X-3.96067 Y-2.50791 Z-1.06667
G1 X-4.03933 Y-2.50791 Z-1.15556
G1 X-3.96067 Y-2.50791 Z-1.24444
G1 X-4.03933 Y-2.50791 Z-1.33333
G1 X-3.96067 Y-2.50791 Z-1.42222
G1 X-4.03933 Y-2.50791 Z-1.51111
G1 X-3.96067 Y-2.50791 Z-1.60000
G1 X-4.03933 Y-2.50791
G0 Z0.08000

G0 X-4.03933 Y-2.74409
G1 Z0.17778 F75.00000
G1 X-3.96067 Y-2.74409 Z0.08889
G1 X-4.03933 Y-2.74409 Z-0.00000
G1 X-3.96067 Y-2.74409 Z-0.08889
G1 X-4.03933 Y-2.74409 Z-0.17778
G1 X-3.96067 Y-2.74409 Z-0.26667
G1 X-4.03933 Y-2.74409 Z-0.35556
G1 X-3.96067 Y-2.74409 Z-0.44444
G1 X-4.03933 Y-2.74409 Z-0.53333
G1 X-3.96067 Y-2.74409 Z-0.62222
G1 X-4.03933 Y-2.74409 Z-0.71111
G1 X-3.96067 Y-2.74409 Z-0.80000
G1 X-4.03933 Y-2.74409 Z-0.88889
G1 X-3.96067 Y-2.74409 Z-0.97778
G1 X-4.03933 Y-2.74409 Z-1.06667
G1 X-3.96067 Y-2.74409 Z-1.15556
G1 X-4.03933 Y-2.74409 Z-1.24444
G1 X-3.96067 Y-2.74409 Z-1.33333
G1 X-4.03933 Y-2.74409 Z-1.42222
G1 X-3.96067 Y-2.74409 Z-1.51111
G1 X-4.03933 Y-2.74409 Z-1.60000
G1 X-3.96067 Y-2.74409
G0 Z0.08000

G0 X-3.65000 Y-2.95000
G1 Z-1.60000
G0 Z0.08000

G0 X-3.75000 Y-3.30000
G1 Z-1.60000
G0 Z0.08000

G0 X-3.85000 Y-3.30000
G1 Z-1.60000
G0 Z0.08000

G0 X-4.05000 Y-3.30000
G1 Z-1.60000
G0 Z0.08000

G0 X-4.15000 Y-3.30000
G1 Z-1.60000
G0 Z0.08000

G0 X-4.30000 Y-2.95000
G1 Z-1.60000
G0 Z0.08000

G0 X-4.70000 Y-2.95000
G1 Z-1.60000
G0 Z0.08000

G0 X-4.30000 Y-2.55000
G1 Z-1.60000
G0 Z0.08000

G0 X-4.70000 Y-2.55000
G1 Z-1.60000
G0 Z0.08000

G00 Z1.000 ( All done -- retract )

M5      (Spindle off.)
G04 P1.000000
M9      (Coolant off.)
M2      (Program end.)

