( pcb2gcode 2.5.0 )
( Software-independent Gcode )

G94 ( Inches per minute feed rate. )
G20 ( Units == INCHES. )

G90 ( Absolute coordinates. )
G00 S10000 ( RPM spindle speed. )
G64 P0.00040 ( set maximum deviation from commanded toolpath )
G01 F100.00000 ( Feedrate. )


G00 Z1.00000 (Retract to tool change height)
T1
M5      (Spindle stop.)
G04 P1.00000 (Wait for spindle to stop)
(MSG, Change tool bit to cutter diameter 0.05906in)
M6      (Tool change.)
M0      (Temporary machine stop.)
M3 ( Spindle on clockwise. )
G04 P1.00000 (Wait for spindle to get up to speed)
G04 P0 ( dwell for no time -- G64 should not smooth over this point )
G00 Z0.08000 ( retract )

G00 X-3.02047 Y-3.60000 ( rapid move to begin. )
G01 Z-0.00512 F75.00000 ( plunge. )
G04 P0 ( dwell for no time -- G64 should not smooth over this point )
G01 F100.00000
G01 X-3.02047 Y-2.34960
G01 X-3.02075 Y-2.34598
G01 X-3.02136 Y-2.34281
G01 X-3.02246 Y-2.33935
G01 X-3.02397 Y-2.33606
G01 X-3.02588 Y-2.33297
G01 X-3.02815 Y-2.33014
G01 X-3.03075 Y-2.32761
G01 X-3.03364 Y-2.32542
G01 X-3.03750 Y-2.32325
G01 X-3.04164 Y-2.32168
G01 X-3.04598 Y-2.32075
G01 X-3.05000 Y-2.32047
G01 X-4.90000 Y-2.32047
G01 X-4.90362 Y-2.32070
G01 X-4.90719 Y-2.32136
G01 X-4.91064 Y-2.32246
G01 X-4.91394 Y-2.32397
G01 X-4.91703 Y-2.32588
G01 X-4.91986 Y-2.32815
G01 X-4.92239 Y-2.33075
G01 X-4.92458 Y-2.33364
G01 X-4.92675 Y-2.33750
G01 X-4.92832 Y-2.34165
G01 X-4.92925 Y-2.34598
G01 X-4.92953 Y-2.35000
G01 X-4.92953 Y-3.60000
G01 X-4.92930 Y-3.60362
G01 X-4.92864 Y-3.60719
G01 X-4.92754 Y-3.61064
G01 X-4.92603 Y-3.61394
G01 X-4.92412 Y-3.61703
G01 X-4.92185 Y-3.61986
G01 X-4.91925 Y-3.62239
G01 X-4.91636 Y-3.62458
G01 X-4.91250 Y-3.62675
G01 X-4.90835 Y-3.62832
G01 X-4.90402 Y-3.62925
G01 X-4.90000 Y-3.62953
G01 X-3.04960 Y-3.62952
G01 X-3.04678 Y-3.62935
G01 X-3.04360 Y-3.62882
G01 X-3.04088 Y-3.62808
G01 X-3.03824 Y-3.62708
G01 X-3.03570 Y-3.62584
G01 X-3.03330 Y-3.62435
G01 X-3.03105 Y-3.62265
G01 X-3.02898 Y-3.62074
G01 X-3.02710 Y-3.61863
G01 X-3.02542 Y-3.61636
G01 X-3.02397 Y-3.61394
G01 X-3.02276 Y-3.61139
G01 X-3.02168 Y-3.60835
G01 X-3.02101 Y-3.60561
G01 X-3.02061 Y-3.60282
G01 X-3.02047 Y-3.60000

G04 P0 ( dwell for no time -- G64 should not smooth over this point )
G00 Z1.000000 ( retract )

M5 ( Spindle off. )
G04 P1.000000
M9 ( Coolant off. )
M2 ( Program end. )

