( pcb2gcode 1.3.2 )
( Software-independent Gcode )

G94 ( Inches per minute feed rate. )
G20 ( Units == INCHES. )

G90 ( Absolute coordinates. )
G00 S10000 ( RPM spindle speed. )
G64 P0.00040 ( set maximum deviation from commanded toolpath )
G01 F100.00000 ( Feedrate. )

G01 F100.00000 ( Feedrate. )
M3 ( Spindle on clockwise. )
G04 P1.00000
G04 P0 ( dwell for no time -- G64 should not smooth over this point )
G00 Z0.08000 ( retract )

G00 X-2.64705 Y-3.60000 ( rapid move to begin. )
G01 Z-0.13000 F75.00000 ( plunge. )
G04 P0 ( dwell for no time -- G64 should not smooth over this point )
G01 F100.00000
G01 X-2.64705 Y-3.60000
G01 X-2.64705 Y-2.35000
G01 X-2.65239 Y-2.28484
G01 X-2.66827 Y-2.22142
G01 X-2.69428 Y-2.16144
G01 X-2.73915 Y-2.09379
G01 X-2.79460 Y-2.03834
G01 X-2.85980 Y-1.99478
G01 X-2.93389 Y-1.96427
G01 X-2.99131 Y-1.95138
G01 X-3.05000 Y-1.94705
G01 X-4.90000 Y-1.94705
G01 X-4.96516 Y-1.95239
G01 X-5.02858 Y-1.96827
G01 X-5.09101 Y-1.99559
G01 X-5.15621 Y-2.03916
G01 X-5.21166 Y-2.09460
G01 X-5.25522 Y-2.15980
G01 X-5.28573 Y-2.23389
G01 X-5.29862 Y-2.29131
G01 X-5.30295 Y-2.35000
G01 X-5.30295 Y-3.60000
G01 X-5.29761 Y-3.66516
G01 X-5.28172 Y-3.72858
G01 X-5.25572 Y-3.78856
G01 X-5.21084 Y-3.85621
G01 X-5.15540 Y-3.91166
G01 X-5.09020 Y-3.95522
G01 X-5.01611 Y-3.98573
G01 X-4.95869 Y-3.99862
G01 X-4.90000 Y-4.00295
G01 X-3.04984 Y-4.00293
G01 X-2.99138 Y-3.99864
G01 X-2.93416 Y-3.98584
G01 X-2.87740 Y-3.96386
G01 X-2.81178 Y-3.92492
G01 X-2.75475 Y-3.87422
G01 X-2.70839 Y-3.81362
G01 X-2.67437 Y-3.74532
G01 X-2.65375 Y-3.67289
G01 X-2.64705 Y-3.60000

G04 P0 ( dwell for no time -- G64 should not smooth over this point )
G00 Z1.000 ( retract )

M5 ( Spindle off. )
G04 P1.000000
M9 ( Coolant off. )
M2 ( Program end. )

