( pcb2gcode 1.3.2 )
( Software-independent Gcode )

G94 ( Millimeters per minute feed rate. )
G21 ( Units == Millimeters. )

G90 ( Absolute coordinates. )
G00 S10000 ( RPM spindle speed. )
G01 F360.00000 ( Feedrate. )

G01 F360.00000 ( Feedrate. )
M3 ( Spindle on clockwise. )
G04 P1.00000
G04 P0 ( dwell for no time -- G64 should not smooth over this point )
G00 Z10.00000 ( retract )

G00 X-18.85602 Y0.05080 ( rapid move to begin. )
G01 F30.00000
G01 Z-0.10000
G04 P0 ( dwell for no time -- G64 should not smooth over this point )
G01 F360.00000
G01 X-18.85602 Y0.05080
G01 X-0.05080 Y0.05080
G01 X-0.05080 Y48.79073
G01 X-71.17080 Y48.79073
G01 X-71.17080 Y0.05080
G01 X-52.74391 Y0.05080
G01 X-52.17366 Y1.08770
G01 X-51.58930 Y2.05730
G01 X-51.04653 Y2.87068
G01 X-50.50376 Y3.59984
G01 X-49.96099 Y4.24477
G01 X-49.39937 Y4.82938
G01 X-48.87930 Y5.28958
G01 X-48.45969 Y5.60619
G01 X-48.06099 Y5.85963
G01 X-47.68914 Y6.05836
G01 X-47.33801 Y6.20900
G01 X-47.04931 Y6.30735
G01 X-46.71906 Y6.38993
G01 X-46.36183 Y6.44703
G01 X-46.00461 Y6.46621
G01 X-43.32122 Y6.46623
G01 X-42.91035 Y6.55843
G01 X-42.53446 Y6.59613
G01 X-42.02499 Y6.58104
G01 X-41.41930 Y6.45935
G01 X-40.12588 Y6.46730
G01 X-39.60901 Y6.52927
G01 X-39.11674 Y6.51759
G01 X-38.62446 Y6.52927
G01 X-38.27788 Y6.49674
G01 X-38.08811 Y6.53819
G01 X-37.62139 Y6.59602
G01 X-37.05073 Y6.60065
G01 X-36.72515 Y6.58358
G01 X-36.38687 Y6.53387
G01 X-35.88906 Y6.39613
G01 X-35.34575 Y6.46328
G01 X-33.32549 Y6.46504
G01 X-32.91037 Y6.55843
G01 X-32.53448 Y6.59613
G01 X-31.82892 Y6.60060
G01 X-31.54558 Y6.58579
G01 X-31.19648 Y6.53611
G01 X-30.88637 Y6.45930
G01 X-27.98953 Y6.46623
G01 X-27.57866 Y6.55843
G01 X-27.20276 Y6.59613
G01 X-26.69329 Y6.58104
G01 X-26.18844 Y6.48691
G01 X-25.76855 Y6.35160
G01 X-25.34867 Y6.16041
G01 X-24.87458 Y5.88315
G01 X-24.40046 Y5.53474
G01 X-24.05479 Y5.24030
G01 X-22.95080 Y4.15074
G01 X-22.38731 Y3.54830
G01 X-21.75065 Y2.95059
G01 X-20.95081 Y2.15075
G01 X-20.37794 Y1.55054
G01 X-19.75041 Y0.95034
G01 X-18.85602 Y0.05080
G01 X-27.49436 Y0.05080
G01 X-27.60381 Y0.22281
G01 X-27.69517 Y0.43904
G01 X-27.71412 Y0.50470
G01 X-27.71831 Y0.70470
G01 X-27.73528 Y0.78090
G01 X-27.98270 Y1.27323
G01 X-28.02816 Y1.41549
G01 X-27.78440 Y1.52034
G01 X-27.31712 Y1.58006
G01 X-27.02895 Y1.55039
G01 X-20.37794 Y1.55054
G04 P0 ( dwell for no time -- G64 should not smooth over this point )
G00 Z10.00000 ( retract )

G00 X-22.38731 Y3.54830 ( rapid move to begin. )
G01 F30.00000
G01 Z-0.10000
G04 P0 ( dwell for no time -- G64 should not smooth over this point )
G01 F360.00000
G01 X-22.38731 Y3.54830
G01 X-27.44826 Y3.55067
G01 X-27.78369 Y3.52077
G01 X-27.77409 Y4.06499
G01 X-27.74846 Y4.15437
G01 X-27.51996 Y4.61935
G01 X-27.52598 Y4.81096
G01 X-27.98953 Y6.46623
G04 P0 ( dwell for no time -- G64 should not smooth over this point )
G00 Z10.00000 ( retract )

G00 X-27.78369 Y3.52077 ( rapid move to begin. )
G01 F30.00000
G01 Z-0.10000
G04 P0 ( dwell for no time -- G64 should not smooth over this point )
G01 F360.00000
G01 X-27.78369 Y3.52077
G01 X-28.02166 Y3.41805
G01 X-27.73596 Y2.65059
G01 X-27.71059 Y2.48925
G01 X-27.65725 Y2.35006
G01 X-27.77145 Y2.07891
G01 X-27.78440 Y1.52034
G04 P0 ( dwell for no time -- G64 should not smooth over this point )
G00 Z10.00000 ( retract )

G00 X-28.02166 Y3.41805 ( rapid move to begin. )
G01 F30.00000
G01 Z-0.10000
G04 P0 ( dwell for no time -- G64 should not smooth over this point )
G01 F360.00000
G01 X-28.02166 Y3.41805
G01 X-28.34945 Y3.41396
G01 X-28.58460 Y3.88536
G01 X-28.57482 Y4.05973
G01 X-28.52110 Y4.23857
G01 X-28.51358 Y4.59628
G01 X-28.46540 Y4.74348
G01 X-28.45112 Y4.84883
G01 X-28.45849 Y6.46107
G04 P0 ( dwell for no time -- G64 should not smooth over this point )
G00 Z10.00000 ( retract )

G00 X-28.34945 Y3.41396 ( rapid move to begin. )
G01 F30.00000
G01 Z-0.10000
G04 P0 ( dwell for no time -- G64 should not smooth over this point )
G01 F360.00000
G01 X-28.34945 Y3.41396
G01 X-28.44998 Y3.35824
G01 X-28.45737 Y2.78633
G01 X-28.53789 Y2.56136
G01 X-28.58143 Y2.35666
G01 X-28.56205 Y2.16009
G01 X-28.58346 Y1.98399
G01 X-28.58155 Y1.45372
G04 P0 ( dwell for no time -- G64 should not smooth over this point )
G00 Z10.00000 ( retract )

G00 X-28.44998 Y3.35824 ( rapid move to begin. )
G01 F30.00000
G01 Z-0.10000
G04 P0 ( dwell for no time -- G64 should not smooth over this point )
G01 F360.00000
G01 X-28.44998 Y3.35824
G01 X-28.91686 Y3.25526
G01 X-29.31343 Y3.30512
G01 X-29.31577 Y2.64470
G01 X-29.34452 Y2.47183
G01 X-29.32229 Y2.37764
G01 X-29.23443 Y2.25118
G01 X-29.18996 Y2.10614
G01 X-29.18353 Y1.43472
G01 X-29.05008 Y1.39929
G04 P0 ( dwell for no time -- G64 should not smooth over this point )
G00 Z10.00000 ( retract )

G00 X-29.31343 Y3.30512 ( rapid move to begin. )
G01 F30.00000
G01 Z-0.10000
G04 P0 ( dwell for no time -- G64 should not smooth over this point )
G01 F360.00000
G01 X-29.31343 Y3.30512
G01 X-29.62209 Y3.41721
G01 X-29.31724 Y4.26123
G01 X-29.31836 Y4.58026
G01 X-29.36811 Y4.74340
G01 X-29.38440 Y4.87858
G01 X-29.37523 Y6.46107
G04 P0 ( dwell for no time -- G64 should not smooth over this point )
G00 Z10.00000 ( retract )

G00 X-29.62209 Y3.41721 ( rapid move to begin. )
G01 F30.00000
G01 Z-0.10000
G04 P0 ( dwell for no time -- G64 should not smooth over this point )
G01 F360.00000
G01 X-29.62209 Y3.41721
G01 X-29.91660 Y3.38138
G01 X-29.91239 Y2.92715
G01 X-29.85021 Y2.56992
G01 X-29.87241 Y2.39469
G01 X-29.91660 Y2.35186
G01 X-29.91813 Y1.45806
G01 X-29.81703 Y1.41740
G04 P0 ( dwell for no time -- G64 should not smooth over this point )
G00 Z10.00000 ( retract )

G00 X-29.91660 Y3.38138 ( rapid move to begin. )
G01 F30.00000
G01 Z-0.10000
G04 P0 ( dwell for no time -- G64 should not smooth over this point )
G01 F360.00000
G01 X-29.91660 Y3.38138
G01 X-30.04975 Y3.41727
G01 X-30.04358 Y4.22112
G01 X-30.10091 Y4.32727
G01 X-30.11554 Y4.39753
G01 X-30.11233 Y4.59613
G01 X-30.06476 Y4.74449
G01 X-30.05000 Y4.88173
G01 X-30.04812 Y6.46161
G04 P0 ( dwell for no time -- G64 should not smooth over this point )
G00 Z10.00000 ( retract )

G00 X-30.78287 Y3.50812 ( rapid move to begin. )
G01 F30.00000
G01 Z-0.10000
G04 P0 ( dwell for no time -- G64 should not smooth over this point )
G01 F360.00000
G01 X-30.78287 Y3.50812
G01 X-31.04957 Y3.63494
G01 X-31.04957 Y3.96565
G01 X-31.19989 Y4.34246
G01 X-31.24782 Y4.64195
G01 X-31.24368 Y4.79956
G01 X-31.21934 Y4.95061
G01 X-30.88637 Y6.45930
G04 P0 ( dwell for no time -- G64 should not smooth over this point )
G00 Z10.00000 ( retract )

G00 X-31.38269 Y3.45435 ( rapid move to begin. )
G01 F30.00000
G01 Z-0.10000
G04 P0 ( dwell for no time -- G64 should not smooth over this point )
G01 F360.00000
G01 X-31.38269 Y3.45435
G01 X-31.71596 Y3.42356
G01 X-32.11581 Y3.43461
G01 X-32.18117 Y3.41765
G01 X-32.18449 Y2.83959
G01 X-32.24911 Y2.55054
G01 X-32.24492 Y2.23853
G01 X-32.19823 Y2.09146
G01 X-32.18345 Y1.98587
G01 X-32.18193 Y1.55057
G04 P0 ( dwell for no time -- G64 should not smooth over this point )
G00 Z10.00000 ( retract )

G00 X-32.18117 Y3.41765 ( rapid move to begin. )
G01 F30.00000
G01 Z-0.10000
G04 P0 ( dwell for no time -- G64 should not smooth over this point )
G01 F360.00000
G01 X-32.18117 Y3.41765
G01 X-32.58231 Y3.43065
G01 X-32.57753 Y4.03535
G01 X-32.51576 Y4.28734
G01 X-32.53125 Y4.37419
G01 X-32.60468 Y4.55150
G01 X-32.58508 Y4.64231
G01 X-32.59171 Y4.76771
G01 X-32.65373 Y4.92128
G01 X-32.81401 Y5.16573
G01 X-32.97364 Y5.46801
G01 X-33.24885 Y6.15188
G01 X-33.24883 Y4.88104
G01 X-33.26458 Y4.74038
G01 X-33.31540 Y4.55054
G01 X-33.31309 Y3.42410
G01 X-32.98175 Y3.40408
G01 X-32.58231 Y3.43065
G04 P0 ( dwell for no time -- G64 should not smooth over this point )
G00 Z10.00000 ( retract )

G00 X-33.08226 Y2.41755 ( rapid move to begin. )
G01 F30.00000
G01 Z-0.10000
G04 P0 ( dwell for no time -- G64 should not smooth over this point )
G01 F360.00000
G01 X-33.08226 Y2.41755
G01 X-35.04613 Y2.41432
G01 X-34.85048 Y2.62849
G01 X-34.67021 Y2.79301
G01 X-34.18050 Y3.17581
G01 X-33.85236 Y3.32522
G01 X-33.58439 Y3.39832
G01 X-33.31309 Y3.42410
G04 P0 ( dwell for no time -- G64 should not smooth over this point )
G00 Z10.00000 ( retract )

G00 X-30.87070 Y1.34018 ( rapid move to begin. )
G01 F30.00000
G01 Z-0.10000
G04 P0 ( dwell for no time -- G64 should not smooth over this point )
G01 F360.00000
G01 X-30.87070 Y1.34018
G01 X-31.14205 Y1.47010
G01 X-31.44683 Y1.57307
G01 X-31.43722 Y2.02796
G01 X-31.37611 Y2.23832
G01 X-31.31576 Y2.38112
G01 X-31.32069 Y2.62247
G01 X-31.37847 Y2.92715
G01 X-31.38269 Y3.45435
G01 X-31.04957 Y3.63494
G04 P0 ( dwell for no time -- G64 should not smooth over this point )
G00 Z10.00000 ( retract )

G00 X-29.91813 Y1.45806 ( rapid move to begin. )
G01 F30.00000
G01 Z-0.10000
G04 P0 ( dwell for no time -- G64 should not smooth over this point )
G01 F360.00000
G01 X-29.91813 Y1.45806
G01 X-30.29882 Y1.48219
G01 X-30.71706 Y1.41765
G01 X-30.72521 Y2.06461
G01 X-30.74855 Y2.14747
G01 X-30.84479 Y2.34221
G01 X-30.80634 Y2.46906
G01 X-30.78114 Y2.48773
G01 X-30.78287 Y3.50812
G01 X-30.41459 Y3.42628
G01 X-30.04975 Y3.41727
G04 P0 ( dwell for no time -- G64 should not smooth over this point )
G00 Z10.00000 ( retract )

G00 X-27.49436 Y0.05080 ( rapid move to begin. )
G01 F30.00000
G01 Z-0.10000
G04 P0 ( dwell for no time -- G64 should not smooth over this point )
G01 F360.00000
G01 X-27.49436 Y0.05080
G01 X-28.24955 Y0.05080
G01 X-28.25659 Y0.24923
G01 X-28.28267 Y0.29233
G01 X-28.45026 Y0.41730
G01 X-28.44797 Y1.41671
G01 X-28.02816 Y1.41549
G04 P0 ( dwell for no time -- G64 should not smooth over this point )
G00 Z10.00000 ( retract )

G00 X-28.24955 Y0.05080 ( rapid move to begin. )
G01 F30.00000
G01 Z-0.10000
G04 P0 ( dwell for no time -- G64 should not smooth over this point )
G01 F360.00000
G01 X-28.24955 Y0.05080
G01 X-29.11615 Y0.05080
G01 X-29.10698 Y0.23647
G01 X-29.04983 Y0.38113
G01 X-29.05008 Y1.39929
G01 X-28.58155 Y1.45372
G01 X-28.44797 Y1.41671
G04 P0 ( dwell for no time -- G64 should not smooth over this point )
G00 Z10.00000 ( retract )

G00 X-29.11615 Y0.05080 ( rapid move to begin. )
G01 F30.00000
G01 Z-0.10000
G04 P0 ( dwell for no time -- G64 should not smooth over this point )
G01 F360.00000
G01 X-29.11615 Y0.05080
G01 X-30.10093 Y0.05080
G01 X-30.05463 Y0.22553
G01 X-30.04985 Y0.49703
G01 X-29.93862 Y0.71989
G01 X-29.91914 Y0.83368
G01 X-29.91696 Y1.01681
G01 X-29.81703 Y1.41740
G01 X-29.45483 Y1.41704
G01 X-29.18353 Y1.43472
G04 P0 ( dwell for no time -- G64 should not smooth over this point )
G00 Z10.00000 ( retract )

G00 X-30.10093 Y0.05080 ( rapid move to begin. )
G01 F30.00000
G01 Z-0.10000
G04 P0 ( dwell for no time -- G64 should not smooth over this point )
G01 F360.00000
G01 X-30.10093 Y0.05080
G01 X-30.98241 Y0.05080
G01 X-30.98185 Y0.19190
G01 X-30.95272 Y0.41712
G01 X-30.97710 Y0.56825
G01 X-30.98132 Y0.72591
G01 X-30.95785 Y0.92855
G01 X-30.87070 Y1.34018
G01 X-30.71706 Y1.41765
G04 P0 ( dwell for no time -- G64 should not smooth over this point )
G00 Z10.00000 ( retract )

G00 X-30.98241 Y0.05080 ( rapid move to begin. )
G01 F30.00000
G01 Z-0.10000
G04 P0 ( dwell for no time -- G64 should not smooth over this point )
G01 F360.00000
G01 X-30.98241 Y0.05080
G01 X-32.24939 Y0.05080
G01 X-32.25058 Y0.31763
G01 X-32.33758 Y0.55159
G01 X-32.31820 Y0.64226
G01 X-32.32506 Y0.76777
G01 X-32.43130 Y1.10155
G01 X-32.55884 Y1.42705
G01 X-32.18193 Y1.55057
G01 X-31.70659 Y1.54993
G01 X-31.44683 Y1.57307
G04 P0 ( dwell for no time -- G64 should not smooth over this point )
G00 Z10.00000 ( retract )

G00 X-32.24939 Y0.05080 ( rapid move to begin. )
G01 F30.00000
G01 Z-0.10000
G04 P0 ( dwell for no time -- G64 should not smooth over this point )
G01 F360.00000
G01 X-32.24939 Y0.05080
G01 X-33.16671 Y0.05080
G01 X-33.11667 Y0.25479
G01 X-33.11550 Y0.49710
G01 X-33.00344 Y0.72012
G01 X-32.98444 Y0.83388
G01 X-32.98127 Y1.01803
G01 X-32.88340 Y1.41422
G01 X-32.65109 Y1.44097
G01 X-32.55884 Y1.42705
G04 P0 ( dwell for no time -- G64 should not smooth over this point )
G00 Z10.00000 ( retract )

G00 X-32.88340 Y1.41422 ( rapid move to begin. )
G01 F30.00000
G01 Z-0.10000
G04 P0 ( dwell for no time -- G64 should not smooth over this point )
G01 F360.00000
G01 X-32.88340 Y1.41422
G01 X-33.05162 Y1.46472
G01 X-33.04908 Y2.28902
G01 X-33.08226 Y2.41755
G01 X-32.98741 Y2.80060
G01 X-32.98175 Y3.40408
G04 P0 ( dwell for no time -- G64 should not smooth over this point )
G00 Z10.00000 ( retract )

G00 X-33.05162 Y1.46472 ( rapid move to begin. )
G01 F30.00000
G01 Z-0.10000
G04 P0 ( dwell for no time -- G64 should not smooth over this point )
G01 F360.00000
G01 X-33.05162 Y1.46472
G01 X-33.34205 Y1.48412
G01 X-33.79455 Y1.48364
G01 X-33.71360 Y1.07600
G01 X-33.69996 Y0.78438
G01 X-33.58253 Y0.45367
G01 X-33.58233 Y0.39469
G01 X-33.69884 Y0.05080
G01 X-33.16671 Y0.05080
G04 P0 ( dwell for no time -- G64 should not smooth over this point )
G00 Z10.00000 ( retract )

G00 X-33.69884 Y0.05080 ( rapid move to begin. )
G01 F30.00000
G01 Z-0.10000
G04 P0 ( dwell for no time -- G64 should not smooth over this point )
G01 F360.00000
G01 X-33.69884 Y0.05080
G01 X-34.44880 Y0.05080
G01 X-34.44311 Y0.22060
G01 X-34.54773 Y0.41687
G01 X-34.52467 Y0.47821
G01 X-34.50448 Y0.62733
G01 X-34.45911 Y0.76279
G01 X-34.44911 Y0.86106
G01 X-34.45170 Y1.84409
G01 X-34.18528 Y1.67467
G01 X-33.79455 Y1.48364
G04 P0 ( dwell for no time -- G64 should not smooth over this point )
G00 Z10.00000 ( retract )

G00 X-34.44880 Y0.05080 ( rapid move to begin. )
G01 F30.00000
G01 Z-0.10000
G04 P0 ( dwell for no time -- G64 should not smooth over this point )
G01 F360.00000
G01 X-34.44880 Y0.05080
G01 X-35.91601 Y0.05080
G01 X-35.92805 Y0.41890
G01 X-34.54773 Y0.41687
G04 P0 ( dwell for no time -- G64 should not smooth over this point )
G00 Z10.00000 ( retract )

G00 X-34.45170 Y1.84409 ( rapid move to begin. )
G01 F30.00000
G01 Z-0.10000
G04 P0 ( dwell for no time -- G64 should not smooth over this point )
G01 F360.00000
G01 X-34.45170 Y1.84409
G01 X-35.05441 Y2.40657
G01 X-35.04613 Y2.41432
G04 P0 ( dwell for no time -- G64 should not smooth over this point )
G00 Z10.00000 ( retract )

G00 X-35.86897 Y1.55075 ( rapid move to begin. )
G01 F30.00000
G01 Z-0.10000
G04 P0 ( dwell for no time -- G64 should not smooth over this point )
G01 F360.00000
G01 X-35.86897 Y1.55075
G01 X-37.23363 Y1.55006
G01 X-37.51730 Y1.50571
G01 X-37.51481 Y1.20907
G01 X-37.45093 Y0.84041
G01 X-37.46724 Y0.55065
G01 X-37.45141 Y0.38156
G01 X-37.56650 Y0.05080
G01 X-35.91601 Y0.05080
G04 P0 ( dwell for no time -- G64 should not smooth over this point )
G00 Z10.00000 ( retract )

G00 X-35.27963 Y2.38331 ( rapid move to begin. )
G01 F30.00000
G01 Z-0.10000
G04 P0 ( dwell for no time -- G64 should not smooth over this point )
G01 F360.00000
G01 X-35.27963 Y2.38331
G01 X-35.86897 Y1.55075
G01 X-35.94019 Y0.48710
G01 X-35.92805 Y0.41890
G04 P0 ( dwell for no time -- G64 should not smooth over this point )
G00 Z10.00000 ( retract )

G00 X-36.11700 Y3.48531 ( rapid move to begin. )
G01 F30.00000
G01 Z-0.10000
G04 P0 ( dwell for no time -- G64 should not smooth over this point )
G01 F360.00000
G01 X-36.11700 Y3.48531
G01 X-36.51921 Y3.48755
G01 X-37.18408 Y3.55067
G01 X-37.71516 Y3.55163
G01 X-37.71720 Y4.41703
G01 X-37.68491 Y4.55066
G01 X-37.81240 Y4.83837
G01 X-37.98390 Y5.32994
G01 X-38.22344 Y5.93786
G01 X-38.44597 Y5.03664
G01 X-38.47137 Y4.72361
G01 X-38.58362 Y4.49722
G01 X-38.58463 Y3.44665
G01 X-38.15217 Y3.53883
G01 X-37.71516 Y3.55163
G04 P0 ( dwell for no time -- G64 should not smooth over this point )
G00 Z10.00000 ( retract )

G00 X-34.94735 Y4.41759 ( rapid move to begin. )
G01 F30.00000
G01 Z-0.10000
G04 P0 ( dwell for no time -- G64 should not smooth over this point )
G01 F360.00000
G01 X-34.94735 Y4.41759
G01 X-36.11105 Y4.42059
G01 X-36.11700 Y3.48531
G01 X-35.64720 Y2.82705
G01 X-35.47750 Y2.60515
G01 X-35.27963 Y2.38331
G01 X-35.05441 Y2.40657
G04 P0 ( dwell for no time -- G64 should not smooth over this point )
G00 Z10.00000 ( retract )

G00 X-33.24885 Y6.15188 ( rapid move to begin. )
G01 F30.00000
G01 Z-0.10000
G04 P0 ( dwell for no time -- G64 should not smooth over this point )
G01 F360.00000
G01 X-33.24885 Y6.15188
G01 X-33.28228 Y6.28673
G01 X-33.29635 Y6.34429
G01 X-33.32549 Y6.46504
G04 P0 ( dwell for no time -- G64 should not smooth over this point )
G00 Z10.00000 ( retract )

G00 X-34.11510 Y6.45729 ( rapid move to begin. )
G01 F30.00000
G01 Z-0.10000
G04 P0 ( dwell for no time -- G64 should not smooth over this point )
G01 F360.00000
G01 X-34.11510 Y6.45729
G01 X-34.11512 Y4.28432
G01 X-34.18040 Y3.98094
G01 X-34.18050 Y3.17581
G04 P0 ( dwell for no time -- G64 should not smooth over this point )
G00 Z10.00000 ( retract )

G00 X-34.84880 Y6.46148 ( rapid move to begin. )
G01 F30.00000
G01 Z-0.10000
G04 P0 ( dwell for no time -- G64 should not smooth over this point )
G01 F360.00000
G01 X-34.84880 Y6.46148
G01 X-34.85040 Y4.83090
G01 X-34.94735 Y4.41759
G01 X-34.84265 Y4.22087
G01 X-34.85048 Y2.62849
G04 P0 ( dwell for no time -- G64 should not smooth over this point )
G00 Z10.00000 ( retract )

G00 X-35.88906 Y6.39613 ( rapid move to begin. )
G01 F30.00000
G01 Z-0.10000
G04 P0 ( dwell for no time -- G64 should not smooth over this point )
G01 F360.00000
G01 X-35.88906 Y6.39613
G01 X-36.09688 Y4.95061
G01 X-36.11512 Y4.71396
G01 X-36.11105 Y4.42059
G04 P0 ( dwell for no time -- G64 should not smooth over this point )
G00 Z10.00000 ( retract )

G00 X-38.22344 Y5.93786 ( rapid move to begin. )
G01 F30.00000
G01 Z-0.10000
G04 P0 ( dwell for no time -- G64 should not smooth over this point )
G01 F360.00000
G01 X-38.22344 Y5.93786
G01 X-38.27788 Y6.49674
G04 P0 ( dwell for no time -- G64 should not smooth over this point )
G00 Z10.00000 ( retract )

G00 X-40.12588 Y6.46730 ( rapid move to begin. )
G01 F30.00000
G01 Z-0.10000
G04 P0 ( dwell for no time -- G64 should not smooth over this point )
G01 F360.00000
G01 X-40.12588 Y6.46730
G01 X-39.85153 Y5.08546
G01 X-39.83418 Y4.78732
G01 X-39.71658 Y4.45402
G01 X-39.71658 Y4.39453
G01 X-39.80277 Y4.16004
G01 X-39.84247 Y3.99552
G01 X-39.84973 Y3.55077
G01 X-40.58247 Y3.55069
G01 X-40.58399 Y3.98587
G01 X-40.59878 Y4.09146
G01 X-40.64546 Y4.23852
G01 X-40.64965 Y4.55054
G01 X-40.59944 Y4.74025
G01 X-40.58295 Y4.88394
G01 X-40.58161 Y6.46143
G04 P0 ( dwell for no time -- G64 should not smooth over this point )
G00 Z10.00000 ( retract )

G00 X-38.64044 Y3.40314 ( rapid move to begin. )
G01 F30.00000
G01 Z-0.10000
G04 P0 ( dwell for no time -- G64 should not smooth over this point )
G01 F360.00000
G01 X-38.64044 Y3.40314
G01 X-39.24988 Y3.59484
G01 X-39.23345 Y4.01290
G01 X-39.16644 Y4.28409
G01 X-39.11674 Y4.41960
G01 X-39.11674 Y6.51759
G04 P0 ( dwell for no time -- G64 should not smooth over this point )
G00 Z10.00000 ( retract )

G00 X-38.58517 Y2.88628 ( rapid move to begin. )
G01 F30.00000
G01 Z-0.10000
G04 P0 ( dwell for no time -- G64 should not smooth over this point )
G01 F360.00000
G01 X-38.58517 Y2.88628
G01 X-38.81062 Y2.61986
G01 X-38.87864 Y2.48481
G01 X-38.90945 Y2.37033
G01 X-38.92202 Y2.21239
G01 X-38.97462 Y1.96634
G01 X-38.98351 Y1.50635
G01 X-38.83802 Y1.41361
G04 P0 ( dwell for no time -- G64 should not smooth over this point )
G00 Z10.00000 ( retract )

G00 X-38.98351 Y1.50635 ( rapid move to begin. )
G01 F30.00000
G01 Z-0.10000
G04 P0 ( dwell for no time -- G64 should not smooth over this point )
G01 F360.00000
G01 X-38.98351 Y1.50635
G01 X-39.35174 Y1.54650
G01 X-39.78323 Y1.56512
G01 X-39.79631 Y2.08384
G01 X-39.98943 Y2.54409
G01 X-39.89078 Y2.67020
G01 X-39.85357 Y2.77459
G01 X-39.84973 Y3.55077
G01 X-39.58336 Y3.55143
G01 X-39.24988 Y3.59484
G04 P0 ( dwell for no time -- G64 should not smooth over this point )
G00 Z10.00000 ( retract )

G00 X-38.31590 Y1.55080 ( rapid move to begin. )
G01 F30.00000
G01 Z-0.10000
G04 P0 ( dwell for no time -- G64 should not smooth over this point )
G01 F360.00000
G01 X-38.31590 Y1.55080
G01 X-38.31565 Y2.18234
G01 X-38.26129 Y2.38750
G01 X-38.28867 Y2.48493
G01 X-38.35669 Y2.62019
G01 X-38.58517 Y2.88628
G01 X-38.64044 Y3.40314
G01 X-38.58463 Y3.44665
G04 P0 ( dwell for no time -- G64 should not smooth over this point )
G00 Z10.00000 ( retract )

G00 X-37.51730 Y1.50571 ( rapid move to begin. )
G01 F30.00000
G01 Z-0.10000
G04 P0 ( dwell for no time -- G64 should not smooth over this point )
G01 F360.00000
G01 X-37.51730 Y1.50571
G01 X-37.65009 Y1.55072
G01 X-37.66030 Y2.06499
G01 X-37.68385 Y2.14739
G01 X-37.78306 Y2.33947
G01 X-37.78357 Y2.62913
G01 X-37.74206 Y2.70266
G01 X-37.71783 Y2.80325
G01 X-37.71732 Y3.55067
G04 P0 ( dwell for no time -- G64 should not smooth over this point )
G00 Z10.00000 ( retract )

G00 X-37.56650 Y0.05080 ( rapid move to begin. )
G01 F30.00000
G01 Z-0.10000
G04 P0 ( dwell for no time -- G64 should not smooth over this point )
G01 F360.00000
G01 X-37.56650 Y0.05080
G01 X-38.32558 Y0.05080
G01 X-38.35725 Y0.16320
G01 X-38.47089 Y0.41595
G01 X-38.50764 Y0.55113
G01 X-38.57193 Y0.66159
G01 X-38.65992 Y0.87907
G01 X-38.76035 Y1.39187
G01 X-38.31590 Y1.55080
G01 X-37.65009 Y1.55072
G04 P0 ( dwell for no time -- G64 should not smooth over this point )
G00 Z10.00000 ( retract )

G00 X-38.32558 Y0.05080 ( rapid move to begin. )
G01 F30.00000
G01 Z-0.10000
G04 P0 ( dwell for no time -- G64 should not smooth over this point )
G01 F360.00000
G01 X-38.32558 Y0.05080
G01 X-38.99017 Y0.05080
G01 X-39.02591 Y0.24580
G01 X-39.17038 Y0.60000
G01 X-39.18306 Y0.67008
G01 X-39.17008 Y0.76830
G01 X-39.00968 Y1.09977
G01 X-38.83802 Y1.41361
G01 X-38.76035 Y1.39187
G04 P0 ( dwell for no time -- G64 should not smooth over this point )
G00 Z10.00000 ( retract )

G00 X-38.99017 Y0.05080 ( rapid move to begin. )
G01 F30.00000
G01 Z-0.10000
G04 P0 ( dwell for no time -- G64 should not smooth over this point )
G01 F360.00000
G01 X-38.99017 Y0.05080
G01 X-39.92377 Y0.05080
G01 X-39.94363 Y0.13129
G01 X-40.12306 Y0.54356
G01 X-40.02395 Y0.67023
G01 X-39.98676 Y0.77467
G01 X-39.98323 Y1.52090
G01 X-39.78323 Y1.56512
G04 P0 ( dwell for no time -- G64 should not smooth over this point )
G00 Z10.00000 ( retract )

G00 X-39.92377 Y0.05080 ( rapid move to begin. )
G01 F30.00000
G01 Z-0.10000
G04 P0 ( dwell for no time -- G64 should not smooth over this point )
G01 F360.00000
G01 X-39.92377 Y0.05080
G01 X-40.78252 Y0.05080
G01 X-40.77155 Y0.40678
G01 X-40.91056 Y0.55557
G01 X-41.03708 Y0.81727
G01 X-41.10218 Y1.06225
G01 X-41.18277 Y1.55148
G01 X-40.24986 Y1.55108
G01 X-39.98323 Y1.52090
G04 P0 ( dwell for no time -- G64 should not smooth over this point )
G00 Z10.00000 ( retract )

G00 X-40.78252 Y0.05080 ( rapid move to begin. )
G01 F30.00000
G01 Z-0.10000
G04 P0 ( dwell for no time -- G64 should not smooth over this point )
G01 F360.00000
G01 X-40.78252 Y0.05080
G01 X-41.35298 Y0.05080
G01 X-41.39326 Y0.17026
G01 X-41.45603 Y0.27958
G01 X-41.69247 Y0.53137
G01 X-41.38171 Y1.15214
G01 X-41.18277 Y1.49946
G04 P0 ( dwell for no time -- G64 should not smooth over this point )
G00 Z10.00000 ( retract )

G00 X-41.35298 Y0.05080 ( rapid move to begin. )
G01 F30.00000
G01 Z-0.10000
G04 P0 ( dwell for no time -- G64 should not smooth over this point )
G01 F360.00000
G01 X-41.35298 Y0.05080
G01 X-42.44104 Y0.05080
G01 X-42.40538 Y0.17333
G01 X-42.28008 Y0.38306
G01 X-42.36707 Y0.59370
G01 X-42.38272 Y0.68390
G01 X-42.38231 Y2.53870
G01 X-42.12234 Y2.56182
G04 P0 ( dwell for no time -- G64 should not smooth over this point )
G00 Z10.00000 ( retract )

G00 X-42.44104 Y0.05080 ( rapid move to begin. )
G01 F30.00000
G01 Z-0.10000
G04 P0 ( dwell for no time -- G64 should not smooth over this point )
G01 F360.00000
G01 X-42.44104 Y0.05080
G01 X-43.12323 Y0.05080
G01 X-43.14876 Y0.14740
G01 X-43.24800 Y0.33937
G01 X-43.24848 Y0.62921
G01 X-43.20692 Y0.70292
G01 X-43.18224 Y0.81392
G01 X-43.18218 Y2.54183
G01 X-43.11505 Y2.55034
G04 P0 ( dwell for no time -- G64 should not smooth over this point )
G00 Z10.00000 ( retract )

G00 X-43.12323 Y0.05080 ( rapid move to begin. )
G01 F30.00000
G01 Z-0.10000
G04 P0 ( dwell for no time -- G64 should not smooth over this point )
G01 F360.00000
G01 X-43.12323 Y0.05080
G01 X-43.83115 Y0.05080
G01 X-43.71607 Y0.38156
G01 X-43.73189 Y0.55065
G01 X-43.71558 Y0.84041
G01 X-43.78079 Y1.23546
G01 X-43.78549 Y2.43467
G01 X-43.36115 Y2.55008
G01 X-43.18218 Y2.54183
G04 P0 ( dwell for no time -- G64 should not smooth over this point )
G00 Z10.00000 ( retract )

G00 X-43.83115 Y0.05080 ( rapid move to begin. )
G01 F30.00000
G01 Z-0.10000
G04 P0 ( dwell for no time -- G64 should not smooth over this point )
G01 F360.00000
G01 X-43.83115 Y0.05080
G01 X-52.54513 Y0.05080
G01 X-50.76759 Y0.65837
G01 X-46.34796 Y2.06708
G01 X-45.31736 Y2.41628
G04 P0 ( dwell for no time -- G64 should not smooth over this point )
G00 Z10.00000 ( retract )

G00 X-41.18277 Y1.55148 ( rapid move to begin. )
G01 F30.00000
G01 Z-0.10000
G04 P0 ( dwell for no time -- G64 should not smooth over this point )
G01 F360.00000
G01 X-41.18277 Y1.55148
G01 X-41.95780 Y2.41648
G01 X-42.12234 Y2.56182
G01 X-41.84866 Y2.92486
G04 P0 ( dwell for no time -- G64 should not smooth over this point )
G00 Z10.00000 ( retract )

G00 X-40.58247 Y3.55069 ( rapid move to begin. )
G01 F30.00000
G01 Z-0.10000
G04 P0 ( dwell for no time -- G64 should not smooth over this point )
G01 F360.00000
G01 X-40.58247 Y3.55069
G01 X-40.91783 Y3.43957
G01 X-41.18666 Y3.32257
G01 X-41.84866 Y2.92486
G01 X-41.84122 Y4.67500
G01 X-41.81315 Y4.82735
G01 X-41.69941 Y5.19240
G01 X-41.41930 Y6.45935
G04 P0 ( dwell for no time -- G64 should not smooth over this point )
G00 Z10.00000 ( retract )

G00 X-42.38231 Y2.53870 ( rapid move to begin. )
G01 F30.00000
G01 Z-0.10000
G04 P0 ( dwell for no time -- G64 should not smooth over this point )
G01 F360.00000
G01 X-42.38231 Y2.53870
G01 X-43.11505 Y2.55034
G01 X-43.11226 Y4.01325
G01 X-43.08005 Y4.15437
G01 X-42.85153 Y4.61922
G01 X-42.85755 Y4.81091
G01 X-43.32122 Y6.46623
G04 P0 ( dwell for no time -- G64 should not smooth over this point )
G00 Z10.00000 ( retract )

G00 X-43.36115 Y2.55008 ( rapid move to begin. )
G01 F30.00000
G01 Z-0.10000
G04 P0 ( dwell for no time -- G64 should not smooth over this point )
G01 F360.00000
G01 X-43.36115 Y2.55008
G01 X-43.56298 Y3.13698
G01 X-43.71254 Y3.47772
G01 X-43.91617 Y3.88529
G01 X-43.90639 Y4.05968
G01 X-43.85267 Y4.23855
G01 X-43.84515 Y4.59626
G01 X-43.79702 Y4.74350
G01 X-43.78282 Y4.84886
G01 X-43.79021 Y6.46107
G04 P0 ( dwell for no time -- G64 should not smooth over this point )
G00 Z10.00000 ( retract )

G00 X-43.78549 Y2.43467 ( rapid move to begin. )
G01 F30.00000
G01 Z-0.10000
G04 P0 ( dwell for no time -- G64 should not smooth over this point )
G01 F360.00000
G01 X-43.78549 Y2.43467
G01 X-44.20834 Y2.41836
G01 X-45.31736 Y2.41628
G01 X-45.05335 Y3.17332
G01 X-44.85122 Y3.67624
G01 X-44.65188 Y4.23847
G01 X-44.64992 Y4.58023
G01 X-44.69963 Y4.74342
G01 X-44.71584 Y4.87858
G01 X-44.70664 Y6.46107
G04 P0 ( dwell for no time -- G64 should not smooth over this point )
G00 Z10.00000 ( retract )

G00 X-52.54513 Y0.05080 ( rapid move to begin. )
G01 F30.00000
G01 Z-0.10000
G04 P0 ( dwell for no time -- G64 should not smooth over this point )
G01 F360.00000
G01 X-52.54513 Y0.05080
G01 X-52.74391 Y0.05080
G04 P0 ( dwell for no time -- G64 should not smooth over this point )
G00 Z10.00000 ( retract )

G00 X-45.37969 Y6.46161 ( rapid move to begin. )
G01 F30.00000
G01 Z-0.10000
G04 P0 ( dwell for no time -- G64 should not smooth over this point )
G01 F360.00000
G01 X-45.37969 Y6.46161
G01 X-45.38157 Y4.88160
G01 X-45.39630 Y4.74447
G01 X-45.44807 Y4.55013
G01 X-45.43798 Y4.34533
G01 X-45.37512 Y4.22123
G01 X-45.38904 Y2.39809
G04 P0 ( dwell for no time -- G64 should not smooth over this point )
G00 Z10.00000 ( retract )

G00 X-55.04998 Y38.63073 ( rapid move to begin. )
G01 F30.00000
G01 Z-0.10000
G04 P0 ( dwell for no time -- G64 should not smooth over this point )
G01 F360.00000
G01 X-55.04998 Y38.63073
G01 X-55.08142 Y38.40310
G01 X-55.16971 Y38.19147
G01 X-55.30901 Y38.00894
G01 X-55.50281 Y37.86221
G01 X-55.70317 Y37.78136
G01 X-55.93077 Y37.75197
G01 X-56.03565 Y37.76025
G01 X-56.18945 Y37.79098
G01 X-56.35879 Y37.86221
G01 X-56.52867 Y37.98687
G01 X-56.69186 Y38.19147
G01 X-56.78015 Y38.40310
G01 X-56.81160 Y38.63073
G01 X-56.77182 Y38.91681
G01 X-56.81696 Y38.97671
G01 X-63.18016 Y45.33991
G01 X-63.21024 Y45.36580
G01 X-63.27343 Y45.37367
G01 X-64.30086 Y45.37367
G01 X-64.40607 Y45.39544
G01 X-64.42786 Y45.50067
G01 X-64.42786 Y47.00080
G01 X-64.40607 Y47.10600
G01 X-64.30086 Y47.12780
G01 X-62.80074 Y47.12780
G01 X-62.69551 Y47.10600
G01 X-62.67374 Y47.00080
G01 X-62.67374 Y45.97337
G01 X-62.66586 Y45.91017
G01 X-62.63998 Y45.88010
G01 X-56.27677 Y39.51689
G01 X-56.21978 Y39.47343
G01 X-55.93080 Y39.50947
G01 X-55.70317 Y39.48008
G01 X-55.49052 Y39.39357
G01 X-55.30901 Y39.25250
G01 X-55.16971 Y39.06998
G01 X-55.12450 Y38.97513
G01 X-55.07424 Y38.82659
G01 X-55.04998 Y38.63073
G04 P0 ( dwell for no time -- G64 should not smooth over this point )
G00 Z10.00000 ( retract )

G00 X-27.10998 Y41.17073 ( rapid move to begin. )
G01 F30.00000
G01 Z-0.10000
G04 P0 ( dwell for no time -- G64 should not smooth over this point )
G01 F360.00000
G01 X-27.10998 Y41.17073
G01 X-27.13424 Y40.97485
G01 X-27.18450 Y40.82631
G01 X-27.22971 Y40.73147
G01 X-27.36901 Y40.54894
G01 X-27.55052 Y40.40787
G01 X-27.70688 Y40.34031
G01 X-27.99080 Y40.29197
G01 X-28.27470 Y40.34031
G01 X-28.43106 Y40.40787
G01 X-28.61257 Y40.54894
G01 X-28.75186 Y40.73147
G01 X-28.79707 Y40.82631
G01 X-28.84734 Y40.97485
G01 X-28.87160 Y41.17073
G01 X-28.84734 Y41.36659
G01 X-28.79707 Y41.51513
G01 X-28.75186 Y41.60998
G01 X-28.61257 Y41.79250
G01 X-28.43106 Y41.93357
G01 X-28.27470 Y42.00114
G01 X-27.99077 Y42.04947
G01 X-27.70688 Y42.00114
G01 X-27.55052 Y41.93357
G01 X-27.36901 Y41.79250
G01 X-27.22971 Y41.60998
G01 X-27.18450 Y41.51513
G01 X-27.13424 Y41.36659
G01 X-27.10998 Y41.17073
G04 P0 ( dwell for no time -- G64 should not smooth over this point )
G00 Z10.00000 ( retract )

G00 X-6.79371 Y42.96067 ( rapid move to begin. )
G01 F30.00000
G01 Z-0.10000
G04 P0 ( dwell for no time -- G64 should not smooth over this point )
G01 F360.00000
G01 X-6.79371 Y42.96067
G01 X-6.79371 Y44.46080
G01 X-6.81551 Y44.56598
G01 X-6.92074 Y44.58780
G01 X-8.42086 Y44.58780
G01 X-8.52607 Y44.56600
G01 X-8.54786 Y44.46080
G01 X-8.54786 Y42.96067
G01 X-8.52607 Y42.85544
G01 X-8.42086 Y42.83367
G01 X-6.92074 Y42.83367
G01 X-6.81551 Y42.85546
G01 X-6.79371 Y42.96067
G04 P0 ( dwell for no time -- G64 should not smooth over this point )
G00 Z10.00000 ( retract )

G00 X-6.78995 Y41.17073 ( rapid move to begin. )
G01 F30.00000
G01 Z-0.10000
G04 P0 ( dwell for no time -- G64 should not smooth over this point )
G01 F360.00000
G01 X-6.78995 Y41.17073
G01 X-6.81424 Y40.97485
G01 X-6.86450 Y40.82631
G01 X-6.90971 Y40.73147
G01 X-7.04901 Y40.54894
G01 X-7.23052 Y40.40787
G01 X-7.38688 Y40.34031
G01 X-7.67077 Y40.29197
G01 X-7.95470 Y40.34031
G01 X-8.11106 Y40.40787
G01 X-8.29257 Y40.54894
G01 X-8.43186 Y40.73147
G01 X-8.47707 Y40.82631
G01 X-8.52734 Y40.97485
G01 X-8.55160 Y41.17073
G01 X-8.52734 Y41.36659
G01 X-8.47707 Y41.51513
G01 X-8.43186 Y41.60998
G01 X-8.29257 Y41.79250
G01 X-8.11106 Y41.93357
G01 X-7.95470 Y42.00114
G01 X-7.67077 Y42.04947
G01 X-7.38688 Y42.00114
G01 X-7.23052 Y41.93357
G01 X-7.04901 Y41.79250
G01 X-6.90971 Y41.60998
G01 X-6.86450 Y41.51513
G01 X-6.81424 Y41.36659
G01 X-6.78995 Y41.17073

G04 P0 ( dwell for no time -- G64 should not smooth over this point )
G00 Z50.000 ( retract )

M5 ( Spindle off. )
G04 P1.000000
M9 ( Coolant off. )
M2 ( Program end. )

