( pcb2gcode 2.0.0 )
( Software-independent Gcode )

G94 ( Millimeters per minute feed rate. )
G21 ( Units == Millimeters. )

G90 ( Absolute coordinates. )
G00 S10000 ( RPM spindle speed. )
G01 F360.00000 ( Feedrate. )


G00 Z50.00000 (Retract to tool change height)
T0
M5      (Spindle stop.)
G04 P1.00000 (Wait for spindle to stop)
(MSG, Change tool bit to mill diameter 0.50800mm)
M6      (Tool change.)
M0      (Temporary machine stop.)
M3 ( Spindle on clockwise. )
G04 P1.00000 (Wait for spindle to get up to speed)
G04 P0 ( dwell for no time -- G64 should not smooth over this point )
G00 Z10.00000 ( retract )

G00 X-18.59384 Y-0.25400 ( rapid move to begin. )
G01 F30.00000
( Mill infeed pass 1/1 )
G01 Z-0.10000
G04 P0 ( dwell for no time -- G64 should not smooth over this point )
G01 F360.00000
G01 X-18.59384 Y-0.25400
G01 X0.25400 Y-0.25400
G01 X0.25400 Y50.00993
G01 X-72.38997 Y50.00993
G01 X-72.38997 Y-0.25400
G01 X-53.86822 Y-0.25400
G01 X-53.24544 Y0.42743
G01 X-52.63083 Y1.54490
G01 X-52.04651 Y2.51450
G01 X-51.50373 Y3.32788
G01 X-50.96096 Y4.05704
G01 X-50.41819 Y4.70197
G01 X-49.85657 Y5.28660
G01 X-49.33650 Y5.74678
G01 X-48.91689 Y6.06339
G01 X-48.47661 Y6.34086
G01 X-48.04664 Y6.56201
G01 X-47.61664 Y6.72879
G01 X-47.29538 Y6.82150
G01 X-47.01565 Y6.87756
G01 X-46.72828 Y6.91269
G01 X-46.46181 Y6.92341
G01 X-45.83689 Y6.91881
G01 X-45.83877 Y5.33883
G01 X-45.84400 Y5.25666
G01 X-45.85350 Y5.20167
G01 X-45.89518 Y5.07990
G01 X-45.90527 Y5.00733
G01 X-45.90430 Y4.85473
G01 X-45.89518 Y4.80253
G01 X-45.87354 Y4.74561
G01 X-45.83232 Y4.67853
G01 X-45.83859 Y4.59758
G01 X-45.83666 Y4.11274
G01 X-45.84624 Y2.85529
G01 X-45.77456 Y2.87348
G01 X-45.66056 Y3.21955
G01 X-45.51055 Y3.63052
G01 X-45.35289 Y4.01574
G01 X-45.30842 Y4.13344
G01 X-45.20476 Y4.44282
G01 X-45.12036 Y4.65117
G01 X-45.10728 Y4.70797
G01 X-45.10499 Y4.74152
G01 X-45.10712 Y5.03743
G01 X-45.11266 Y5.06857
G01 X-45.15683 Y5.20062
G01 X-45.16625 Y5.25031
G01 X-45.17304 Y5.33578
G01 X-45.17029 Y5.49755
G01 X-45.17438 Y6.23448
G01 X-45.16562 Y6.91817
G01 X-45.38322 Y6.92447
G01 X-45.66940 Y6.92353
G01 X-45.83689 Y6.91881
G01 X-45.66940 Y6.92353
G01 X-45.38322 Y6.92447
G01 X-45.16562 Y6.91817
G01 X-44.70563 Y6.91449
G01 X-44.24741 Y6.91827
G01 X-44.05739 Y6.92353
G01 X-43.77842 Y6.92343
G01 X-43.70189 Y6.94413
G01 X-43.36755 Y7.01566
G01 X-42.99166 Y7.05333
G01 X-42.48219 Y7.03824
G01 X-41.97734 Y6.94413
G01 X-41.87650 Y6.91655
G01 X-42.15508 Y5.65622
G01 X-42.19113 Y5.52442
G01 X-42.26248 Y5.31106
G01 X-42.29842 Y5.13220
G01 X-42.30649 Y5.00774
G01 X-42.30779 Y3.38112
G01 X-41.63997 Y3.78203
G01 X-41.55209 Y3.81645
G01 X-41.37180 Y3.89816
G01 X-41.03967 Y4.00789
G01 X-41.04058 Y4.43738
G01 X-41.04516 Y4.49204
G01 X-41.05526 Y4.54741
G01 X-41.09306 Y4.65585
G01 X-41.10452 Y4.70814
G01 X-41.10683 Y5.00753
G01 X-41.09674 Y5.07995
G01 X-41.05598 Y5.19760
G01 X-41.04673 Y5.24688
G01 X-41.04015 Y5.33880
G01 X-41.04015 Y6.91871
G01 X-40.87084 Y6.92353
G01 X-40.58315 Y6.92447
G01 X-40.10777 Y6.98431
G01 X-40.06621 Y6.98647
G01 X-39.57394 Y6.97479
G01 X-39.57731 Y6.35612
G01 X-39.57201 Y5.89036
G01 X-39.57526 Y5.67411
G01 X-39.57394 Y4.87680
G01 X-39.60322 Y4.80713
G01 X-39.62364 Y4.74129
G01 X-39.69065 Y4.47010
G01 X-39.69873 Y4.41937
G01 X-39.70757 Y4.24500
G01 X-39.70708 Y4.05211
G01 X-39.24056 Y3.89819
G01 X-39.09903 Y3.85907
G01 X-39.04224 Y3.34338
G01 X-38.94963 Y3.24935
G01 X-38.83993 Y3.11648
G01 X-38.81389 Y3.07739
G01 X-38.76197 Y2.98115
G01 X-38.74587 Y2.94213
G01 X-38.71829 Y2.84366
G01 X-38.76444 Y2.69375
G01 X-38.77285 Y2.63954
G01 X-38.77330 Y2.00792
G01 X-38.97396 Y1.94086
G01 X-39.21755 Y1.84907
G01 X-39.16009 Y1.51945
G01 X-39.13002 Y1.37866
G01 X-39.11712 Y1.33627
G01 X-39.09350 Y1.27084
G01 X-39.02913 Y1.11879
G01 X-38.98969 Y1.04534
G01 X-38.96484 Y1.00833
G01 X-38.95098 Y0.94313
G01 X-38.92809 Y0.87315
G01 X-38.85806 Y0.70820
G01 X-38.81107 Y0.61280
G01 X-38.78727 Y0.53640
G01 X-38.77681 Y0.46731
G01 X-38.77485 Y0.40731
G01 X-38.77470 Y-0.25400
G01 X-39.44097 Y-0.25400
G01 X-39.44021 Y0.42088
G01 X-39.45110 Y0.56424
G01 X-39.47244 Y0.66698
G01 X-39.48471 Y0.70630
G01 X-39.62176 Y1.04206
G01 X-39.63708 Y1.09954
G01 X-39.63998 Y1.15512
G01 X-39.62560 Y1.23033
G01 X-39.59987 Y1.28918
G01 X-39.47427 Y1.54297
G01 X-39.29586 Y1.87099
G01 X-39.21755 Y1.84907
G01 X-39.29586 Y1.87099
G01 X-39.44036 Y1.96332
G01 X-39.43942 Y2.30370
G01 X-39.42613 Y2.45486
G01 X-39.37851 Y2.67437
G01 X-39.37320 Y2.76294
G01 X-39.35882 Y2.86652
G01 X-39.33571 Y2.94188
G01 X-39.31956 Y2.98084
G01 X-39.26769 Y3.07673
G01 X-39.24163 Y3.11574
G01 X-39.16378 Y3.21457
G01 X-39.04224 Y3.34338
G01 X-39.09903 Y3.85907
G01 X-39.04099 Y3.90398
G01 X-39.04061 Y4.95430
G01 X-39.00785 Y5.00731
G01 X-38.95435 Y5.11315
G01 X-38.92786 Y5.18089
G01 X-38.91077 Y5.27868
G01 X-38.90714 Y5.47416
G01 X-38.90317 Y5.49384
G01 X-38.67940 Y6.38630
G01 X-38.73508 Y6.95396
G01 X-38.67940 Y6.38630
G01 X-38.55270 Y6.05125
G01 X-38.44478 Y5.79351
G01 X-38.33609 Y5.49466
G01 X-38.26218 Y5.27291
G01 X-38.19411 Y5.11371
G01 X-38.14280 Y5.00870
G01 X-38.16777 Y4.93588
G01 X-38.17485 Y4.87423
G01 X-38.17526 Y3.24670
G01 X-38.19256 Y3.17406
G01 X-38.21201 Y3.13228
G01 X-38.24046 Y3.08618
G01 X-38.24097 Y2.79611
G01 X-38.22040 Y2.76360
G01 X-38.15143 Y2.63053
G01 X-38.12804 Y2.56819
G01 X-38.11758 Y2.52225
G01 X-38.10795 Y2.41074
G01 X-38.10820 Y2.00790
G01 X-37.97557 Y1.96337
G01 X-37.97313 Y1.71183
G01 X-37.95933 Y1.56035
G01 X-37.91455 Y1.36378
G01 X-37.90800 Y1.29609
G01 X-37.90892 Y1.10823
G01 X-37.92444 Y1.00785
G01 X-37.91511 Y0.96109
G01 X-37.90853 Y0.89418
G01 X-37.90861 Y0.83866
G01 X-37.93307 Y0.79083
G01 X-37.95446 Y0.73579
G01 X-38.01105 Y0.56223
G01 X-38.02903 Y0.48517
G01 X-38.03587 Y0.43322
G01 X-38.04105 Y0.34127
G01 X-38.04061 Y-0.25400
G01 X-40.37038 Y-0.25400
G01 X-40.37594 Y0.07981
G01 X-40.37292 Y0.34564
G01 X-40.38100 Y0.50703
G01 X-40.40025 Y0.58847
G01 X-40.47383 Y0.74155
G01 X-40.58031 Y1.00081
G01 X-40.53484 Y1.05009
G01 X-40.48084 Y1.12702
G01 X-40.45326 Y1.18996
G01 X-40.44323 Y1.23149
G01 X-40.43949 Y1.32133
G01 X-40.44185 Y1.83998
G01 X-40.43893 Y1.97780
G01 X-40.24043 Y2.02248
G01 X-40.24165 Y2.43685
G01 X-40.24767 Y2.50703
G01 X-40.25659 Y2.55295
G01 X-40.28293 Y2.62748
G01 X-40.33959 Y2.74155
G01 X-40.44666 Y3.00131
G01 X-40.40177 Y3.05003
G01 X-40.34765 Y3.12699
G01 X-40.32006 Y3.18988
G01 X-40.31003 Y3.23141
G01 X-40.30627 Y3.32120
G01 X-40.30850 Y3.83990
G01 X-40.30502 Y4.00703
G01 X-40.30817 Y4.17540
G01 X-40.30660 Y4.34249
G01 X-40.29989 Y4.45262
G01 X-40.29197 Y4.50327
G01 X-40.27340 Y4.57492
G01 X-40.22573 Y4.72008
G01 X-40.17414 Y4.85188
G01 X-40.17432 Y4.91086
G01 X-40.20581 Y4.97296
G01 X-40.22037 Y5.01333
G01 X-40.27414 Y5.17573
G01 X-40.29177 Y5.24464
G01 X-40.30543 Y5.35168
G01 X-40.30698 Y5.54756
G01 X-40.58315 Y6.92447
G01 X-40.87084 Y6.92353
G01 X-41.04015 Y6.91871
G01 X-41.22069 Y6.92353
G01 X-41.65948 Y6.92353
G01 X-41.87650 Y6.91655
G01 X-41.65948 Y6.92353
G01 X-41.22069 Y6.92353
G01 X-41.04015 Y6.91871
G01 X-40.87084 Y6.92353
G01 X-40.58315 Y6.92447
G01 X-40.10777 Y6.98431
G01 X-40.06621 Y6.98647
G01 X-39.57394 Y6.97479
G01 X-39.08166 Y6.98647
G01 X-38.73508 Y6.95396
G01 X-38.38926 Y7.02254
G01 X-37.93452 Y7.05691
G01 X-37.51496 Y7.05785
G01 X-37.16414 Y7.03905
G01 X-36.69121 Y6.95658
G01 X-36.34651 Y6.85328
G01 X-36.55144 Y5.43123
G01 X-36.57270 Y5.17116
G01 X-36.57333 Y5.00774
G01 X-36.56848 Y4.87454
G01 X-36.57328 Y4.61848
G01 X-36.57420 Y3.94246
G01 X-36.57328 Y4.61848
G01 X-36.56848 Y4.87454
G01 X-35.45464 Y4.87375
G01 X-35.40455 Y4.87429
G01 X-35.40133 Y4.88160
G01 X-35.38855 Y4.91307
G01 X-35.37636 Y4.95960
G01 X-35.37110 Y5.03065
G01 X-35.36206 Y5.07990
G01 X-35.32162 Y5.19613
G01 X-35.31271 Y5.24205
G01 X-35.30669 Y5.31223
G01 X-35.30547 Y6.91871
G01 X-35.30669 Y5.31223
G01 X-35.31271 Y5.24205
G01 X-35.32162 Y5.19613
G01 X-35.36206 Y5.07990
G01 X-35.37110 Y5.03065
G01 X-35.37636 Y4.95960
G01 X-35.38855 Y4.91307
G01 X-35.40455 Y4.87429
G01 X-35.33813 Y4.74035
G01 X-35.29968 Y4.67832
G01 X-35.30595 Y4.58574
G01 X-35.30318 Y4.11350
G01 X-35.30712 Y3.85641
G01 X-35.30597 Y3.08747
G01 X-35.51248 Y2.86456
G01 X-35.50178 Y2.87454
G01 X-33.53946 Y2.87434
G01 X-33.52289 Y2.91356
G01 X-33.51052 Y2.95974
G01 X-33.49930 Y3.06883
G01 X-33.46640 Y3.16126
G01 X-33.44705 Y3.24185
G01 X-33.44067 Y3.31208
G01 X-33.43847 Y3.40393
G01 X-33.43933 Y3.86121
G01 X-33.11436 Y3.88008
G01 X-33.03956 Y3.88813
G01 X-32.84253 Y3.87454
G01 X-32.63961 Y3.87487
G01 X-32.57301 Y3.89273
G01 X-32.36252 Y3.87594
G01 X-32.17741 Y3.88036
G01 X-31.83989 Y3.91051
G01 X-31.83961 Y3.44653
G01 X-31.82699 Y3.30124
G01 X-31.78081 Y3.09395
G01 X-31.77418 Y3.02839
G01 X-31.77355 Y2.83797
G01 X-31.79785 Y2.79001
G01 X-31.83316 Y2.69545
G01 X-31.87690 Y2.56220
G01 X-31.89473 Y2.48498
G01 X-31.90646 Y2.34290
G01 X-31.90667 Y2.03002
G01 X-31.90646 Y2.34290
G01 X-31.89473 Y2.48498
G01 X-31.87690 Y2.56220
G01 X-31.83316 Y2.69545
G01 X-31.79785 Y2.79001
G01 X-31.77355 Y2.83797
G01 X-31.77418 Y3.02839
G01 X-31.78081 Y3.09395
G01 X-31.82699 Y3.30124
G01 X-31.83961 Y3.44653
G01 X-31.83989 Y3.91051
G01 X-31.50677 Y4.09235
G01 X-31.50677 Y4.42229
G01 X-31.58782 Y4.60797
G01 X-31.65709 Y4.79966
G01 X-31.66821 Y4.84124
G01 X-31.70286 Y5.05760
G01 X-31.70502 Y5.09915
G01 X-31.69867 Y5.27764
G01 X-31.67654 Y5.40789
G01 X-31.64411 Y5.55927
G01 X-31.34357 Y6.91650
G01 X-31.67654 Y5.40789
G01 X-31.70088 Y5.25676
G01 X-31.70502 Y5.09915
G01 X-31.70286 Y5.05760
G01 X-31.66821 Y4.84124
G01 X-31.65709 Y4.79966
G01 X-31.58782 Y4.60797
G01 X-31.50677 Y4.42229
G01 X-31.50677 Y4.09235
G01 X-31.24009 Y3.96456
G01 X-31.23834 Y2.94493
G01 X-31.26354 Y2.92626
G01 X-31.29404 Y2.84000
G01 X-31.30212 Y2.79933
G01 X-31.20857 Y2.61155
G01 X-31.19321 Y2.56817
G01 X-31.17992 Y2.51041
G01 X-31.17350 Y2.45006
G01 X-31.17426 Y1.87485
G01 X-31.32793 Y1.79738
G01 X-31.33204 Y1.75654
G01 X-31.41000 Y1.40719
G01 X-31.43202 Y1.27765
G01 X-31.43842 Y1.09913
G01 X-31.43626 Y1.05758
G01 X-31.41022 Y0.87521
G01 X-31.43090 Y0.75532
G01 X-31.43928 Y0.59718
G01 X-31.43979 Y-0.25400
G01 X-30.57228 Y-0.25400
G01 X-30.57395 Y0.34260
G01 X-30.56512 Y0.47023
G01 X-30.55595 Y0.51981
G01 X-30.51970 Y0.64277
G01 X-30.50822 Y0.71199
G01 X-30.50703 Y0.95423
G01 X-30.47373 Y1.00775
G01 X-30.43961 Y1.07569
G01 X-30.41007 Y1.13741
G01 X-30.39473 Y1.18082
G01 X-30.37726 Y1.27848
G01 X-30.37340 Y1.47477
G01 X-30.27423 Y1.87498
G01 X-30.37380 Y1.91430
G01 X-30.37380 Y2.80906
G01 X-30.33052 Y2.84988
G01 X-30.31475 Y2.92153
G01 X-30.30809 Y3.02712
G01 X-30.31470 Y3.09656
G01 X-30.36415 Y3.32519
G01 X-30.37246 Y3.44546
G01 X-30.37507 Y3.60296
G01 X-30.37261 Y3.83824
G01 X-30.50695 Y3.87447
G01 X-30.50703 Y4.59755
G01 X-30.50075 Y4.67845
G01 X-30.52669 Y4.71726
G01 X-30.55811 Y4.78447
G01 X-30.57274 Y4.85473
G01 X-30.57139 Y5.04093
G01 X-30.55828 Y5.09750
G01 X-30.52196 Y5.20169
G01 X-30.51244 Y5.25676
G01 X-30.50720 Y5.33893
G01 X-30.50532 Y6.91881
G01 X-30.33771 Y6.92353
G01 X-30.05178 Y6.92447
G01 X-29.83418 Y6.91817
G01 X-29.84292 Y6.23661
G01 X-29.83885 Y5.49765
G01 X-29.84160 Y5.33578
G01 X-29.83476 Y5.25028
G01 X-29.82531 Y5.20060
G01 X-29.78770 Y5.09318
G01 X-29.77617 Y5.04093
G01 X-29.77444 Y4.71843
G01 X-29.78882 Y4.65112
G01 X-29.87340 Y4.44259
G01 X-29.97700 Y4.13342
G01 X-30.07929 Y3.87441
G01 X-29.91432 Y3.81028
G01 X-29.77624 Y3.76304
G01 X-29.77429 Y3.07434
G01 X-29.78206 Y3.00048
G01 X-29.80172 Y2.92905
G01 X-29.77947 Y2.83484
G01 X-29.74564 Y2.79514
G01 X-29.71132 Y2.74500
G01 X-29.67396 Y2.66824
G01 X-29.65491 Y2.60236
G01 X-29.64718 Y2.55976
G01 X-29.64045 Y2.45118
G01 X-29.63913 Y1.89202
G01 X-29.50533 Y1.85595
G01 X-29.50868 Y1.57320
G01 X-29.50728 Y0.83782
G01 X-29.53179 Y0.78986
G01 X-29.55303 Y0.73525
G01 X-29.56418 Y0.69367
G01 X-29.57256 Y0.63950
G01 X-29.57551 Y0.22258
G01 X-29.57055 Y-0.25400
G01 X-32.70628 Y-0.25400
G01 X-32.70532 Y0.64376
G01 X-32.70855 Y0.77452
G01 X-32.72158 Y0.83119
G01 X-32.79437 Y1.01016
G01 X-32.78226 Y1.05507
G01 X-32.77281 Y1.14099
G01 X-32.77575 Y1.19372
G01 X-32.79305 Y1.26896
G01 X-32.90717 Y1.60934
G01 X-33.01642 Y1.88450
G01 X-32.63913 Y2.00777
G01 X-32.63958 Y2.44211
G01 X-32.65495 Y2.54843
G01 X-32.69252 Y2.65585
G01 X-32.70397 Y2.70815
G01 X-32.70628 Y3.00754
G01 X-32.69620 Y3.07995
G01 X-32.65579 Y3.19618
G01 X-32.64687 Y3.24211
G01 X-32.64083 Y3.31236
G01 X-32.63961 Y3.87487
G01 X-32.84253 Y3.87454
G01 X-33.03956 Y3.88813
G01 X-33.04040 Y4.34513
G01 X-33.03433 Y4.49275
G01 X-33.02310 Y4.55155
G01 X-32.98294 Y4.66918
G01 X-32.97517 Y4.70819
G01 X-32.97382 Y4.76080
G01 X-32.98825 Y4.83095
G01 X-33.06150 Y5.01007
G01 X-33.04228 Y5.09951
G01 X-33.04093 Y5.17263
G01 X-33.04931 Y5.22681
G01 X-33.06046 Y5.26839
G01 X-33.08170 Y5.32300
G01 X-33.10288 Y5.36456
G01 X-33.27065 Y5.62267
G01 X-33.42767 Y5.92237
G01 X-33.44822 Y5.96895
G01 X-33.70605 Y6.60908
G01 X-33.78363 Y6.92198
G01 X-33.70605 Y6.60908
G01 X-33.70707 Y5.29740
G01 X-33.72198 Y5.19753
G01 X-33.76536 Y5.06852
G01 X-33.77227 Y5.01432
G01 X-33.77344 Y3.87985
G01 X-33.55785 Y3.87279
G01 X-33.43933 Y3.86121
G01 X-33.55785 Y3.87279
G01 X-33.77344 Y3.87985
G01 X-34.03674 Y3.85646
G01 X-34.30572 Y3.78412
G01 X-34.63770 Y3.63301
G01 X-34.63646 Y4.06809
G01 X-34.64034 Y4.31282
G01 X-34.63760 Y4.43814
G01 X-34.63356 Y4.49242
G01 X-34.62406 Y4.54734
G01 X-34.58238 Y4.66918
G01 X-34.57232 Y4.74152
G01 X-34.57090 Y5.57319
G01 X-34.57715 Y6.55930
G01 X-34.57585 Y6.91421
G01 X-34.85010 Y6.92447
G01 X-35.13628 Y6.92353
G01 X-35.30547 Y6.91871
G01 X-35.61776 Y6.92442
G01 X-35.80295 Y6.92048
G01 X-36.34651 Y6.85328
G01 X-35.80295 Y6.92048
G01 X-35.61776 Y6.92442
G01 X-35.30547 Y6.91871
G01 X-35.13628 Y6.92353
G01 X-34.85010 Y6.92447
G01 X-34.57585 Y6.91421
G01 X-34.32520 Y6.92353
G01 X-33.78363 Y6.92198
G01 X-33.70191 Y6.94413
G01 X-33.36757 Y7.01566
G01 X-32.99168 Y7.05333
G01 X-32.56943 Y7.04672
G01 X-32.28612 Y7.05780
G01 X-32.00278 Y7.04299
G01 X-31.65368 Y6.99331
G01 X-31.34357 Y6.91650
G01 X-31.13011 Y6.92341
G01 X-30.50532 Y6.91881
G01 X-30.33771 Y6.92353
G01 X-30.05178 Y6.92447
G01 X-29.83418 Y6.91817
G01 X-29.37406 Y6.91449
G01 X-28.91569 Y6.91827
G01 X-28.90545 Y5.66964
G01 X-28.90789 Y5.31162
G01 X-28.91937 Y5.21330
G01 X-28.93403 Y5.16230
G01 X-28.95595 Y5.10807
G01 X-28.97078 Y5.05348
G01 X-28.97482 Y5.00774
G01 X-28.97370 Y4.74147
G01 X-28.97772 Y4.69567
G01 X-28.99247 Y4.64111
G01 X-29.02395 Y4.55325
G01 X-29.03309 Y4.50723
G01 X-29.03896 Y4.45813
G01 X-29.04180 Y4.34256
G01 X-28.80490 Y3.87162
G01 X-28.90685 Y3.81561
G01 X-28.90749 Y3.34104
G01 X-28.91577 Y3.23858
G01 X-28.93398 Y3.16205
G01 X-28.98234 Y3.05577
G01 X-28.99509 Y3.01856
G01 X-29.02963 Y2.87467
G01 X-29.03850 Y2.81546
G01 X-29.04030 Y2.75697
G01 X-29.03581 Y2.70734
G01 X-29.01950 Y2.61828
G01 X-29.03195 Y2.55300
G01 X-29.03992 Y2.44084
G01 X-29.04096 Y1.91074
G01 X-28.90746 Y1.87394
G01 X-28.90746 Y0.87455
G01 X-28.73990 Y0.74953
G01 X-28.71379 Y0.70642
G01 X-28.70680 Y0.50173
G01 X-28.70705 Y-0.25400
G01 X-27.90784 Y-0.25400
G01 X-27.90896 Y0.43972
G01 X-28.04020 Y0.64107
G01 X-28.06101 Y0.68001
G01 X-28.15986 Y0.91704
G01 X-28.16929 Y0.95029
G01 X-28.17518 Y1.00094
G01 X-28.17551 Y1.16190
G01 X-28.19248 Y1.23810
G01 X-28.22862 Y1.31735
G01 X-28.44411 Y1.74305
G01 X-28.48475 Y1.87152
G01 X-28.23967 Y1.97863
G01 X-28.24279 Y2.18031
G01 X-28.23698 Y2.48465
G01 X-28.21747 Y2.57785
G01 X-28.11447 Y2.80797
G01 X-28.15145 Y2.89715
G01 X-28.16715 Y2.94688
G01 X-28.17785 Y3.05349
G01 X-28.19296 Y3.10792
G01 X-28.26680 Y3.28691
G01 X-28.37050 Y3.59679
G01 X-28.44114 Y3.78831
G01 X-28.47734 Y3.87462
G01 X-28.24056 Y3.97812
G01 X-28.24216 Y4.34525
G01 X-28.23759 Y4.47055
G01 X-28.23075 Y4.52252
G01 X-28.22009 Y4.56827
G01 X-28.19657 Y4.63012
G01 X-28.06276 Y4.89516
G01 X-27.97716 Y5.07655
G01 X-27.97807 Y5.22889
G01 X-28.00251 Y5.37017
G01 X-28.01358 Y5.41180
G01 X-28.44632 Y6.92353
G01 X-28.69491 Y6.92447
G01 X-28.91569 Y6.91827
G01 X-28.69491 Y6.92447
G01 X-28.44632 Y6.92353
G01 X-28.37020 Y6.94413
G01 X-28.03586 Y7.01566
G01 X-27.65996 Y7.05333
G01 X-27.15049 Y7.03824
G01 X-26.64564 Y6.94413
G01 X-26.22575 Y6.80880
G01 X-25.80587 Y6.61761
G01 X-25.33193 Y6.34045
G01 X-24.85801 Y5.99219
G01 X-24.51217 Y5.69768
G01 X-24.20790 Y5.40786
G01 X-23.40798 Y4.60797
G01 X-22.99777 Y4.17670
G01 X-22.84661 Y4.00789
G01 X-22.69094 Y3.86845
G01 X-22.20785 Y3.40779
G01 X-21.34400 Y2.54163
G01 X-20.83694 Y2.00939
G01 X-20.20761 Y1.40754
G01 X-19.40801 Y0.60797
G01 X-18.59384 Y-0.25400
G01 X-41.23802 Y-0.25400
G01 X-41.24180 Y0.19614
G01 X-41.24066 Y0.71902
G01 X-41.22875 Y0.86398
G01 X-41.32057 Y0.95588
G01 X-41.38897 Y1.04534
G01 X-41.42903 Y1.11910
G01 X-41.49428 Y1.27447
G01 X-41.52930 Y1.37866
G01 X-41.55938 Y1.51945
G01 X-41.60121 Y1.76982
G01 X-41.63997 Y1.95666
G01 X-41.63997 Y2.00868
G01 X-41.63997 Y1.95666
G01 X-41.83891 Y1.60934
G01 X-42.14772 Y0.98788
G01 X-42.10670 Y0.94036
G01 X-41.95958 Y0.79329
G01 X-41.91323 Y0.73678
G01 X-41.89105 Y0.70373
G01 X-41.85046 Y0.62746
G01 X-41.83423 Y0.58847
G01 X-41.80017 Y0.47455
G01 X-41.79092 Y0.42850
G01 X-41.77322 Y0.23564
G01 X-41.77360 Y-0.25400
G01 X-41.23802 Y-0.25400
G01 X-44.30527 Y-0.25400
G01 X-44.30570 Y0.34127
G01 X-44.30052 Y0.43322
G01 X-44.29369 Y0.48517
G01 X-44.27571 Y0.56223
G01 X-44.21911 Y0.73579
G01 X-44.19773 Y0.79083
G01 X-44.17327 Y0.83866
G01 X-44.17319 Y0.89418
G01 X-44.17977 Y0.96109
G01 X-44.18909 Y1.00785
G01 X-44.17357 Y1.10823
G01 X-44.17266 Y1.29609
G01 X-44.17921 Y1.36378
G01 X-44.22399 Y1.56035
G01 X-44.23778 Y1.71183
G01 X-44.24060 Y1.93977
G01 X-44.23679 Y2.25641
G01 X-44.24269 Y2.89187
G01 X-43.82074 Y3.00688
G01 X-43.63936 Y2.99977
G01 X-43.57053 Y3.00802
G01 X-43.07657 Y3.00678
G01 X-42.83527 Y2.99629
G01 X-42.57888 Y3.01841
G01 X-42.39555 Y3.25775
G01 X-42.30779 Y3.38112
G01 X-41.63997 Y3.78203
G01 X-41.55209 Y3.81645
G01 X-41.37180 Y3.89816
G01 X-41.03967 Y4.00789
G01 X-40.03721 Y4.00858
G01 X-39.83919 Y4.02504
G01 X-39.70708 Y4.05211
G01 X-39.24056 Y3.89819
G01 X-39.09903 Y3.85907
G01 X-39.04099 Y3.90398
G01 X-38.66007 Y3.98724
G01 X-38.46060 Y4.00776
G01 X-37.61842 Y4.00693
G01 X-37.50793 Y4.00045
G01 X-37.04532 Y3.95059
G01 X-36.80333 Y3.94010
G01 X-36.57420 Y3.94246
G01 X-36.09691 Y3.27444
G01 X-35.93026 Y3.05747
G01 X-35.73671 Y2.84051
G01 X-35.51248 Y2.86456
G01 X-35.30597 Y3.08747
G01 X-35.09320 Y3.28160
G01 X-34.82020 Y3.50114
G01 X-34.63770 Y3.63301
G01 X-34.30572 Y3.78412
G01 X-34.03674 Y3.85646
G01 X-33.77344 Y3.87985
G01 X-33.55785 Y3.87279
G01 X-33.43933 Y3.86121
G01 X-33.11436 Y3.88008
G01 X-33.03956 Y3.88813
G01 X-32.84253 Y3.87454
G01 X-32.63961 Y3.87487
G01 X-32.57301 Y3.89273
G01 X-32.36252 Y3.87594
G01 X-32.17741 Y3.88036
G01 X-31.83989 Y3.91051
G01 X-31.50677 Y4.09235
G01 X-31.24009 Y3.96456
G01 X-31.07850 Y3.92252
G01 X-30.87179 Y3.88348
G01 X-30.68467 Y3.87429
G01 X-30.50695 Y3.87447
G01 X-30.37261 Y3.83824
G01 X-30.31297 Y3.84950
G01 X-30.07929 Y3.87441
G01 X-29.91432 Y3.81028
G01 X-29.77624 Y3.76304
G01 X-29.60591 Y3.74553
G01 X-29.37406 Y3.71246
G01 X-28.90685 Y3.81561
G01 X-28.80490 Y3.87162
G01 X-28.70759 Y3.87515
G01 X-28.47734 Y3.87462
G01 X-28.24056 Y3.97812
G01 X-28.04109 Y4.00045
G01 X-27.92948 Y4.00693
G01 X-22.84661 Y4.00789
G01 X-22.69094 Y3.86845
G01 X-22.20785 Y3.40779
G01 X-21.34400 Y2.54163
G01 X-20.83694 Y2.00939
G01 X-27.40876 Y2.00706
G01 X-27.59151 Y2.01140
G01 X-27.77383 Y2.03708
G01 X-27.92547 Y2.01331
G01 X-28.23967 Y1.97863
G01 X-28.48475 Y1.87152
G01 X-28.57424 Y1.87503
G01 X-28.90746 Y1.87394
G01 X-29.04096 Y1.91074
G01 X-29.17101 Y1.88910
G01 X-29.26817 Y1.87744
G01 X-29.50533 Y1.85595
G01 X-29.63913 Y1.89202
G01 X-29.90720 Y1.87424
G01 X-30.27423 Y1.87498
G01 X-30.37380 Y1.91430
G01 X-30.65808 Y1.93939
G01 X-30.85765 Y1.93248
G01 X-30.97352 Y1.91440
G01 X-31.17426 Y1.87485
G01 X-31.32793 Y1.79738
G01 X-31.37329 Y1.82270
G01 X-31.56285 Y1.91206
G01 X-31.90667 Y2.03002
G01 X-32.01797 Y2.01694
G01 X-32.15025 Y2.00810
G01 X-32.63913 Y2.00777
G01 X-33.01642 Y1.88450
G01 X-33.10829 Y1.89870
G01 X-33.23463 Y1.88123
G01 X-33.34065 Y1.87142
G01 X-33.50600 Y1.92151
G01 X-33.63902 Y1.93444
G01 X-33.79701 Y1.94183
G01 X-34.25360 Y1.94086
G01 X-34.43910 Y2.02654
G01 X-34.70554 Y2.17213
G01 X-34.90107 Y2.29461
G01 X-35.11205 Y2.48514
G01 X-35.38642 Y2.74942
G01 X-35.51248 Y2.86456
G01 X-35.73671 Y2.84051
G01 X-36.32733 Y2.00769
G01 X-36.37547 Y1.17373
G01 X-36.39685 Y0.94127
G01 X-36.38517 Y0.87455
G01 X-36.37379 Y0.62103
G01 X-36.37351 Y-0.25400
G01 X-36.37379 Y0.62103
G01 X-36.38517 Y0.87455
G01 X-35.23851 Y0.87544
G01 X-35.00562 Y0.87432
G01 X-34.93867 Y0.74130
G01 X-34.89927 Y0.67846
G01 X-34.90417 Y0.63955
G01 X-34.90554 Y0.56050
G01 X-34.90648 Y-0.25400
G01 X-34.90554 Y0.56050
G01 X-34.90417 Y0.63955
G01 X-34.89927 Y0.67846
G01 X-34.93867 Y0.74130
G01 X-35.00562 Y0.87432
G01 X-34.98913 Y0.91346
G01 X-34.97674 Y0.95969
G01 X-34.96500 Y1.06858
G01 X-34.92241 Y1.19588
G01 X-34.91327 Y1.24191
G01 X-34.90689 Y1.31224
G01 X-34.90430 Y1.47378
G01 X-34.90770 Y1.66957
G01 X-34.90107 Y2.29461
G01 X-34.70554 Y2.17213
G01 X-34.43910 Y2.02654
G01 X-34.25360 Y1.94086
G01 X-34.17247 Y1.53477
G01 X-34.17237 Y1.40782
G01 X-34.16036 Y1.26393
G01 X-34.14768 Y1.20320
G01 X-34.09925 Y1.05357
G01 X-34.06369 Y0.95923
G01 X-34.03915 Y0.91125
G01 X-34.03915 Y0.85174
G01 X-34.07153 Y0.77361
G01 X-34.12536 Y0.61725
G01 X-34.15741 Y0.50325
G01 X-34.16572 Y0.45240
G01 X-34.17232 Y0.31204
G01 X-34.17435 Y0.02007
G01 X-34.17072 Y-0.25400
G01 X-33.64024 Y-0.25400
G01 X-33.63867 Y0.40246
G01 X-33.62015 Y0.52659
G01 X-33.58464 Y0.64234
G01 X-33.57334 Y0.71194
G01 X-33.57268 Y0.95433
G01 X-33.53940 Y1.00775
G01 X-33.50524 Y1.07572
G01 X-33.47557 Y1.13741
G01 X-33.45998 Y1.18085
G01 X-33.44192 Y1.27899
G01 X-33.44014 Y1.47356
G01 X-33.34065 Y1.87142
G01 X-33.50600 Y1.92151
G01 X-33.50611 Y2.74455
G01 X-33.51609 Y2.81346
G01 X-33.53946 Y2.87434
G01 X-33.52289 Y2.91356
G01 X-33.51052 Y2.95974
G01 X-33.49930 Y3.06883
G01 X-33.46640 Y3.16126
G01 X-33.44705 Y3.24185
G01 X-33.44067 Y3.31208
G01 X-33.43847 Y3.40393
G01 X-33.43933 Y3.86121
G01 X-33.55785 Y3.87279
G01 X-33.77344 Y3.87985
G01 X-34.03674 Y3.85646
G01 X-34.30572 Y3.78412
G01 X-34.63770 Y3.63301
G01 X-34.82020 Y3.50114
G01 X-35.09320 Y3.28160
G01 X-35.30597 Y3.08747
G01 X-35.51248 Y2.86456
G01 X-35.73671 Y2.84051
G01 X-36.32733 Y2.00769
G01 X-37.66111 Y2.00678
G01 X-37.86040 Y1.98692
G01 X-37.97557 Y1.96337
G01 X-38.10820 Y2.00790
G01 X-38.77330 Y2.00792
G01 X-38.97396 Y1.94086
G01 X-39.21755 Y1.84907
G01 X-39.29586 Y1.87099
G01 X-39.44036 Y1.96332
G01 X-39.77383 Y2.00035
G01 X-39.88438 Y2.00683
G01 X-40.04056 Y2.00731
G01 X-40.24043 Y2.02248
G01 X-40.43893 Y1.97780
G01 X-40.56992 Y1.99939
G01 X-40.70706 Y2.00830
G01 X-41.63997 Y2.00868
G01 X-42.30649 Y2.74787
G01 X-42.41500 Y2.87368
G01 X-42.57888 Y3.01841
G01 X-42.83527 Y2.99629
G01 X-42.84177 Y2.09636
G01 X-42.83809 Y1.83998
G01 X-42.83954 Y1.13782
G01 X-42.83730 Y1.10795
G01 X-42.82410 Y1.05110
G01 X-42.73718 Y0.84021
G01 X-42.79359 Y0.76357
G01 X-42.84535 Y0.66426
G01 X-42.87032 Y0.61163
G01 X-42.88556 Y0.56825
G01 X-42.89613 Y0.52240
G01 X-42.90604 Y0.40942
G01 X-42.90505 Y-0.25400
G01 X-43.56915 Y-0.25400
G01 X-43.57276 Y0.41034
G01 X-43.58244 Y0.52227
G01 X-43.60525 Y0.60465
G01 X-43.67284 Y0.74155
G01 X-43.70591 Y0.79484
G01 X-43.70542 Y1.08623
G01 X-43.66367 Y1.15974
G01 X-43.64530 Y1.21458
G01 X-43.64017 Y1.24686
G01 X-43.64073 Y1.84056
G01 X-43.63707 Y2.09768
G01 X-43.63936 Y2.99977
G01 X-43.57053 Y3.00802
G01 X-43.56755 Y3.59405
G01 X-43.57373 Y4.34543
G01 X-43.56946 Y4.47045
G01 X-43.56288 Y4.52227
G01 X-43.55239 Y4.56822
G01 X-43.53725 Y4.61157
G01 X-43.39445 Y4.89471
G01 X-43.31396 Y5.07169
G01 X-43.30873 Y5.07644
G01 X-43.30675 Y5.11305
G01 X-43.31475 Y5.26811
G01 X-43.34977 Y5.42986
G01 X-43.77842 Y6.92343
G01 X-44.05739 Y6.92353
G01 X-44.24741 Y6.91827
G01 X-44.23715 Y5.66918
G01 X-44.24053 Y5.31094
G01 X-44.24451 Y5.25668
G01 X-44.25653 Y5.18952
G01 X-44.29110 Y5.09811
G01 X-44.30413 Y5.04119
G01 X-44.30573 Y4.74147
G01 X-44.30987 Y4.69575
G01 X-44.32475 Y4.64152
G01 X-44.34797 Y4.58079
G01 X-44.36466 Y4.50718
G01 X-44.37101 Y4.43687
G01 X-44.37337 Y4.34249
G01 X-44.16974 Y3.93492
G01 X-44.03910 Y3.64246
G01 X-43.90817 Y3.27784
G01 X-43.82074 Y3.00688
G01 X-44.24269 Y2.89187
G01 X-44.66577 Y2.87556
G01 X-45.77456 Y2.87348
G01 X-45.84624 Y2.85529
G01 X-46.16447 Y2.73576
G01 X-46.36229 Y2.66723
G01 X-48.54357 Y1.96736
G01 X-51.22479 Y1.11557
G01 X-51.40922 Y1.04762
G01 X-52.17490 Y0.78494
G01 X-53.24544 Y0.42743
G01 X-53.86822 Y-0.25400
G01 X-44.30527 Y-0.25400
G04 P0 ( dwell for no time -- G64 should not smooth over this point )
G00 Z10.00000 ( retract )

G00 X-55.50718 Y39.08793 ( rapid move to begin. )
G01 F30.00000
( Mill infeed pass 1/1 )
G01 Z-0.10000
G04 P0 ( dwell for no time -- G64 should not smooth over this point )
G01 F360.00000
G01 X-55.50718 Y39.08793
G01 X-55.52686 Y38.91857
G01 X-55.53860 Y38.86030
G01 X-55.58170 Y38.74348
G01 X-55.62691 Y38.64867
G01 X-55.68658 Y38.56187
G01 X-55.76621 Y38.46614
G01 X-55.81078 Y38.42685
G01 X-55.93644 Y38.33299
G01 X-55.95998 Y38.31941
G01 X-56.10405 Y38.25751
G01 X-56.16037 Y38.23853
G01 X-56.28310 Y38.21745
G01 X-56.38797 Y38.20917
G01 X-56.49285 Y38.21742
G01 X-56.61561 Y38.23853
G01 X-56.64662 Y38.24818
G01 X-56.81596 Y38.31938
G01 X-56.83954 Y38.33302
G01 X-56.98587 Y38.44404
G01 X-57.00977 Y38.46614
G01 X-57.08937 Y38.56187
G01 X-57.14906 Y38.64867
G01 X-57.19425 Y38.74348
G01 X-57.23735 Y38.86030
G01 X-57.24909 Y38.91857
G01 X-57.26880 Y39.08793
G01 X-57.24911 Y39.25727
G01 X-57.22902 Y39.37399
G01 X-57.27416 Y39.43391
G01 X-63.63736 Y45.79711
G01 X-63.66744 Y45.82300
G01 X-63.73063 Y45.83085
G01 X-64.75806 Y45.83085
G01 X-64.86327 Y45.85264
G01 X-64.88504 Y45.95787
G01 X-64.88504 Y47.45797
G01 X-64.86327 Y47.56320
G01 X-64.75806 Y47.58499
G01 X-63.25791 Y47.58499
G01 X-63.15271 Y47.56320
G01 X-63.13094 Y47.45797
G01 X-63.13094 Y46.43056
G01 X-63.12306 Y46.36734
G01 X-63.09718 Y46.33730
G01 X-56.73397 Y39.97409
G01 X-56.67700 Y39.93063
G01 X-56.62341 Y39.93596
G01 X-56.49285 Y39.95839
G01 X-56.38800 Y39.96667
G01 X-56.28310 Y39.95839
G01 X-56.16037 Y39.93728
G01 X-56.10405 Y39.91834
G01 X-55.94772 Y39.85077
G01 X-55.81078 Y39.74899
G01 X-55.76621 Y39.70970
G01 X-55.68658 Y39.61394
G01 X-55.62691 Y39.52718
G01 X-55.58170 Y39.43233
G01 X-55.53862 Y39.31554
G01 X-55.53144 Y39.28379
G01 X-55.50718 Y39.08793
G04 P0 ( dwell for no time -- G64 should not smooth over this point )
G00 Z10.00000 ( retract )

G00 X-27.56718 Y41.62793 ( rapid move to begin. )
G01 F30.00000
( Mill infeed pass 1/1 )
G01 Z-0.10000
G04 P0 ( dwell for no time -- G64 should not smooth over this point )
G01 F360.00000
G01 X-27.56718 Y41.62793
G01 X-27.59144 Y41.43202
G01 X-27.59860 Y41.40030
G01 X-27.64170 Y41.28348
G01 X-27.68691 Y41.18867
G01 X-27.74658 Y41.10187
G01 X-27.82621 Y41.00614
G01 X-27.87078 Y40.96685
G01 X-28.00769 Y40.86504
G01 X-28.16405 Y40.79751
G01 X-28.22037 Y40.77853
G01 X-28.34310 Y40.75745
G01 X-28.44797 Y40.74917
G01 X-28.55285 Y40.75742
G01 X-28.67561 Y40.77853
G01 X-28.73190 Y40.79748
G01 X-28.88828 Y40.86504
G01 X-29.02516 Y40.96685
G01 X-29.06977 Y41.00614
G01 X-29.14937 Y41.10187
G01 X-29.20906 Y41.18867
G01 X-29.25425 Y41.28348
G01 X-29.29735 Y41.40030
G01 X-29.30454 Y41.43202
G01 X-29.32880 Y41.62793
G01 X-29.30454 Y41.82379
G01 X-29.29735 Y41.85554
G01 X-29.25427 Y41.97233
G01 X-29.20906 Y42.06718
G01 X-29.14940 Y42.15397
G01 X-29.06977 Y42.24970
G01 X-29.02516 Y42.28899
G01 X-28.88826 Y42.39077
G01 X-28.73190 Y42.45834
G01 X-28.67561 Y42.47728
G01 X-28.55285 Y42.49839
G01 X-28.44797 Y42.50667
G01 X-28.34310 Y42.49839
G01 X-28.22037 Y42.47728
G01 X-28.16405 Y42.45834
G01 X-28.00772 Y42.39077
G01 X-27.87078 Y42.28899
G01 X-27.82621 Y42.24970
G01 X-27.74658 Y42.15394
G01 X-27.68691 Y42.06718
G01 X-27.64170 Y41.97233
G01 X-27.59862 Y41.85554
G01 X-27.59144 Y41.82379
G01 X-27.56718 Y41.62793
G04 P0 ( dwell for no time -- G64 should not smooth over this point )
G00 Z10.00000 ( retract )

G00 X-7.25091 Y43.41785 ( rapid move to begin. )
G01 F30.00000
( Mill infeed pass 1/1 )
G01 Z-0.10000
G04 P0 ( dwell for no time -- G64 should not smooth over this point )
G01 F360.00000
G01 X-7.25091 Y43.41785
G01 X-7.25091 Y44.91799
G01 X-7.27271 Y45.02318
G01 X-7.37794 Y45.04497
G01 X-8.87806 Y45.04497
G01 X-8.98327 Y45.02320
G01 X-9.00506 Y44.91799
G01 X-9.00506 Y43.41785
G01 X-8.98327 Y43.31264
G01 X-8.87806 Y43.29085
G01 X-7.37794 Y43.29085
G01 X-7.27268 Y43.31264
G01 X-7.25091 Y43.41785
G04 P0 ( dwell for no time -- G64 should not smooth over this point )
G00 Z10.00000 ( retract )

G00 X-7.24715 Y41.62793 ( rapid move to begin. )
G01 F30.00000
( Mill infeed pass 1/1 )
G01 Z-0.10000
G04 P0 ( dwell for no time -- G64 should not smooth over this point )
G01 F360.00000
G01 X-7.24715 Y41.62793
G01 X-7.27144 Y41.43202
G01 X-7.27860 Y41.40030
G01 X-7.32170 Y41.28348
G01 X-7.36691 Y41.18867
G01 X-7.42658 Y41.10187
G01 X-7.50621 Y41.00614
G01 X-7.55079 Y40.96685
G01 X-7.68769 Y40.86504
G01 X-7.84405 Y40.79751
G01 X-7.90037 Y40.77853
G01 X-8.02310 Y40.75745
G01 X-8.12800 Y40.74917
G01 X-8.23285 Y40.75742
G01 X-8.35561 Y40.77853
G01 X-8.41190 Y40.79748
G01 X-8.56828 Y40.86504
G01 X-8.70516 Y40.96685
G01 X-8.74977 Y41.00614
G01 X-8.82937 Y41.10187
G01 X-8.88906 Y41.18867
G01 X-8.93425 Y41.28348
G01 X-8.97735 Y41.40030
G01 X-8.98454 Y41.43202
G01 X-9.00880 Y41.62793
G01 X-8.98454 Y41.82379
G01 X-8.97735 Y41.85554
G01 X-8.93427 Y41.97233
G01 X-8.88906 Y42.06718
G01 X-8.82940 Y42.15397
G01 X-8.74977 Y42.24970
G01 X-8.70516 Y42.28899
G01 X-8.56826 Y42.39077
G01 X-8.41190 Y42.45834
G01 X-8.35561 Y42.47728
G01 X-8.23285 Y42.49839
G01 X-8.12800 Y42.50667
G01 X-8.02310 Y42.49839
G01 X-7.90037 Y42.47728
G01 X-7.84405 Y42.45834
G01 X-7.68772 Y42.39077
G01 X-7.55079 Y42.28899
G01 X-7.50621 Y42.24970
G01 X-7.42658 Y42.15394
G01 X-7.36691 Y42.06718
G01 X-7.32170 Y41.97233
G01 X-7.27862 Y41.85554
G01 X-7.27144 Y41.82379
G01 X-7.24715 Y41.62793

G04 P0 ( dwell for no time -- G64 should not smooth over this point )
G00 Z50.000000 ( retract )

M5 ( Spindle off. )
G04 P1.000000
M9 ( Coolant off. )
M2 ( Program end. )

