( pcb2gcode 1.3.2 )
( Software-independent Gcode )

G94 ( Millimeters per minute feed rate. )
G21 ( Units == Millimeters. )

G90 ( Absolute coordinates. )
G00 S10000 ( RPM spindle speed. )
G01 F360.00000 ( Feedrate. )

G01 F360.00000 ( Feedrate. )
M3 ( Spindle on clockwise. )
G04 P1.00000
G04 P0 ( dwell for no time -- G64 should not smooth over this point )
G00 Z10.00000 ( retract )

G00 X-52.55121 Y0.05080 ( rapid move to begin. )
G01 F30.00000
G01 Z-0.10000
G04 P0 ( dwell for no time -- G64 should not smooth over this point )
G01 F360.00000
G01 X-52.55121 Y0.05080
G01 X-43.83286 Y0.05080
G01 X-43.82383 Y0.08869
G01 X-43.81708 Y0.11147
G01 X-43.81524 Y0.11748
G01 X-43.81089 Y0.13114
G01 X-43.80779 Y0.14031
G01 X-43.80402 Y0.15084
G01 X-43.80056 Y0.16121
G01 X-43.79661 Y0.17397
G01 X-43.79292 Y0.18492
G01 X-43.79007 Y0.19271
G01 X-43.78603 Y0.20480
G01 X-43.78336 Y0.21365
G01 X-43.77887 Y0.22696
G01 X-43.77693 Y0.23217
G01 X-43.77203 Y0.24681
G01 X-43.77005 Y0.25349
G01 X-43.76440 Y0.27020
G01 X-43.76352 Y0.27252
G01 X-43.75945 Y0.28410
G01 X-43.75727 Y0.29084
G01 X-43.74673 Y0.31821
G01 X-43.73741 Y0.33911
G01 X-43.72117 Y0.37085
G01 X-43.71531 Y0.38101
G01 X-43.71530 Y0.41745
G01 X-43.71570 Y0.43366
G01 X-43.71665 Y0.45329
G01 X-43.71997 Y0.48687
G01 X-43.72289 Y0.50649
G01 X-43.72981 Y0.54114
G01 X-43.73220 Y0.55069
G01 X-43.72980 Y0.56029
G01 X-43.72286 Y0.59508
G01 X-43.71995 Y0.61467
G01 X-43.71666 Y0.64807
G01 X-43.71570 Y0.66764
G01 X-43.71530 Y0.68390
G01 X-43.71530 Y0.81725
G01 X-43.71570 Y0.83346
G01 X-43.71665 Y0.85308
G01 X-43.71997 Y0.88667
G01 X-43.72289 Y0.90629
G01 X-43.72981 Y0.94093
G01 X-43.73217 Y0.95034
G01 X-43.73459 Y0.96062
G01 X-43.73643 Y0.96892
G01 X-43.74145 Y0.98912
G01 X-43.74440 Y0.99983
G01 X-43.74966 Y1.02092
G01 X-43.75220 Y1.03221
G01 X-43.75511 Y1.04446
G01 X-43.75758 Y1.05431
G01 X-43.76861 Y1.11007
G01 X-43.77221 Y1.13418
G01 X-43.77948 Y1.20904
G01 X-43.78079 Y1.23545
G01 X-43.78197 Y1.28426
G01 X-43.78196 Y1.34099
G01 X-43.78196 Y1.34189
G01 X-43.78197 Y1.37188
G01 X-43.78197 Y1.37276
G01 X-43.78195 Y1.55214
G01 X-43.78195 Y1.55315
G01 X-43.78196 Y1.59367
G01 X-43.78196 Y1.59461
G01 X-43.78192 Y2.01430
G01 X-43.78192 Y2.01926
G01 X-43.78196 Y2.08188
G01 X-43.78196 Y2.08682
G01 X-43.78195 Y2.43564
G01 X-43.78727 Y2.43539
G01 X-43.96094 Y2.42702
G01 X-43.98069 Y2.42613
G01 X-44.08450 Y2.42186
G01 X-44.10544 Y2.42092
G01 X-44.11523 Y2.42044
G01 X-44.24858 Y2.41719
G01 X-44.38167 Y2.41719
G01 X-44.51551 Y2.41719
G01 X-44.51712 Y2.41719
G01 X-44.53515 Y2.41720
G01 X-44.53679 Y2.41720
G01 X-44.81474 Y2.41720
G01 X-44.81662 Y2.41720
G01 X-44.83520 Y2.41721
G01 X-44.83709 Y2.41721
G01 X-45.15458 Y2.41721
G01 X-45.15469 Y2.41721
G01 X-45.17682 Y2.41721
G01 X-45.17687 Y2.41721
G01 X-45.31575 Y2.41721
G01 X-45.35427 Y2.40770
G01 X-45.37584 Y2.40231
G01 X-45.37929 Y2.40143
G01 X-45.51533 Y2.35033
G01 X-45.53471 Y2.34311
G01 X-45.57085 Y2.32977
G01 X-45.59176 Y2.32198
G01 X-45.70729 Y2.27853
G01 X-45.90509 Y2.21001
G01 X-45.98906 Y2.18330
G01 X-46.01197 Y2.17595
G01 X-46.11213 Y2.14349
G01 X-46.13435 Y2.13635
G01 X-46.52226 Y2.01275
G01 X-46.54898 Y2.00417
G01 X-46.65216 Y1.97077
G01 X-46.67814 Y1.96242
G01 X-47.29931 Y1.76419
G01 X-47.33296 Y1.75338
G01 X-47.44126 Y1.71838
G01 X-47.47404 Y1.70785
G01 X-48.73057 Y1.30636
G01 X-48.77920 Y1.29076
G01 X-48.87950 Y1.25843
G01 X-48.92648 Y1.24335
G01 X-50.25899 Y0.81725
G01 X-50.68449 Y0.68390
G01 X-50.80645 Y0.64642
G01 X-51.06786 Y0.55067
G01 X-51.45620 Y0.41745
G01 X-51.85109 Y0.28410
G01 X-52.18185 Y0.17413
G01 X-52.24770 Y0.15218
G01 X-52.55121 Y0.05080
G01 X-52.74454 Y0.05080
G01 X-52.13630 Y1.15670
G01 X-51.48455 Y2.22092
G01 X-51.46364 Y2.25313
G01 X-50.92996 Y3.03441
G01 X-50.39627 Y3.73425
G01 X-50.37539 Y3.76004
G01 X-49.96672 Y4.24076
G01 X-49.55804 Y4.67345
G01 X-49.53714 Y4.69435
G01 X-49.20823 Y5.00761
G01 X-48.87932 Y5.28957
G01 X-48.85844 Y5.30647
G01 X-48.30724 Y5.70856
G01 X-48.28633 Y5.72214
G01 X-47.81074 Y5.99782
G01 X-47.78984 Y6.00848
G01 X-47.35891 Y6.20098
G01 X-47.33801 Y6.20899
G01 X-46.94722 Y6.33623
G01 X-46.92634 Y6.34183
G01 X-46.55846 Y6.42034
G01 X-46.53757 Y6.42366
G01 X-46.17672 Y6.46168
G01 X-46.15583 Y6.46276
G01 X-45.98137 Y6.46728
G01 X-45.84802 Y6.46728
G01 X-45.71639 Y6.46471
G01 X-45.59176 Y6.46702
G01 X-45.57085 Y6.46702
G01 X-45.37970 Y6.46159
G01 X-45.36532 Y6.46233
G01 X-45.34574 Y6.46328
G01 X-45.18152 Y6.46728
G01 X-44.91482 Y6.46728
G01 X-44.75102 Y6.46330
G01 X-44.73140 Y6.46235
G01 X-44.71660 Y6.46159
G01 X-44.52546 Y6.46702
G01 X-44.50456 Y6.46702
G01 X-44.24844 Y6.45728
G01 X-43.99232 Y6.46702
G01 X-43.97141 Y6.46702
G01 X-43.78027 Y6.46159
G01 X-43.76569 Y6.46234
G01 X-43.74609 Y6.46329
G01 X-43.58208 Y6.46728
G01 X-43.32050 Y6.46728
G01 X-43.09455 Y6.52353
G01 X-43.07364 Y6.52798
G01 X-42.73985 Y6.58103
G01 X-42.71897 Y6.58322
G01 X-42.39288 Y6.60037
G01 X-42.37198 Y6.60037
G01 X-42.04588 Y6.58322
G01 X-42.02500 Y6.58103
G01 X-41.69121 Y6.52798
G01 X-41.67030 Y6.52353
G01 X-41.41736 Y6.45947
G01 X-41.36659 Y6.46233
G01 X-41.34702 Y6.46328
G01 X-41.04957 Y6.46465
G01 X-40.91635 Y6.46728
G01 X-40.78300 Y6.46728
G01 X-40.61899 Y6.46329
G01 X-40.59939 Y6.46234
G01 X-40.58296 Y6.46150
G01 X-40.56675 Y6.46233
G01 X-40.54717 Y6.46328
G01 X-40.38295 Y6.46728
G01 X-40.12589 Y6.46728
G01 X-39.82145 Y6.51361
G01 X-39.80057 Y6.51581
G01 X-39.46045 Y6.53369
G01 X-39.43955 Y6.53369
G01 X-39.11675 Y6.51758
G01 X-38.79395 Y6.53369
G01 X-38.77305 Y6.53369
G01 X-38.43293 Y6.51581
G01 X-38.41205 Y6.51361
G01 X-38.27790 Y6.49673
G01 X-38.26752 Y6.49933
G01 X-37.95168 Y6.56239
G01 X-37.93206 Y6.56531
G01 X-37.62340 Y6.59590
G01 X-37.60380 Y6.59687
G01 X-37.45078 Y6.60065
G01 X-37.05073 Y6.60065
G01 X-36.89771 Y6.59687
G01 X-36.87810 Y6.59590
G01 X-36.57081 Y6.56552
G01 X-36.55122 Y6.56261
G01 X-36.23402 Y6.49934
G01 X-36.21440 Y6.49443
G01 X-35.89115 Y6.39670
G01 X-35.72060 Y6.42632
G01 X-35.70101 Y6.42923
G01 X-35.36534 Y6.46233
G01 X-35.34576 Y6.46328
G01 X-35.18154 Y6.46728
G01 X-35.04819 Y6.46728
G01 X-34.88418 Y6.46329
G01 X-34.86458 Y6.46234
G01 X-34.84828 Y6.46150
G01 X-34.83219 Y6.46233
G01 X-34.81262 Y6.46328
G01 X-34.64839 Y6.46728
G01 X-34.38169 Y6.46728
G01 X-34.21768 Y6.46329
G01 X-34.19808 Y6.46234
G01 X-34.11511 Y6.45727
G01 X-34.03234 Y6.46233
G01 X-34.01277 Y6.46328
G01 X-33.71532 Y6.46465
G01 X-33.58210 Y6.46728
G01 X-33.44875 Y6.46728
G01 X-33.32807 Y6.46512
G01 X-33.09457 Y6.52353
G01 X-33.07366 Y6.52798
G01 X-32.73987 Y6.58103
G01 X-32.71899 Y6.58322
G01 X-32.39290 Y6.60037
G01 X-32.37200 Y6.60037
G01 X-32.11616 Y6.58981
G01 X-32.02199 Y6.59589
G01 X-32.00239 Y6.59686
G01 X-31.69835 Y6.59696
G01 X-31.67875 Y6.59600
G01 X-31.37142 Y6.56581
G01 X-31.35183 Y6.56291
G01 X-31.03266 Y6.49935
G01 X-31.01305 Y6.49444
G01 X-30.88398 Y6.45944
G01 X-30.84502 Y6.46168
G01 X-30.82413 Y6.46276
G01 X-30.64967 Y6.46728
G01 X-30.51632 Y6.46728
G01 X-30.38482 Y6.46472
G01 X-30.26032 Y6.46702
G01 X-30.23941 Y6.46702
G01 X-30.04814 Y6.46159
G01 X-30.03362 Y6.46233
G01 X-30.01405 Y6.46328
G01 X-29.84983 Y6.46728
G01 X-29.58338 Y6.46728
G01 X-29.41937 Y6.46329
G01 X-29.39977 Y6.46234
G01 X-29.38517 Y6.46159
G01 X-29.19402 Y6.46702
G01 X-29.17312 Y6.46702
G01 X-28.91687 Y6.45727
G01 X-28.66062 Y6.46702
G01 X-28.63972 Y6.46702
G01 X-28.44857 Y6.46159
G01 X-28.43418 Y6.46233
G01 X-28.41461 Y6.46328
G01 X-28.25039 Y6.46728
G01 X-27.98880 Y6.46728
G01 X-27.76286 Y6.52353
G01 X-27.74195 Y6.52798
G01 X-27.40816 Y6.58103
G01 X-27.38728 Y6.58322
G01 X-27.06119 Y6.60037
G01 X-27.04028 Y6.60037
G01 X-26.71419 Y6.58322
G01 X-26.69331 Y6.58103
G01 X-26.35952 Y6.52798
G01 X-26.33861 Y6.52353
G01 X-25.99058 Y6.43007
G01 X-25.96968 Y6.42329
G01 X-25.59035 Y6.27720
G01 X-25.56945 Y6.26788
G01 X-25.15602 Y6.05638
G01 X-25.13514 Y6.04432
G01 X-24.66648 Y5.73895
G01 X-24.64559 Y5.72379
G01 X-24.08687 Y5.26921
G01 X-24.06598 Y5.25038
G01 X-23.75068 Y4.95061
G01 X-22.95081 Y4.15074
G01 X-22.54059 Y3.71950
G01 X-22.52102 Y3.69791
G01 X-22.38943 Y3.55068
G01 X-22.25334 Y3.42902
G01 X-22.23374 Y3.41124
G01 X-21.75065 Y2.95059
G01 X-20.95081 Y2.15075
G01 X-20.37795 Y1.55054
G01 X-19.75041 Y0.95034
G01 X-18.95081 Y0.15075
G01 X-18.85604 Y0.05080
G01 X-0.05080 Y0.05080
G01 X-0.05080 Y48.79073
G01 X-71.17080 Y48.79073
G01 X-71.17080 Y0.05080
G01 X-52.74454 Y0.05080
G01 X-52.74454 Y0.05080
G01 X-52.55121 Y0.05080
G01 X-52.24770 Y0.15218
G01 X-52.18185 Y0.17413
G01 X-51.85109 Y0.28410
G01 X-51.45620 Y0.41745
G01 X-51.06786 Y0.55067
G01 X-50.80645 Y0.64642
G01 X-50.68449 Y0.68390
G01 X-50.25899 Y0.81725
G01 X-48.92648 Y1.24335
G01 X-48.87950 Y1.25843
G01 X-48.77920 Y1.29076
G01 X-48.73057 Y1.30636
G01 X-47.47404 Y1.70785
G01 X-47.44126 Y1.71838
G01 X-47.33296 Y1.75338
G01 X-47.29931 Y1.76419
G01 X-46.67814 Y1.96242
G01 X-46.65216 Y1.97077
G01 X-46.54898 Y2.00417
G01 X-46.52226 Y2.01275
G01 X-46.13435 Y2.13635
G01 X-46.11213 Y2.14349
G01 X-46.01197 Y2.17595
G01 X-45.98906 Y2.18330
G01 X-45.90509 Y2.21001
G01 X-45.70729 Y2.27853
G01 X-45.59176 Y2.32198
G01 X-45.57085 Y2.32977
G01 X-45.53471 Y2.34311
G01 X-45.51533 Y2.35033
G01 X-45.37929 Y2.40143
G01 X-45.38267 Y3.16656
G01 X-45.38252 Y3.26621
G01 X-45.38064 Y3.50605
G01 X-45.38075 Y3.57312
G01 X-45.38194 Y3.67748
G01 X-45.38186 Y3.72869
G01 X-45.38101 Y3.78427
G01 X-45.38107 Y3.82593
G01 X-45.38170 Y3.85788
G01 X-45.38164 Y3.89340
G01 X-45.38117 Y3.91308
G01 X-45.38122 Y3.94430
G01 X-45.38158 Y3.95710
G01 X-45.38154 Y3.98516
G01 X-45.38128 Y3.99285
G01 X-45.38132 Y4.01864
G01 X-45.38150 Y4.02335
G01 X-45.38147 Y4.04745
G01 X-45.38135 Y4.05031
G01 X-45.38137 Y4.07319
G01 X-45.38144 Y4.07470
G01 X-45.38142 Y4.09667
G01 X-45.38138 Y4.09759
G01 X-45.38139 Y4.11893
G01 X-45.38141 Y4.11935
G01 X-45.38141 Y4.14030
G01 X-45.38141 Y4.14035
G01 X-45.38114 Y4.15074
G01 X-45.38114 Y4.16121
G01 X-45.38003 Y4.18229
G01 X-45.37783 Y4.20317
G01 X-45.37521 Y4.22088
G01 X-45.38197 Y4.23000
G01 X-45.39419 Y4.24823
G01 X-45.40595 Y4.26784
G01 X-45.41346 Y4.28186
G01 X-45.42273 Y4.30144
G01 X-45.42732 Y4.31250
G01 X-45.43432 Y4.33208
G01 X-45.43704 Y4.34102
G01 X-45.44196 Y4.36064
G01 X-45.44347 Y4.36821
G01 X-45.44637 Y4.38780
G01 X-45.44704 Y4.39458
G01 X-45.44801 Y4.41415
G01 X-45.44809 Y4.41744
G01 X-45.44809 Y4.55054
G01 X-45.44801 Y4.55382
G01 X-45.44704 Y4.57342
G01 X-45.44637 Y4.58021
G01 X-45.44347 Y4.59980
G01 X-45.44196 Y4.60737
G01 X-45.43704 Y4.62698
G01 X-45.43432 Y4.63593
G01 X-45.42732 Y4.65551
G01 X-45.42523 Y4.66092
G01 X-45.41572 Y4.68389
G01 X-45.41299 Y4.69098
G01 X-45.40524 Y4.71281
G01 X-45.39957 Y4.73207
G01 X-45.39386 Y4.75590
G01 X-45.38892 Y4.78290
G01 X-45.38548 Y4.80900
G01 X-45.38244 Y4.84868
G01 X-45.38167 Y4.87747
G01 X-45.38154 Y4.88394
G01 X-45.38116 Y4.91177
G01 X-45.38142 Y4.94157
G01 X-45.38146 Y4.94301
G01 X-45.38175 Y4.97671
G01 X-45.38104 Y5.03640
G01 X-45.38121 Y5.07831
G01 X-45.38173 Y5.10628
G01 X-45.38197 Y5.15712
G01 X-45.38074 Y5.30666
G01 X-45.38077 Y5.37419
G01 X-45.38242 Y5.56889
G01 X-45.38264 Y5.66822
G01 X-45.37970 Y6.46159
G01 X-45.57085 Y6.46702
G01 X-45.59176 Y6.46702
G01 X-45.71639 Y6.46471
G01 X-45.84802 Y6.46728
G01 X-45.98137 Y6.46728
G01 X-46.15583 Y6.46276
G01 X-46.17672 Y6.46168
G01 X-46.53757 Y6.42366
G01 X-46.55846 Y6.42034
G01 X-46.92634 Y6.34183
G01 X-46.94722 Y6.33623
G01 X-47.33801 Y6.20899
G01 X-47.35891 Y6.20098
G01 X-47.78984 Y6.00848
G01 X-47.81074 Y5.99782
G01 X-48.28633 Y5.72214
G01 X-48.30724 Y5.70856
G01 X-48.85844 Y5.30647
G01 X-48.87932 Y5.28957
G01 X-49.20823 Y5.00761
G01 X-49.53714 Y4.69435
G01 X-49.55804 Y4.67345
G01 X-49.96672 Y4.24076
G01 X-50.37539 Y3.76004
G01 X-50.39627 Y3.73425
G01 X-50.92996 Y3.03441
G01 X-51.46364 Y2.25313
G01 X-51.48455 Y2.22092
G01 X-52.13630 Y1.15670
G01 X-52.74454 Y0.05080
G04 P0 ( dwell for no time -- G64 should not smooth over this point )
G00 Z10.00000 ( retract )

G00 X-6.78997 Y41.17073 ( rapid move to begin. )
G01 F30.00000
G01 Z-0.10000
G04 P0 ( dwell for no time -- G64 should not smooth over this point )
G01 F360.00000
G01 X-6.78997 Y41.17073
G01 X-6.79122 Y41.18434
G01 X-6.80967 Y41.34005
G01 X-6.81424 Y41.36660
G01 X-6.82142 Y41.39834
G01 X-6.86451 Y41.51513
G01 X-6.87502 Y41.53960
G01 X-6.90972 Y41.60998
G01 X-6.95343 Y41.67540
G01 X-6.96938 Y41.69676
G01 X-7.04903 Y41.79251
G01 X-7.07289 Y41.81458
G01 X-7.09360 Y41.83180
G01 X-7.21925 Y41.92563
G01 X-7.23052 Y41.93359
G01 X-7.24280 Y41.93925
G01 X-7.38687 Y42.00114
G01 X-7.41213 Y42.01046
G01 X-7.44319 Y42.02010
G01 X-7.56591 Y42.04120
G01 X-7.59239 Y42.04434
G01 X-7.67080 Y42.04948
G01 X-7.74918 Y42.04434
G01 X-7.77566 Y42.04120
G01 X-7.89841 Y42.02010
G01 X-7.92945 Y42.01046
G01 X-7.95470 Y42.00115
G01 X-8.09879 Y41.93925
G01 X-8.11108 Y41.93359
G01 X-8.12236 Y41.92562
G01 X-8.24799 Y41.83180
G01 X-8.26869 Y41.81458
G01 X-8.29257 Y41.79250
G01 X-8.37220 Y41.69677
G01 X-8.38815 Y41.67540
G01 X-8.43187 Y41.60998
G01 X-8.46656 Y41.53960
G01 X-8.47707 Y41.51514
G01 X-8.52016 Y41.39835
G01 X-8.52735 Y41.36660
G01 X-8.53191 Y41.34008
G01 X-8.55036 Y41.18436
G01 X-8.55161 Y41.17073
G01 X-8.55036 Y41.15711
G01 X-8.53191 Y41.00137
G01 X-8.52735 Y40.97484
G01 X-8.52017 Y40.94312
G01 X-8.47707 Y40.82630
G01 X-8.46656 Y40.80184
G01 X-8.43187 Y40.73148
G01 X-8.38815 Y40.66604
G01 X-8.37219 Y40.64468
G01 X-8.29257 Y40.54896
G01 X-8.26868 Y40.52687
G01 X-8.24798 Y40.50965
G01 X-8.12235 Y40.41582
G01 X-8.11108 Y40.40787
G01 X-8.09879 Y40.40220
G01 X-7.95470 Y40.34030
G01 X-7.92945 Y40.33099
G01 X-7.89842 Y40.32135
G01 X-7.77566 Y40.30025
G01 X-7.74918 Y40.29711
G01 X-7.67080 Y40.29197
G01 X-7.59239 Y40.29712
G01 X-7.56592 Y40.30025
G01 X-7.44318 Y40.32135
G01 X-7.41213 Y40.33099
G01 X-7.38687 Y40.34031
G01 X-7.24280 Y40.40221
G01 X-7.23052 Y40.40787
G01 X-7.21926 Y40.41582
G01 X-7.09361 Y40.50965
G01 X-7.07290 Y40.52687
G01 X-7.04902 Y40.54895
G01 X-6.96939 Y40.64468
G01 X-6.95344 Y40.66605
G01 X-6.90972 Y40.73148
G01 X-6.87503 Y40.80185
G01 X-6.86452 Y40.82631
G01 X-6.82142 Y40.94312
G01 X-6.81424 Y40.97484
G01 X-6.80967 Y41.00139
G01 X-6.79122 Y41.15713
G01 X-6.78997 Y41.17073
G01 X-6.78997 Y41.17073
G01 X-6.79122 Y41.15713
G01 X-6.80967 Y41.00139
G01 X-6.81424 Y40.97484
G01 X-6.82142 Y40.94312
G01 X-6.86452 Y40.82631
G01 X-6.87503 Y40.80185
G01 X-6.90972 Y40.73148
G01 X-6.95344 Y40.66605
G01 X-6.96939 Y40.64468
G01 X-7.04902 Y40.54895
G01 X-7.07290 Y40.52687
G01 X-7.09361 Y40.50965
G01 X-7.21926 Y40.41582
G01 X-7.23052 Y40.40787
G01 X-7.24280 Y40.40221
G01 X-7.38687 Y40.34031
G01 X-7.41213 Y40.33099
G01 X-7.44318 Y40.32135
G01 X-7.56592 Y40.30025
G01 X-7.59239 Y40.29712
G01 X-7.67080 Y40.29197
G01 X-7.74918 Y40.29711
G01 X-7.77566 Y40.30025
G01 X-7.89842 Y40.32135
G01 X-7.92945 Y40.33099
G01 X-7.95470 Y40.34030
G01 X-8.09879 Y40.40220
G01 X-8.11108 Y40.40787
G01 X-8.12235 Y40.41582
G01 X-8.24798 Y40.50965
G01 X-8.26868 Y40.52687
G01 X-8.29257 Y40.54896
G01 X-8.37219 Y40.64468
G01 X-8.38815 Y40.66604
G01 X-8.43187 Y40.73148
G01 X-8.46656 Y40.80184
G01 X-8.47707 Y40.82630
G01 X-8.52017 Y40.94312
G01 X-8.52735 Y40.97484
G01 X-8.53191 Y41.00137
G01 X-8.55036 Y41.15711
G01 X-8.55161 Y41.17073
G01 X-8.55036 Y41.18436
G01 X-8.53191 Y41.34008
G01 X-8.52735 Y41.36660
G01 X-8.52016 Y41.39835
G01 X-8.47707 Y41.51514
G01 X-8.46656 Y41.53960
G01 X-8.43187 Y41.60998
G01 X-8.38815 Y41.67540
G01 X-8.37220 Y41.69677
G01 X-8.29257 Y41.79250
G01 X-8.26869 Y41.81458
G01 X-8.24799 Y41.83180
G01 X-8.12236 Y41.92562
G01 X-8.11108 Y41.93359
G01 X-8.09879 Y41.93925
G01 X-7.95470 Y42.00115
G01 X-7.92945 Y42.01046
G01 X-7.89841 Y42.02010
G01 X-7.77566 Y42.04120
G01 X-7.74918 Y42.04434
G01 X-7.67080 Y42.04948
G01 X-7.59239 Y42.04434
G01 X-7.56591 Y42.04120
G01 X-7.44319 Y42.02010
G01 X-7.41213 Y42.01046
G01 X-7.38687 Y42.00114
G01 X-7.24280 Y41.93925
G01 X-7.23052 Y41.93359
G01 X-7.21925 Y41.92563
G01 X-7.09360 Y41.83180
G01 X-7.07289 Y41.81458
G01 X-7.04903 Y41.79251
G01 X-6.96938 Y41.69676
G01 X-6.95343 Y41.67540
G01 X-6.90972 Y41.60998
G01 X-6.87502 Y41.53960
G01 X-6.86451 Y41.51513
G01 X-6.82142 Y41.39834
G01 X-6.81424 Y41.36660
G01 X-6.80967 Y41.34005
G01 X-6.79122 Y41.18434
G01 X-6.78997 Y41.17073
G04 P0 ( dwell for no time -- G64 should not smooth over this point )
G00 Z10.00000 ( retract )

G00 X-6.79373 Y42.96067 ( rapid move to begin. )
G01 F30.00000
G01 Z-0.10000
G04 P0 ( dwell for no time -- G64 should not smooth over this point )
G01 F360.00000
G01 X-6.79373 Y42.96067
G01 X-6.79373 Y44.46080
G01 X-6.81551 Y44.56600
G01 X-6.92074 Y44.58780
G01 X-8.42086 Y44.58780
G01 X-8.52607 Y44.56601
G01 X-8.54786 Y44.46080
G01 X-8.54786 Y42.96067
G01 X-8.52607 Y42.85546
G01 X-8.42086 Y42.83367
G01 X-6.92074 Y42.83367
G01 X-6.81551 Y42.85547
G01 X-6.79373 Y42.96067
G01 X-6.79373 Y42.96067
G01 X-6.81551 Y42.85547
G01 X-6.92074 Y42.83367
G01 X-8.42086 Y42.83367
G01 X-8.52607 Y42.85546
G01 X-8.54786 Y42.96067
G01 X-8.54786 Y44.46080
G01 X-8.52607 Y44.56601
G01 X-8.42086 Y44.58780
G01 X-6.92074 Y44.58780
G01 X-6.81551 Y44.56600
G01 X-6.79373 Y44.46080
G01 X-6.79373 Y42.96067
G04 P0 ( dwell for no time -- G64 should not smooth over this point )
G00 Z10.00000 ( retract )

G00 X-27.10999 Y41.17073 ( rapid move to begin. )
G01 F30.00000
G01 Z-0.10000
G04 P0 ( dwell for no time -- G64 should not smooth over this point )
G01 F360.00000
G01 X-27.10999 Y41.17073
G01 X-27.11124 Y41.18434
G01 X-27.12967 Y41.34005
G01 X-27.13424 Y41.36660
G01 X-27.14143 Y41.39835
G01 X-27.18451 Y41.51513
G01 X-27.19502 Y41.53960
G01 X-27.22972 Y41.60998
G01 X-27.27343 Y41.67540
G01 X-27.28938 Y41.69676
G01 X-27.36903 Y41.79251
G01 X-27.39289 Y41.81458
G01 X-27.41360 Y41.83180
G01 X-27.53925 Y41.92563
G01 X-27.55052 Y41.93359
G01 X-27.56280 Y41.93925
G01 X-27.70687 Y42.00114
G01 X-27.73213 Y42.01046
G01 X-27.76319 Y42.02010
G01 X-27.88591 Y42.04120
G01 X-27.91239 Y42.04434
G01 X-27.99080 Y42.04948
G01 X-28.06918 Y42.04434
G01 X-28.09566 Y42.04120
G01 X-28.21841 Y42.02010
G01 X-28.24945 Y42.01046
G01 X-28.27470 Y42.00115
G01 X-28.41879 Y41.93925
G01 X-28.43108 Y41.93359
G01 X-28.44236 Y41.92562
G01 X-28.56799 Y41.83180
G01 X-28.58869 Y41.81458
G01 X-28.61257 Y41.79250
G01 X-28.69220 Y41.69677
G01 X-28.70815 Y41.67540
G01 X-28.75187 Y41.60998
G01 X-28.78656 Y41.53960
G01 X-28.79707 Y41.51514
G01 X-28.84016 Y41.39835
G01 X-28.84735 Y41.36660
G01 X-28.85191 Y41.34008
G01 X-28.87036 Y41.18436
G01 X-28.87161 Y41.17073
G01 X-28.87036 Y41.15711
G01 X-28.85191 Y41.00137
G01 X-28.84735 Y40.97484
G01 X-28.84017 Y40.94312
G01 X-28.79707 Y40.82630
G01 X-28.78656 Y40.80184
G01 X-28.75187 Y40.73148
G01 X-28.70815 Y40.66604
G01 X-28.69219 Y40.64468
G01 X-28.61257 Y40.54896
G01 X-28.58868 Y40.52687
G01 X-28.56798 Y40.50965
G01 X-28.44235 Y40.41582
G01 X-28.43108 Y40.40787
G01 X-28.41879 Y40.40220
G01 X-28.27470 Y40.34030
G01 X-28.24945 Y40.33099
G01 X-28.21842 Y40.32135
G01 X-28.09566 Y40.30025
G01 X-28.06918 Y40.29711
G01 X-27.99080 Y40.29197
G01 X-27.91239 Y40.29712
G01 X-27.88592 Y40.30025
G01 X-27.76318 Y40.32135
G01 X-27.73213 Y40.33099
G01 X-27.70687 Y40.34031
G01 X-27.56280 Y40.40221
G01 X-27.55052 Y40.40787
G01 X-27.53926 Y40.41582
G01 X-27.41361 Y40.50965
G01 X-27.39290 Y40.52687
G01 X-27.36902 Y40.54895
G01 X-27.28939 Y40.64468
G01 X-27.27344 Y40.66605
G01 X-27.22972 Y40.73148
G01 X-27.19503 Y40.80185
G01 X-27.18452 Y40.82631
G01 X-27.14142 Y40.94312
G01 X-27.13424 Y40.97484
G01 X-27.12967 Y41.00139
G01 X-27.11124 Y41.15713
G01 X-27.10999 Y41.17073
G01 X-27.10999 Y41.17073
G01 X-27.11124 Y41.15713
G01 X-27.12967 Y41.00139
G01 X-27.13424 Y40.97484
G01 X-27.14142 Y40.94312
G01 X-27.18452 Y40.82631
G01 X-27.19503 Y40.80185
G01 X-27.22972 Y40.73148
G01 X-27.27344 Y40.66605
G01 X-27.28939 Y40.64468
G01 X-27.36902 Y40.54895
G01 X-27.39290 Y40.52687
G01 X-27.41361 Y40.50965
G01 X-27.53926 Y40.41582
G01 X-27.55052 Y40.40787
G01 X-27.56280 Y40.40221
G01 X-27.70687 Y40.34031
G01 X-27.73213 Y40.33099
G01 X-27.76318 Y40.32135
G01 X-27.88592 Y40.30025
G01 X-27.91239 Y40.29712
G01 X-27.99080 Y40.29197
G01 X-28.06918 Y40.29711
G01 X-28.09566 Y40.30025
G01 X-28.21842 Y40.32135
G01 X-28.24945 Y40.33099
G01 X-28.27470 Y40.34030
G01 X-28.41879 Y40.40220
G01 X-28.43108 Y40.40787
G01 X-28.44235 Y40.41582
G01 X-28.56798 Y40.50965
G01 X-28.58868 Y40.52687
G01 X-28.61257 Y40.54896
G01 X-28.69219 Y40.64468
G01 X-28.70815 Y40.66604
G01 X-28.75187 Y40.73148
G01 X-28.78656 Y40.80184
G01 X-28.79707 Y40.82630
G01 X-28.84017 Y40.94312
G01 X-28.84735 Y40.97484
G01 X-28.85191 Y41.00137
G01 X-28.87036 Y41.15711
G01 X-28.87161 Y41.17073
G01 X-28.87036 Y41.18436
G01 X-28.85191 Y41.34008
G01 X-28.84735 Y41.36660
G01 X-28.84016 Y41.39835
G01 X-28.79707 Y41.51514
G01 X-28.78656 Y41.53960
G01 X-28.75187 Y41.60998
G01 X-28.70815 Y41.67540
G01 X-28.69220 Y41.69677
G01 X-28.61257 Y41.79250
G01 X-28.58869 Y41.81458
G01 X-28.56799 Y41.83180
G01 X-28.44236 Y41.92562
G01 X-28.43108 Y41.93359
G01 X-28.41879 Y41.93925
G01 X-28.27470 Y42.00115
G01 X-28.24945 Y42.01046
G01 X-28.21841 Y42.02010
G01 X-28.09566 Y42.04120
G01 X-28.06918 Y42.04434
G01 X-27.99080 Y42.04948
G01 X-27.91239 Y42.04434
G01 X-27.88591 Y42.04120
G01 X-27.76319 Y42.02010
G01 X-27.73213 Y42.01046
G01 X-27.70687 Y42.00114
G01 X-27.56280 Y41.93925
G01 X-27.55052 Y41.93359
G01 X-27.53925 Y41.92563
G01 X-27.41360 Y41.83180
G01 X-27.39289 Y41.81458
G01 X-27.36903 Y41.79251
G01 X-27.28938 Y41.69676
G01 X-27.27343 Y41.67540
G01 X-27.22972 Y41.60998
G01 X-27.19502 Y41.53960
G01 X-27.18451 Y41.51513
G01 X-27.14143 Y41.39835
G01 X-27.13424 Y41.36660
G01 X-27.12967 Y41.34005
G01 X-27.11124 Y41.18434
G01 X-27.10999 Y41.17073
G04 P0 ( dwell for no time -- G64 should not smooth over this point )
G00 Z10.00000 ( retract )

G00 X-55.04999 Y38.63073 ( rapid move to begin. )
G01 F30.00000
G01 Z-0.10000
G04 P0 ( dwell for no time -- G64 should not smooth over this point )
G01 F360.00000
G01 X-55.04999 Y38.63073
G01 X-55.05124 Y38.64434
G01 X-55.06967 Y38.80005
G01 X-55.07424 Y38.82660
G01 X-55.08143 Y38.85835
G01 X-55.12451 Y38.97513
G01 X-55.13502 Y38.99960
G01 X-55.16972 Y39.06998
G01 X-55.21343 Y39.13540
G01 X-55.22938 Y39.15676
G01 X-55.30903 Y39.25251
G01 X-55.33289 Y39.27458
G01 X-55.35360 Y39.29180
G01 X-55.47925 Y39.38563
G01 X-55.49052 Y39.39359
G01 X-55.50280 Y39.39925
G01 X-55.64687 Y39.46114
G01 X-55.67213 Y39.47046
G01 X-55.70319 Y39.48010
G01 X-55.82591 Y39.50120
G01 X-55.85239 Y39.50434
G01 X-55.93081 Y39.50948
G01 X-56.00918 Y39.50435
G01 X-56.03566 Y39.50121
G01 X-56.16623 Y39.47877
G01 X-56.19057 Y39.47573
G01 X-56.21980 Y39.47343
G01 X-56.27679 Y39.51689
G01 X-62.64000 Y45.88010
G01 X-62.66588 Y45.91018
G01 X-62.67374 Y45.97337
G01 X-62.67374 Y47.00080
G01 X-62.69553 Y47.10601
G01 X-62.80074 Y47.12780
G01 X-64.30086 Y47.12780
G01 X-64.40607 Y47.10601
G01 X-64.42786 Y47.00080
G01 X-64.42786 Y45.50067
G01 X-64.40607 Y45.39546
G01 X-64.30086 Y45.37367
G01 X-63.27343 Y45.37367
G01 X-63.21024 Y45.36581
G01 X-63.18017 Y45.33993
G01 X-56.81696 Y38.97673
G01 X-56.77184 Y38.91681
G01 X-56.77842 Y38.86611
G01 X-56.78736 Y38.82661
G01 X-56.79192 Y38.80008
G01 X-56.81036 Y38.64436
G01 X-56.81162 Y38.63074
G01 X-56.81036 Y38.61711
G01 X-56.79191 Y38.46137
G01 X-56.78735 Y38.43484
G01 X-56.78017 Y38.40312
G01 X-56.73707 Y38.28630
G01 X-56.72656 Y38.26184
G01 X-56.69187 Y38.19148
G01 X-56.64815 Y38.12604
G01 X-56.63219 Y38.10468
G01 X-56.55257 Y38.00896
G01 X-56.52868 Y37.98687
G01 X-56.50798 Y37.96965
G01 X-56.38235 Y37.87582
G01 X-56.37108 Y37.86787
G01 X-56.35879 Y37.86220
G01 X-56.21470 Y37.80030
G01 X-56.18945 Y37.79099
G01 X-56.15842 Y37.78135
G01 X-56.03566 Y37.76025
G01 X-56.00918 Y37.75711
G01 X-55.93080 Y37.75197
G01 X-55.85239 Y37.75712
G01 X-55.82592 Y37.76025
G01 X-55.70318 Y37.78135
G01 X-55.67213 Y37.79099
G01 X-55.64687 Y37.80031
G01 X-55.50280 Y37.86221
G01 X-55.49052 Y37.86787
G01 X-55.47926 Y37.87582
G01 X-55.35361 Y37.96965
G01 X-55.33290 Y37.98687
G01 X-55.30902 Y38.00895
G01 X-55.22939 Y38.10468
G01 X-55.21344 Y38.12605
G01 X-55.16972 Y38.19148
G01 X-55.13503 Y38.26185
G01 X-55.12452 Y38.28631
G01 X-55.08142 Y38.40312
G01 X-55.07424 Y38.43484
G01 X-55.06967 Y38.46139
G01 X-55.05124 Y38.61713
G01 X-55.04999 Y38.63073
G01 X-55.04999 Y38.63073
G01 X-55.05124 Y38.61713
G01 X-55.06967 Y38.46139
G01 X-55.07424 Y38.43484
G01 X-55.08142 Y38.40312
G01 X-55.12452 Y38.28631
G01 X-55.13503 Y38.26185
G01 X-55.16972 Y38.19148
G01 X-55.21344 Y38.12605
G01 X-55.22939 Y38.10468
G01 X-55.30902 Y38.00895
G01 X-55.33290 Y37.98687
G01 X-55.35361 Y37.96965
G01 X-55.47926 Y37.87582
G01 X-55.49052 Y37.86787
G01 X-55.50280 Y37.86221
G01 X-55.64687 Y37.80031
G01 X-55.67213 Y37.79099
G01 X-55.70318 Y37.78135
G01 X-55.82592 Y37.76025
G01 X-55.85239 Y37.75712
G01 X-55.93080 Y37.75197
G01 X-56.00918 Y37.75711
G01 X-56.03566 Y37.76025
G01 X-56.15842 Y37.78135
G01 X-56.18945 Y37.79099
G01 X-56.21470 Y37.80030
G01 X-56.35879 Y37.86220
G01 X-56.37108 Y37.86787
G01 X-56.38235 Y37.87582
G01 X-56.50798 Y37.96965
G01 X-56.52868 Y37.98687
G01 X-56.55257 Y38.00896
G01 X-56.63219 Y38.10468
G01 X-56.64815 Y38.12604
G01 X-56.69187 Y38.19148
G01 X-56.72656 Y38.26184
G01 X-56.73707 Y38.28630
G01 X-56.78017 Y38.40312
G01 X-56.78735 Y38.43484
G01 X-56.79191 Y38.46137
G01 X-56.81036 Y38.61711
G01 X-56.81162 Y38.63074
G01 X-56.81036 Y38.64436
G01 X-56.79192 Y38.80008
G01 X-56.78736 Y38.82661
G01 X-56.77842 Y38.86611
G01 X-56.77184 Y38.91681
G01 X-56.81696 Y38.97673
G01 X-63.18017 Y45.33993
G01 X-63.21024 Y45.36581
G01 X-63.27343 Y45.37367
G01 X-64.30086 Y45.37367
G01 X-64.40607 Y45.39546
G01 X-64.42786 Y45.50067
G01 X-64.42786 Y47.00080
G01 X-64.40607 Y47.10601
G01 X-64.30086 Y47.12780
G01 X-62.80074 Y47.12780
G01 X-62.69553 Y47.10601
G01 X-62.67374 Y47.00080
G01 X-62.67374 Y45.97337
G01 X-62.66588 Y45.91018
G01 X-62.64000 Y45.88010
G01 X-56.27679 Y39.51689
G01 X-56.21980 Y39.47343
G01 X-56.19057 Y39.47573
G01 X-56.16623 Y39.47877
G01 X-56.03566 Y39.50121
G01 X-56.00918 Y39.50435
G01 X-55.93081 Y39.50948
G01 X-55.85239 Y39.50434
G01 X-55.82591 Y39.50120
G01 X-55.70319 Y39.48010
G01 X-55.67213 Y39.47046
G01 X-55.64687 Y39.46114
G01 X-55.50280 Y39.39925
G01 X-55.49052 Y39.39359
G01 X-55.47925 Y39.38563
G01 X-55.35360 Y39.29180
G01 X-55.33289 Y39.27458
G01 X-55.30903 Y39.25251
G01 X-55.22938 Y39.15676
G01 X-55.21343 Y39.13540
G01 X-55.16972 Y39.06998
G01 X-55.13502 Y38.99960
G01 X-55.12451 Y38.97513
G01 X-55.08143 Y38.85835
G01 X-55.07424 Y38.82660
G01 X-55.06967 Y38.80005
G01 X-55.05124 Y38.64434
G01 X-55.04999 Y38.63073
G04 P0 ( dwell for no time -- G64 should not smooth over this point )
G00 Z10.00000 ( retract )

G00 X-38.98778 Y0.05080 ( rapid move to begin. )
G01 F30.00000
G01 Z-0.10000
G04 P0 ( dwell for no time -- G64 should not smooth over this point )
G01 F360.00000
G01 X-38.98778 Y0.05080
G01 X-38.98816 Y0.05711
G01 X-38.99434 Y0.10826
G01 X-38.99455 Y0.10958
G01 X-38.99473 Y0.11094
G01 X-39.00182 Y0.15335
G01 X-39.01048 Y0.19114
G01 X-39.01107 Y0.19336
G01 X-39.01162 Y0.19565
G01 X-39.02116 Y0.22995
G01 X-39.03105 Y0.25877
G01 X-39.03223 Y0.26184
G01 X-39.03335 Y0.26499
G01 X-39.04068 Y0.28410
G01 X-39.16057 Y0.57354
G01 X-39.16278 Y0.57927
G01 X-39.17018 Y0.60016
G01 X-39.17300 Y0.60964
G01 X-39.17800 Y0.63053
G01 X-39.17948 Y0.63844
G01 X-39.18223 Y0.65935
G01 X-39.18279 Y0.66650
G01 X-39.18334 Y0.68738
G01 X-39.18315 Y0.69439
G01 X-39.18151 Y0.71530
G01 X-39.18053 Y0.72271
G01 X-39.17667 Y0.74360
G01 X-39.17459 Y0.75222
G01 X-39.16840 Y0.77312
G01 X-39.16468 Y0.78360
G01 X-39.15602 Y0.80451
G01 X-39.14996 Y0.81725
G01 X-39.14963 Y0.81786
G01 X-39.14646 Y0.82410
G01 X-39.13893 Y0.83974
G01 X-39.13639 Y0.84480
G01 X-39.12873 Y0.85958
G01 X-39.12601 Y0.86497
G01 X-39.11615 Y0.88514
G01 X-39.11419 Y0.88908
G01 X-39.09829 Y0.92047
G01 X-39.09661 Y0.92382
G01 X-39.08224 Y0.95273
G01 X-39.08155 Y0.95410
G01 X-39.04434 Y1.02848
G01 X-39.04240 Y1.03235
G01 X-39.02242 Y1.07193
G01 X-39.01906 Y1.07862
G01 X-38.98244 Y1.15212
G01 X-38.88956 Y1.32385
G01 X-38.84914 Y1.39394
G01 X-38.83765 Y1.41376
G01 X-38.85989 Y1.42679
G01 X-38.87721 Y1.43716
G01 X-38.93052 Y1.47084
G01 X-38.98271 Y1.50559
G01 X-38.98352 Y1.50614
G01 X-39.00563 Y1.50847
G01 X-39.11467 Y1.52083
G01 X-39.13297 Y1.52277
G01 X-39.13586 Y1.52305
G01 X-39.15397 Y1.52496
G01 X-39.24600 Y1.53541
G01 X-39.26238 Y1.53714
G01 X-39.26593 Y1.53749
G01 X-39.28222 Y1.53921
G01 X-39.31666 Y1.54312
G01 X-39.38164 Y1.54840
G01 X-39.40121 Y1.54935
G01 X-39.45001 Y1.55054
G01 X-39.58336 Y1.55054
G01 X-39.63281 Y1.55177
G01 X-39.65238 Y1.55273
G01 X-39.71671 Y1.55798
G01 X-39.75180 Y1.56196
G01 X-39.76690 Y1.56357
G01 X-39.77164 Y1.56404
G01 X-39.78325 Y1.56525
G01 X-39.78666 Y1.56454
G01 X-39.79451 Y1.56291
G01 X-39.81372 Y1.55876
G01 X-39.88612 Y1.54236
G01 X-39.90533 Y1.53820
G01 X-39.91258 Y1.53670
G01 X-39.93187 Y1.53252
G01 X-39.98316 Y1.52091
G01 X-39.98326 Y1.52089
G01 X-39.98326 Y1.46989
G01 X-39.98326 Y1.46986
G01 X-39.98326 Y1.42841
G01 X-39.98326 Y1.42826
G01 X-39.98328 Y1.29133
G01 X-39.98328 Y1.29067
G01 X-39.98326 Y1.26046
G01 X-39.98326 Y1.25978
G01 X-39.98327 Y1.21745
G01 X-39.98327 Y1.21693
G01 X-39.98314 Y0.95088
G01 X-39.98314 Y0.95061
G01 X-39.98315 Y0.93936
G01 X-39.98315 Y0.93897
G01 X-39.98321 Y0.91408
G01 X-39.98320 Y0.91199
G01 X-39.98308 Y0.89962
G01 X-39.98308 Y0.89710
G01 X-39.98326 Y0.87748
G01 X-39.98323 Y0.87356
G01 X-39.98307 Y0.86792
G01 X-39.98304 Y0.86394
G01 X-39.98331 Y0.84752
G01 X-39.98321 Y0.84227
G01 X-39.98310 Y0.84024
G01 X-39.98302 Y0.83486
G01 X-39.98334 Y0.82057
G01 X-39.98333 Y0.81725
G01 X-39.98324 Y0.81390
G01 X-39.98342 Y0.80687
G01 X-39.98506 Y0.78599
G01 X-39.98604 Y0.77853
G01 X-39.98990 Y0.75762
G01 X-39.99197 Y0.74900
G01 X-39.99814 Y0.72812
G01 X-40.00187 Y0.71761
G01 X-40.01051 Y0.69672
G01 X-40.01689 Y0.68337
G01 X-40.02824 Y0.66246
G01 X-40.03900 Y0.64495
G01 X-40.05334 Y0.62407
G01 X-40.07133 Y0.60070
G01 X-40.08916 Y0.57979
G01 X-40.11986 Y0.54756
G01 X-40.12329 Y0.54431
G01 X-40.01550 Y0.28410
G01 X-40.01273 Y0.27785
G01 X-40.00524 Y0.26202
G01 X-40.00389 Y0.25908
G01 X-40.00284 Y0.25670
G01 X-39.99916 Y0.24913
G01 X-39.99369 Y0.23888
G01 X-39.99009 Y0.23142
G01 X-39.98939 Y0.22982
G01 X-39.98587 Y0.22253
G01 X-39.98044 Y0.21237
G01 X-39.97694 Y0.20513
G01 X-39.97625 Y0.20354
G01 X-39.97266 Y0.19613
G01 X-39.96716 Y0.18583
G01 X-39.96352 Y0.17833
G01 X-39.96237 Y0.17573
G01 X-39.96112 Y0.17301
G01 X-39.95352 Y0.15690
G01 X-39.94823 Y0.14407
G01 X-39.94094 Y0.12369
G01 X-39.93565 Y0.10613
G01 X-39.93011 Y0.08398
G01 X-39.92534 Y0.05970
G01 X-39.92402 Y0.05080
G01 X-38.98778 Y0.05080
G01 X-38.98778 Y0.05080
G01 X-38.32462 Y0.05080
G01 X-38.32712 Y0.06677
G01 X-38.33230 Y0.09112
G01 X-38.33781 Y0.11177
G01 X-38.34505 Y0.13409
G01 X-38.35077 Y0.14902
G01 X-38.35986 Y0.16946
G01 X-38.36149 Y0.17297
G01 X-38.36401 Y0.17817
G01 X-38.36523 Y0.18062
G01 X-38.37313 Y0.19602
G01 X-38.37492 Y0.19967
G01 X-38.37743 Y0.20507
G01 X-38.37944 Y0.20914
G01 X-38.38641 Y0.22251
G01 X-38.38895 Y0.22774
G01 X-38.39057 Y0.23134
G01 X-38.39353 Y0.23739
G01 X-38.39971 Y0.24904
G01 X-38.40327 Y0.25638
G01 X-38.40445 Y0.25906
G01 X-38.40580 Y0.26202
G01 X-38.41330 Y0.27786
G01 X-38.41606 Y0.28410
G01 X-38.47130 Y0.41745
G01 X-38.47609 Y0.42988
G01 X-38.48340 Y0.45033
G01 X-38.49262 Y0.48090
G01 X-38.49817 Y0.50310
G01 X-38.50604 Y0.54308
G01 X-38.50717 Y0.55069
G01 X-38.51093 Y0.55575
G01 X-38.53250 Y0.58806
G01 X-38.54288 Y0.60538
G01 X-38.56304 Y0.64314
G01 X-38.57193 Y0.66194
G01 X-38.58166 Y0.68390
G01 X-38.63690 Y0.81725
G01 X-38.64825 Y0.84669
G01 X-38.65556 Y0.86714
G01 X-38.67653 Y0.93669
G01 X-38.68208 Y0.95889
G01 X-38.69776 Y1.03634
G01 X-38.69932 Y1.04618
G01 X-38.70351 Y1.07066
G01 X-38.70715 Y1.09058
G01 X-38.71183 Y1.11799
G01 X-38.72389 Y1.19398
G01 X-38.72887 Y1.22349
G01 X-38.73794 Y1.27439
G01 X-38.74378 Y1.30898
G01 X-38.74428 Y1.31215
G01 X-38.75867 Y1.39243
G01 X-38.83765 Y1.41376
G01 X-38.84914 Y1.39394
G01 X-38.88956 Y1.32385
G01 X-38.98244 Y1.15212
G01 X-39.01906 Y1.07862
G01 X-39.02242 Y1.07193
G01 X-39.04240 Y1.03235
G01 X-39.04434 Y1.02848
G01 X-39.08155 Y0.95410
G01 X-39.08224 Y0.95273
G01 X-39.09661 Y0.92382
G01 X-39.09829 Y0.92047
G01 X-39.11419 Y0.88908
G01 X-39.11615 Y0.88514
G01 X-39.12601 Y0.86497
G01 X-39.12873 Y0.85958
G01 X-39.13639 Y0.84480
G01 X-39.13893 Y0.83974
G01 X-39.14646 Y0.82410
G01 X-39.14963 Y0.81786
G01 X-39.14996 Y0.81725
G01 X-39.15602 Y0.80451
G01 X-39.16468 Y0.78360
G01 X-39.16840 Y0.77312
G01 X-39.17459 Y0.75222
G01 X-39.17667 Y0.74360
G01 X-39.18053 Y0.72271
G01 X-39.18151 Y0.71530
G01 X-39.18315 Y0.69439
G01 X-39.18334 Y0.68738
G01 X-39.18279 Y0.66650
G01 X-39.18223 Y0.65935
G01 X-39.17948 Y0.63844
G01 X-39.17800 Y0.63053
G01 X-39.17300 Y0.60964
G01 X-39.17018 Y0.60016
G01 X-39.16278 Y0.57927
G01 X-39.16057 Y0.57354
G01 X-39.04068 Y0.28410
G01 X-39.03335 Y0.26499
G01 X-39.03223 Y0.26184
G01 X-39.03105 Y0.25877
G01 X-39.02116 Y0.22995
G01 X-39.01162 Y0.19565
G01 X-39.01107 Y0.19336
G01 X-39.01048 Y0.19114
G01 X-39.00182 Y0.15335
G01 X-38.99473 Y0.11094
G01 X-38.99455 Y0.10958
G01 X-38.99434 Y0.10826
G01 X-38.98816 Y0.05711
G01 X-38.98778 Y0.05080
G04 P0 ( dwell for no time -- G64 should not smooth over this point )
G00 Z10.00000 ( retract )

G00 X-41.35143 Y0.05080 ( rapid move to begin. )
G01 F30.00000
G01 Z-0.10000
G04 P0 ( dwell for no time -- G64 should not smooth over this point )
G01 F360.00000
G01 X-41.35143 Y0.05080
G01 X-41.36837 Y0.10687
G01 X-41.37567 Y0.12725
G01 X-41.39432 Y0.17240
G01 X-41.40321 Y0.19122
G01 X-41.42350 Y0.22926
G01 X-41.43388 Y0.24658
G01 X-41.45544 Y0.27888
G01 X-41.46725 Y0.29480
G01 X-41.49047 Y0.32311
G01 X-41.50363 Y0.33763
G01 X-41.51604 Y0.35066
G01 X-41.64938 Y0.48401
G01 X-41.66251 Y0.49784
G01 X-41.67652 Y0.51338
G01 X-41.69218 Y0.53196
G01 X-41.68369 Y0.54908
G01 X-41.68108 Y0.55427
G01 X-41.66758 Y0.58080
G01 X-41.66503 Y0.58588
G01 X-41.64988 Y0.61656
G01 X-41.64824 Y0.61983
G01 X-41.63716 Y0.64161
G01 X-41.63552 Y0.64488
G01 X-41.62723 Y0.66178
G01 X-41.62602 Y0.66420
G01 X-41.61629 Y0.68331
G01 X-41.61511 Y0.68568
G01 X-41.60980 Y0.69658
G01 X-41.60881 Y0.69857
G01 X-41.59986 Y0.71616
G01 X-41.59886 Y0.71816
G01 X-41.59488 Y0.72637
G01 X-41.59400 Y0.72815
G01 X-41.58539 Y0.74510
G01 X-41.58451 Y0.74688
G01 X-41.58088 Y0.75438
G01 X-41.57998 Y0.75619
G01 X-41.57136 Y0.77313
G01 X-41.57047 Y0.77493
G01 X-41.56649 Y0.78315
G01 X-41.56550 Y0.78514
G01 X-41.55655 Y0.80272
G01 X-41.55554 Y0.80475
G01 X-41.55024 Y0.81564
G01 X-41.54904 Y0.81804
G01 X-41.53931 Y0.83716
G01 X-41.53810 Y0.83957
G01 X-41.52983 Y0.85644
G01 X-41.52812 Y0.85986
G01 X-41.51710 Y0.88148
G01 X-41.51536 Y0.88494
G01 X-41.50021 Y0.91563
G01 X-41.49762 Y0.92079
G01 X-41.48413 Y0.94730
G01 X-41.48149 Y0.95255
G01 X-41.44691 Y1.02223
G01 X-41.44167 Y1.03267
G01 X-41.42368 Y1.06804
G01 X-41.41835 Y1.07862
G01 X-41.38172 Y1.15212
G01 X-41.28884 Y1.32385
G01 X-41.24842 Y1.39394
G01 X-41.18279 Y1.50469
G01 X-41.18279 Y1.55147
G01 X-41.21473 Y1.58614
G01 X-41.23918 Y1.61348
G01 X-41.25330 Y1.62905
G01 X-41.26789 Y1.64494
G01 X-41.28118 Y1.65959
G01 X-41.37021 Y1.75894
G01 X-41.38500 Y1.77524
G01 X-41.39276 Y1.78369
G01 X-41.40672 Y1.79906
G01 X-41.52105 Y1.92640
G01 X-41.53730 Y1.94429
G01 X-41.53831 Y1.94539
G01 X-41.55366 Y1.96229
G01 X-41.71376 Y2.14031
G01 X-41.72213 Y2.14957
G01 X-41.73269 Y2.16121
G01 X-41.73989 Y2.16918
G01 X-41.84929 Y2.29067
G01 X-41.95781 Y2.41647
G01 X-42.07641 Y2.51954
G01 X-42.09598 Y2.53727
G01 X-42.11574 Y2.55528
G01 X-42.12214 Y2.56116
G01 X-42.21458 Y2.55354
G01 X-42.23411 Y2.55187
G01 X-42.26251 Y2.54935
G01 X-42.28199 Y2.54768
G01 X-42.38229 Y2.53942
G01 X-42.38229 Y1.86611
G01 X-42.38229 Y1.86246
G01 X-42.38233 Y1.79855
G01 X-42.38233 Y1.79488
G01 X-42.38231 Y1.46989
G01 X-42.38231 Y1.46986
G01 X-42.38231 Y1.42841
G01 X-42.38231 Y1.42826
G01 X-42.38229 Y1.29133
G01 X-42.38229 Y1.29067
G01 X-42.38231 Y1.26046
G01 X-42.38231 Y1.25978
G01 X-42.38230 Y1.21745
G01 X-42.38230 Y1.21693
G01 X-42.38243 Y0.95088
G01 X-42.38243 Y0.95061
G01 X-42.38242 Y0.93961
G01 X-42.38242 Y0.93936
G01 X-42.38244 Y0.91420
G01 X-42.38244 Y0.91402
G01 X-42.38243 Y0.89972
G01 X-42.38243 Y0.89966
G01 X-42.38243 Y0.87748
G01 X-42.38243 Y0.87742
G01 X-42.38242 Y0.86804
G01 X-42.38242 Y0.86795
G01 X-42.38243 Y0.84753
G01 X-42.38243 Y0.84747
G01 X-42.38243 Y0.84027
G01 X-42.38243 Y0.84020
G01 X-42.38244 Y0.82055
G01 X-42.38244 Y0.82051
G01 X-42.38244 Y0.81725
G01 X-42.38244 Y0.68390
G01 X-42.38236 Y0.68059
G01 X-42.38139 Y0.66102
G01 X-42.38072 Y0.65421
G01 X-42.37781 Y0.63462
G01 X-42.37630 Y0.62703
G01 X-42.37138 Y0.60741
G01 X-42.36865 Y0.59844
G01 X-42.36165 Y0.57886
G01 X-42.35955 Y0.57343
G01 X-42.28076 Y0.38321
G01 X-42.28354 Y0.38013
G01 X-42.30441 Y0.35448
G01 X-42.31957 Y0.33359
G01 X-42.33176 Y0.31488
G01 X-42.34382 Y0.29400
G01 X-42.34908 Y0.28410
G01 X-42.35115 Y0.27984
G01 X-42.35235 Y0.27744
G01 X-42.35531 Y0.27163
G01 X-42.35813 Y0.26569
G01 X-42.36117 Y0.25972
G01 X-42.36320 Y0.25598
G01 X-42.36658 Y0.24899
G01 X-42.36763 Y0.24688
G01 X-42.37057 Y0.24109
G01 X-42.37340 Y0.23518
G01 X-42.37603 Y0.23004
G01 X-42.37767 Y0.22704
G01 X-42.38067 Y0.22080
G01 X-42.38169 Y0.21876
G01 X-42.38459 Y0.21306
G01 X-42.38736 Y0.20723
G01 X-42.39000 Y0.20207
G01 X-42.39180 Y0.19878
G01 X-42.39487 Y0.19242
G01 X-42.39591 Y0.19031
G01 X-42.39890 Y0.18445
G01 X-42.40171 Y0.17854
G01 X-42.40447 Y0.17312
G01 X-42.40450 Y0.17306
G01 X-42.41013 Y0.16121
G01 X-42.41877 Y0.14031
G01 X-42.42446 Y0.12415
G01 X-42.43120 Y0.10137
G01 X-42.43659 Y0.07870
G01 X-42.44119 Y0.05376
G01 X-42.44158 Y0.05080
G01 X-41.35143 Y0.05080
G01 X-41.35143 Y0.05080
G01 X-40.78279 Y0.05080
G01 X-40.78279 Y0.05159
G01 X-40.78318 Y0.06671
G01 X-40.78306 Y0.07668
G01 X-40.78290 Y0.07998
G01 X-40.78279 Y0.08836
G01 X-40.78318 Y0.10275
G01 X-40.78302 Y0.11081
G01 X-40.78296 Y0.11175
G01 X-40.78281 Y0.11902
G01 X-40.78318 Y0.13305
G01 X-40.78300 Y0.14022
G01 X-40.78299 Y0.14031
G01 X-40.78281 Y0.14731
G01 X-40.78317 Y0.16121
G01 X-40.78300 Y0.16821
G01 X-40.78298 Y0.16843
G01 X-40.78281 Y0.17572
G01 X-40.78317 Y0.18982
G01 X-40.78303 Y0.19731
G01 X-40.78294 Y0.19867
G01 X-40.78280 Y0.20706
G01 X-40.78317 Y0.22167
G01 X-40.78308 Y0.23036
G01 X-40.78288 Y0.23460
G01 X-40.78278 Y0.24551
G01 X-40.78319 Y0.26064
G01 X-40.78316 Y0.27211
G01 X-40.78281 Y0.28318
G01 X-40.78278 Y0.28432
G01 X-40.78200 Y0.31355
G01 X-40.77872 Y0.35348
G01 X-40.77424 Y0.38749
G01 X-40.77152 Y0.40587
G01 X-40.84960 Y0.48395
G01 X-40.86201 Y0.49698
G01 X-40.87517 Y0.51151
G01 X-40.89840 Y0.53982
G01 X-40.91021 Y0.55575
G01 X-40.93178 Y0.58806
G01 X-40.94216 Y0.60538
G01 X-40.96232 Y0.64314
G01 X-40.97122 Y0.66194
G01 X-40.98095 Y0.68390
G01 X-41.03618 Y0.81725
G01 X-41.04753 Y0.84669
G01 X-41.05484 Y0.86714
G01 X-41.07581 Y0.93669
G01 X-41.08136 Y0.95889
G01 X-41.09705 Y1.03634
G01 X-41.09861 Y1.04618
G01 X-41.10279 Y1.07066
G01 X-41.10644 Y1.09058
G01 X-41.11112 Y1.11799
G01 X-41.12318 Y1.19398
G01 X-41.12815 Y1.22349
G01 X-41.13722 Y1.27439
G01 X-41.14306 Y1.30898
G01 X-41.14357 Y1.31215
G01 X-41.18279 Y1.50469
G01 X-41.24842 Y1.39394
G01 X-41.28884 Y1.32385
G01 X-41.38172 Y1.15212
G01 X-41.41835 Y1.07862
G01 X-41.42368 Y1.06804
G01 X-41.44167 Y1.03267
G01 X-41.44691 Y1.02223
G01 X-41.48149 Y0.95255
G01 X-41.48413 Y0.94730
G01 X-41.49762 Y0.92079
G01 X-41.50021 Y0.91563
G01 X-41.51536 Y0.88494
G01 X-41.51710 Y0.88148
G01 X-41.52812 Y0.85986
G01 X-41.52983 Y0.85644
G01 X-41.53810 Y0.83957
G01 X-41.53931 Y0.83716
G01 X-41.54904 Y0.81804
G01 X-41.55024 Y0.81564
G01 X-41.55554 Y0.80475
G01 X-41.55655 Y0.80272
G01 X-41.56550 Y0.78514
G01 X-41.56649 Y0.78315
G01 X-41.57047 Y0.77493
G01 X-41.57136 Y0.77313
G01 X-41.57998 Y0.75619
G01 X-41.58088 Y0.75438
G01 X-41.58451 Y0.74688
G01 X-41.58539 Y0.74510
G01 X-41.59400 Y0.72815
G01 X-41.59488 Y0.72637
G01 X-41.59886 Y0.71816
G01 X-41.59986 Y0.71616
G01 X-41.60881 Y0.69857
G01 X-41.60980 Y0.69658
G01 X-41.61511 Y0.68568
G01 X-41.61629 Y0.68331
G01 X-41.62602 Y0.66420
G01 X-41.62723 Y0.66178
G01 X-41.63552 Y0.64488
G01 X-41.63716 Y0.64161
G01 X-41.64824 Y0.61983
G01 X-41.64988 Y0.61656
G01 X-41.66503 Y0.58588
G01 X-41.66758 Y0.58080
G01 X-41.68108 Y0.55427
G01 X-41.68369 Y0.54908
G01 X-41.69218 Y0.53196
G01 X-41.67652 Y0.51338
G01 X-41.66251 Y0.49784
G01 X-41.64938 Y0.48401
G01 X-41.51604 Y0.35066
G01 X-41.50363 Y0.33763
G01 X-41.49047 Y0.32311
G01 X-41.46725 Y0.29480
G01 X-41.45544 Y0.27888
G01 X-41.43388 Y0.24658
G01 X-41.42350 Y0.22926
G01 X-41.40321 Y0.19122
G01 X-41.39432 Y0.17240
G01 X-41.37567 Y0.12725
G01 X-41.36837 Y0.10687
G01 X-41.35143 Y0.05080
G04 P0 ( dwell for no time -- G64 should not smooth over this point )
G00 Z10.00000 ( retract )

G00 X-28.49061 Y2.67040 ( rapid move to begin. )
G01 F30.00000
G01 Z-0.10000
G04 P0 ( dwell for no time -- G64 should not smooth over this point )
G01 F360.00000
G01 X-28.49061 Y2.67040
G01 X-28.49496 Y2.66179
G01 X-28.49745 Y2.65655
G01 X-28.50006 Y2.65068
G01 X-28.50517 Y2.64063
G01 X-28.50637 Y2.63854
G01 X-28.51093 Y2.62967
G01 X-28.51448 Y2.62181
G01 X-28.51674 Y2.61716
G01 X-28.51942 Y2.61197
G01 X-28.52344 Y2.60317
G01 X-28.53072 Y2.58491
G01 X-28.53403 Y2.57522
G01 X-28.53957 Y2.55607
G01 X-28.54102 Y2.55054
G01 X-28.57245 Y2.41745
G01 X-28.57434 Y2.40846
G01 X-28.57804 Y2.38842
G01 X-28.58078 Y2.36791
G01 X-28.58256 Y2.34690
G01 X-28.58342 Y2.32184
G01 X-28.58312 Y2.29976
G01 X-28.58110 Y2.26816
G01 X-28.57850 Y2.24497
G01 X-28.57174 Y2.20377
G01 X-28.56652 Y2.17926
G01 X-28.56231 Y2.16107
G01 X-28.56721 Y2.14031
G01 X-28.57590 Y2.09221
G01 X-28.57871 Y2.07027
G01 X-28.58285 Y2.01412
G01 X-28.58336 Y1.99100
G01 X-28.58348 Y1.98399
G01 X-28.58383 Y1.95175
G01 X-28.58367 Y1.92789
G01 X-28.58353 Y1.92194
G01 X-28.58337 Y1.89624
G01 X-28.58389 Y1.84456
G01 X-28.58378 Y1.81660
G01 X-28.58342 Y1.79594
G01 X-28.58329 Y1.76482
G01 X-28.58397 Y1.68578
G01 X-28.58391 Y1.65031
G01 X-28.58324 Y1.59500
G01 X-28.58313 Y1.55342
G01 X-28.58378 Y1.45352
G01 X-28.58077 Y1.45267
G01 X-28.56032 Y1.44708
G01 X-28.49625 Y1.43012
G01 X-28.47607 Y1.42460
G01 X-28.45027 Y1.41733
G01 X-28.33799 Y1.41733
G01 X-28.33722 Y1.41733
G01 X-28.31699 Y1.41732
G01 X-28.31621 Y1.41732
G01 X-28.25039 Y1.41732
G01 X-28.11704 Y1.41732
G01 X-28.05540 Y1.41582
G01 X-28.03578 Y1.41487
G01 X-28.02781 Y1.41445
G01 X-27.98394 Y1.43260
G01 X-27.94752 Y1.44831
G01 X-27.92531 Y1.45829
G01 X-27.90643 Y1.46659
G01 X-27.89124 Y1.47312
G01 X-27.87264 Y1.48130
G01 X-27.80080 Y1.51361
G01 X-27.78441 Y1.52083
G01 X-27.78434 Y1.52682
G01 X-27.78340 Y1.60200
G01 X-27.78331 Y1.66050
G01 X-27.78430 Y1.75648
G01 X-27.78412 Y1.79775
G01 X-27.78361 Y1.82334
G01 X-27.78357 Y1.86181
G01 X-27.78415 Y1.89186
G01 X-27.78406 Y1.92262
G01 X-27.78370 Y1.93608
G01 X-27.78351 Y1.95034
G01 X-27.78351 Y1.96583
G01 X-27.78133 Y2.00975
G01 X-27.77854 Y2.03650
G01 X-27.77386 Y2.06656
G01 X-27.76868 Y2.09093
G01 X-27.76315 Y2.11171
G01 X-27.75590 Y2.13403
G01 X-27.75019 Y2.14897
G01 X-27.74109 Y2.16940
G01 X-27.73944 Y2.17297
G01 X-27.73692 Y2.17817
G01 X-27.73575 Y2.18052
G01 X-27.72780 Y2.19601
G01 X-27.72607 Y2.19956
G01 X-27.72351 Y2.20506
G01 X-27.72152 Y2.20908
G01 X-27.71452 Y2.22250
G01 X-27.71201 Y2.22768
G01 X-27.71037 Y2.23134
G01 X-27.70745 Y2.23729
G01 X-27.70122 Y2.24904
G01 X-27.69770 Y2.25631
G01 X-27.69646 Y2.25913
G01 X-27.69517 Y2.26195
G01 X-27.68762 Y2.27793
G01 X-27.68489 Y2.28410
G01 X-27.65730 Y2.35075
G01 X-27.69429 Y2.43991
G01 X-27.69638 Y2.44534
G01 X-27.70342 Y2.46497
G01 X-27.70617 Y2.47400
G01 X-27.71108 Y2.49362
G01 X-27.71259 Y2.50118
G01 X-27.71552 Y2.52080
G01 X-27.71619 Y2.52764
G01 X-27.71716 Y2.54724
G01 X-27.71724 Y2.55054
G01 X-27.71732 Y2.55380
G01 X-27.71828 Y2.57340
G01 X-27.71895 Y2.58025
G01 X-27.72186 Y2.59984
G01 X-27.72337 Y2.60743
G01 X-27.72829 Y2.62704
G01 X-27.73101 Y2.63601
G01 X-27.73802 Y2.65559
G01 X-27.74011 Y2.66102
G01 X-27.80482 Y2.81724
G01 X-27.80962 Y2.82969
G01 X-27.81692 Y2.85011
G01 X-27.81713 Y2.85070
G01 X-27.82234 Y2.86538
G01 X-27.82745 Y2.88092
G01 X-27.82947 Y2.88757
G01 X-27.83472 Y2.90360
G01 X-27.84291 Y2.92694
G01 X-27.84989 Y2.94832
G01 X-27.85127 Y2.95289
G01 X-27.85852 Y2.97517
G01 X-27.87280 Y3.01640
G01 X-27.88339 Y3.04896
G01 X-27.88396 Y3.05082
G01 X-27.89514 Y3.08532
G01 X-27.91760 Y3.15097
G01 X-27.92604 Y3.17508
G01 X-27.94152 Y3.21828
G01 X-27.98394 Y3.32776
G01 X-28.02104 Y3.41732
G01 X-28.25039 Y3.41732
G01 X-28.31218 Y3.41581
G01 X-28.33176 Y3.41485
G01 X-28.34961 Y3.41386
G01 X-28.43679 Y3.36562
G01 X-28.44555 Y3.36073
G01 X-28.44999 Y3.35823
G01 X-28.44985 Y3.30747
G01 X-28.45060 Y3.10637
G01 X-28.45047 Y3.07906
G01 X-28.45022 Y3.06040
G01 X-28.45010 Y3.03676
G01 X-28.45043 Y2.95103
G01 X-28.45042 Y2.94313
G01 X-28.45025 Y2.91776
G01 X-28.45023 Y2.91203
G01 X-28.45029 Y2.88382
G01 X-28.45084 Y2.86149
G01 X-28.45220 Y2.83330
G01 X-28.45583 Y2.79654
G01 X-28.45978 Y2.77095
G01 X-28.46500 Y2.74574
G01 X-28.47118 Y2.72238
G01 X-28.47678 Y2.70483
G01 X-28.48490 Y2.68340
G01 X-28.49061 Y2.67040
G01 X-28.49061 Y2.67040
G01 X-28.48490 Y2.68340
G01 X-28.47678 Y2.70483
G01 X-28.47118 Y2.72238
G01 X-28.46500 Y2.74574
G01 X-28.45978 Y2.77095
G01 X-28.45583 Y2.79654
G01 X-28.45220 Y2.83330
G01 X-28.45084 Y2.86149
G01 X-28.45029 Y2.88382
G01 X-28.45023 Y2.91203
G01 X-28.45025 Y2.91776
G01 X-28.45042 Y2.94313
G01 X-28.45043 Y2.95103
G01 X-28.45010 Y3.03676
G01 X-28.45022 Y3.06040
G01 X-28.45047 Y3.07906
G01 X-28.45060 Y3.10637
G01 X-28.44985 Y3.30747
G01 X-28.44999 Y3.35823
G01 X-28.45681 Y3.35663
G01 X-28.46417 Y3.35489
G01 X-28.48714 Y3.34966
G01 X-28.58411 Y3.32848
G01 X-28.60541 Y3.32361
G01 X-28.61165 Y3.32213
G01 X-28.63278 Y3.31730
G01 X-28.71531 Y3.29930
G01 X-28.73576 Y3.29463
G01 X-28.74040 Y3.29352
G01 X-28.76079 Y3.28886
G01 X-28.84199 Y3.27115
G01 X-28.86253 Y3.26646
G01 X-28.86735 Y3.26530
G01 X-28.88796 Y3.26059
G01 X-28.91687 Y3.25428
G01 X-28.91688 Y3.25429
G01 X-28.94593 Y3.26021
G01 X-28.96684 Y3.26417
G01 X-29.05023 Y3.27650
G01 X-29.07457 Y3.27909
G01 X-29.09533 Y3.28151
G01 X-29.09997 Y3.28210
G01 X-29.11942 Y3.28439
G01 X-29.19990 Y3.29305
G01 X-29.21868 Y3.29524
G01 X-29.22093 Y3.29553
G01 X-29.23844 Y3.29759
G01 X-29.31627 Y3.30607
G01 X-29.31593 Y3.23226
G01 X-29.31650 Y3.15180
G01 X-29.31702 Y3.12577
G01 X-29.31736 Y3.05736
G01 X-29.31635 Y2.97280
G01 X-29.31666 Y2.93581
G01 X-29.31692 Y2.92719
G01 X-29.31709 Y2.89328
G01 X-29.31653 Y2.86732
G01 X-29.31659 Y2.84788
G01 X-29.31698 Y2.83439
G01 X-29.31695 Y2.81621
G01 X-29.31662 Y2.80690
G01 X-29.31658 Y2.79369
G01 X-29.31700 Y2.78014
G01 X-29.31688 Y2.76767
G01 X-29.31673 Y2.76478
G01 X-29.31660 Y2.75476
G01 X-29.31700 Y2.74138
G01 X-29.31681 Y2.73177
G01 X-29.31679 Y2.73146
G01 X-29.31660 Y2.72294
G01 X-29.31699 Y2.70985
G01 X-29.31682 Y2.70239
G01 X-29.31676 Y2.70156
G01 X-29.31660 Y2.69436
G01 X-29.31699 Y2.68146
G01 X-29.31683 Y2.67437
G01 X-29.31676 Y2.67345
G01 X-29.31660 Y2.66622
G01 X-29.31699 Y2.65320
G01 X-29.31680 Y2.64505
G01 X-29.31679 Y2.64491
G01 X-29.31660 Y2.63594
G01 X-29.31700 Y2.62266
G01 X-29.31702 Y2.61715
G01 X-29.31693 Y2.61320
G01 X-29.31733 Y2.60047
G01 X-29.31932 Y2.57610
G01 X-29.32193 Y2.55714
G01 X-29.32683 Y2.53132
G01 X-29.33373 Y2.50334
G01 X-29.34198 Y2.47587
G01 X-29.34398 Y2.46943
G01 X-29.32234 Y2.37783
G01 X-29.31276 Y2.36765
G01 X-29.29151 Y2.34263
G01 X-29.27862 Y2.32572
G01 X-29.26144 Y2.30054
G01 X-29.25055 Y2.28262
G01 X-29.23685 Y2.25714
G01 X-29.22791 Y2.23823
G01 X-29.21676 Y2.21102
G01 X-29.20981 Y2.19116
G01 X-29.20107 Y2.16121
G01 X-29.19614 Y2.14031
G01 X-29.18996 Y2.10614
G01 X-29.18716 Y2.08420
G01 X-29.18418 Y2.04381
G01 X-29.18366 Y2.02068
G01 X-29.18360 Y2.01733
G01 X-29.18326 Y1.99397
G01 X-29.18346 Y1.97024
G01 X-29.18347 Y1.97006
G01 X-29.18369 Y1.94459
G01 X-29.18319 Y1.90865
G01 X-29.18334 Y1.88065
G01 X-29.18359 Y1.87006
G01 X-29.18377 Y1.83899
G01 X-29.18312 Y1.78242
G01 X-29.18320 Y1.74692
G01 X-29.18378 Y1.71043
G01 X-29.18392 Y1.66890
G01 X-29.18294 Y1.55225
G01 X-29.18296 Y1.50102
G01 X-29.18355 Y1.43560
G01 X-29.10531 Y1.41406
G01 X-29.08637 Y1.40900
G01 X-29.07877 Y1.40703
G01 X-29.05933 Y1.40183
G01 X-29.05009 Y1.39928
G01 X-29.01182 Y1.40244
G01 X-28.99190 Y1.40423
G01 X-28.92692 Y1.41057
G01 X-28.90683 Y1.41238
G01 X-28.86500 Y1.41580
G01 X-28.84550 Y1.41754
G01 X-28.78353 Y1.42357
G01 X-28.77894 Y1.42403
G01 X-28.75885 Y1.42605
G01 X-28.65018 Y1.44166
G01 X-28.62729 Y1.44593
G01 X-28.60701 Y1.44955
G01 X-28.58378 Y1.45352
G01 X-28.58313 Y1.55342
G01 X-28.58324 Y1.59500
G01 X-28.58391 Y1.65031
G01 X-28.58397 Y1.68578
G01 X-28.58329 Y1.76482
G01 X-28.58342 Y1.79594
G01 X-28.58378 Y1.81660
G01 X-28.58389 Y1.84456
G01 X-28.58337 Y1.89624
G01 X-28.58353 Y1.92194
G01 X-28.58367 Y1.92789
G01 X-28.58383 Y1.95175
G01 X-28.58348 Y1.98399
G01 X-28.58336 Y1.99100
G01 X-28.58285 Y2.01412
G01 X-28.57871 Y2.07027
G01 X-28.57590 Y2.09221
G01 X-28.56721 Y2.14031
G01 X-28.56231 Y2.16107
G01 X-28.56652 Y2.17926
G01 X-28.57174 Y2.20377
G01 X-28.57850 Y2.24497
G01 X-28.58110 Y2.26816
G01 X-28.58312 Y2.29976
G01 X-28.58342 Y2.32184
G01 X-28.58256 Y2.34690
G01 X-28.58078 Y2.36791
G01 X-28.57804 Y2.38842
G01 X-28.57434 Y2.40846
G01 X-28.57245 Y2.41745
G01 X-28.54102 Y2.55054
G01 X-28.53957 Y2.55607
G01 X-28.53403 Y2.57522
G01 X-28.53072 Y2.58491
G01 X-28.52344 Y2.60317
G01 X-28.51942 Y2.61197
G01 X-28.51674 Y2.61716
G01 X-28.51448 Y2.62181
G01 X-28.51093 Y2.62967
G01 X-28.50637 Y2.63854
G01 X-28.50517 Y2.64063
G01 X-28.50006 Y2.65068
G01 X-28.49745 Y2.65655
G01 X-28.49496 Y2.66179
G01 X-28.49061 Y2.67040
G04 P0 ( dwell for no time -- G64 should not smooth over this point )
G00 Z10.00000 ( retract )

G00 X-29.85036 Y2.53407 ( rapid move to begin. )
G01 F30.00000
G01 Z-0.10000
G04 P0 ( dwell for no time -- G64 should not smooth over this point )
G01 F360.00000
G01 X-29.85036 Y2.53407
G01 X-29.85133 Y2.51446
G01 X-29.85460 Y2.48133
G01 X-29.85751 Y2.46171
G01 X-29.86448 Y2.42674
G01 X-29.86940 Y2.40715
G01 X-29.87288 Y2.39422
G01 X-29.89025 Y2.37720
G01 X-29.89865 Y2.36870
G01 X-29.90402 Y2.36310
G01 X-29.91330 Y2.35374
G01 X-29.91662 Y2.35052
G01 X-29.91662 Y2.30875
G01 X-29.91662 Y2.28293
G01 X-29.91662 Y2.25123
G01 X-29.91662 Y2.22834
G01 X-29.91662 Y2.20393
G01 X-29.91662 Y2.18258
G01 X-29.91662 Y2.16121
G01 X-29.91662 Y2.14031
G01 X-29.91662 Y2.11893
G01 X-29.91662 Y2.09759
G01 X-29.91662 Y2.07318
G01 X-29.91662 Y2.05029
G01 X-29.91662 Y2.01858
G01 X-29.91662 Y1.99277
G01 X-29.91662 Y1.94409
G01 X-29.91662 Y1.91282
G01 X-29.91662 Y1.82536
G01 X-29.91662 Y1.78359
G01 X-29.91662 Y1.57111
G01 X-29.91662 Y1.50372
G01 X-29.91662 Y1.45744
G01 X-29.82509 Y1.42061
G01 X-29.81698 Y1.41738
G01 X-29.80433 Y1.41739
G01 X-29.79829 Y1.41738
G01 X-29.78333 Y1.41733
G01 X-29.77859 Y1.41732
G01 X-29.71673 Y1.41732
G01 X-29.58338 Y1.41732
G01 X-29.45003 Y1.41732
G01 X-29.38369 Y1.41906
G01 X-29.36278 Y1.42015
G01 X-29.31668 Y1.42340
G01 X-29.25368 Y1.42899
G01 X-29.23380 Y1.43090
G01 X-29.22662 Y1.43165
G01 X-29.20531 Y1.43369
G01 X-29.18355 Y1.43560
G01 X-29.18296 Y1.50102
G01 X-29.18294 Y1.55225
G01 X-29.18392 Y1.66890
G01 X-29.18378 Y1.71043
G01 X-29.18320 Y1.74692
G01 X-29.18312 Y1.78242
G01 X-29.18377 Y1.83899
G01 X-29.18359 Y1.87006
G01 X-29.18334 Y1.88065
G01 X-29.18319 Y1.90865
G01 X-29.18369 Y1.94459
G01 X-29.18347 Y1.97006
G01 X-29.18346 Y1.97024
G01 X-29.18326 Y1.99397
G01 X-29.18360 Y2.01733
G01 X-29.18366 Y2.02068
G01 X-29.18418 Y2.04381
G01 X-29.18716 Y2.08420
G01 X-29.18996 Y2.10614
G01 X-29.19614 Y2.14031
G01 X-29.20107 Y2.16121
G01 X-29.20981 Y2.19116
G01 X-29.21676 Y2.21102
G01 X-29.22791 Y2.23823
G01 X-29.23685 Y2.25714
G01 X-29.25055 Y2.28262
G01 X-29.26144 Y2.30054
G01 X-29.27862 Y2.32572
G01 X-29.29151 Y2.34263
G01 X-29.31276 Y2.36765
G01 X-29.32234 Y2.37783
G01 X-29.34398 Y2.46943
G01 X-29.34198 Y2.47587
G01 X-29.33373 Y2.50334
G01 X-29.32683 Y2.53132
G01 X-29.32193 Y2.55714
G01 X-29.31932 Y2.57610
G01 X-29.31733 Y2.60047
G01 X-29.31693 Y2.61320
G01 X-29.31702 Y2.61715
G01 X-29.31700 Y2.62266
G01 X-29.31660 Y2.63594
G01 X-29.31679 Y2.64491
G01 X-29.31680 Y2.64505
G01 X-29.31699 Y2.65320
G01 X-29.31660 Y2.66622
G01 X-29.31676 Y2.67345
G01 X-29.31683 Y2.67437
G01 X-29.31699 Y2.68146
G01 X-29.31660 Y2.69436
G01 X-29.31676 Y2.70156
G01 X-29.31682 Y2.70239
G01 X-29.31699 Y2.70985
G01 X-29.31660 Y2.72294
G01 X-29.31679 Y2.73146
G01 X-29.31681 Y2.73177
G01 X-29.31700 Y2.74138
G01 X-29.31660 Y2.75476
G01 X-29.31673 Y2.76478
G01 X-29.31688 Y2.76767
G01 X-29.31700 Y2.78014
G01 X-29.31658 Y2.79369
G01 X-29.31662 Y2.80690
G01 X-29.31695 Y2.81621
G01 X-29.31698 Y2.83439
G01 X-29.31659 Y2.84788
G01 X-29.31653 Y2.86732
G01 X-29.31709 Y2.89328
G01 X-29.31692 Y2.92719
G01 X-29.31666 Y2.93581
G01 X-29.31635 Y2.97280
G01 X-29.31736 Y3.05736
G01 X-29.31702 Y3.12577
G01 X-29.31650 Y3.15180
G01 X-29.31593 Y3.23226
G01 X-29.31627 Y3.30607
G01 X-29.34319 Y3.31515
G01 X-29.36211 Y3.32135
G01 X-29.37286 Y3.32476
G01 X-29.39320 Y3.33143
G01 X-29.45003 Y3.35066
G01 X-29.46962 Y3.35748
G01 X-29.48920 Y3.36449
G01 X-29.54735 Y3.38693
G01 X-29.58338 Y3.40186
G01 X-29.62094 Y3.41676
G01 X-29.64518 Y3.41581
G01 X-29.66475 Y3.41485
G01 X-29.79118 Y3.40239
G01 X-29.81077 Y3.39948
G01 X-29.84983 Y3.39309
G01 X-29.91662 Y3.38113
G01 X-29.91662 Y3.32817
G01 X-29.91662 Y3.28656
G01 X-29.91662 Y3.10548
G01 X-29.91662 Y3.07461
G01 X-29.91662 Y3.01715
G01 X-29.91546 Y2.96907
G01 X-29.91416 Y2.94267
G01 X-29.90695 Y2.86799
G01 X-29.90337 Y2.84383
G01 X-29.89234 Y2.78790
G01 X-29.88970 Y2.77736
G01 X-29.88695 Y2.76579
G01 X-29.88426 Y2.75385
G01 X-29.87898 Y2.73280
G01 X-29.87618 Y2.72267
G01 X-29.87114 Y2.70248
G01 X-29.86917 Y2.69360
G01 X-29.86688 Y2.68389
G01 X-29.86439 Y2.67394
G01 X-29.85750 Y2.63936
G01 X-29.85460 Y2.61977
G01 X-29.85130 Y2.58635
G01 X-29.85035 Y2.56675
G01 X-29.85036 Y2.53407
G01 X-29.85036 Y2.53407
G01 X-29.85035 Y2.56675
G01 X-29.85130 Y2.58635
G01 X-29.85460 Y2.61977
G01 X-29.85750 Y2.63936
G01 X-29.86439 Y2.67394
G01 X-29.86688 Y2.68389
G01 X-29.86917 Y2.69360
G01 X-29.87114 Y2.70248
G01 X-29.87618 Y2.72267
G01 X-29.87898 Y2.73280
G01 X-29.88426 Y2.75385
G01 X-29.88695 Y2.76579
G01 X-29.88970 Y2.77736
G01 X-29.89234 Y2.78790
G01 X-29.90337 Y2.84383
G01 X-29.90695 Y2.86799
G01 X-29.91416 Y2.94267
G01 X-29.91546 Y2.96907
G01 X-29.91662 Y3.01715
G01 X-29.91662 Y3.07461
G01 X-29.91662 Y3.10548
G01 X-29.91662 Y3.28656
G01 X-29.91662 Y3.32817
G01 X-29.91662 Y3.38113
G01 X-29.92013 Y3.38212
G01 X-29.94054 Y3.38775
G01 X-30.01961 Y3.40887
G01 X-30.03850 Y3.41406
G01 X-30.04977 Y3.41725
G01 X-30.08327 Y3.41755
G01 X-30.10461 Y3.41757
G01 X-30.16834 Y3.41712
G01 X-30.18803 Y3.41713
G01 X-30.23941 Y3.41755
G01 X-30.24988 Y3.41760
G01 X-30.26032 Y3.41760
G01 X-30.39362 Y3.42461
G01 X-30.41449 Y3.42680
G01 X-30.55122 Y3.44853
G01 X-30.57213 Y3.45298
G01 X-30.64967 Y3.47181
G01 X-30.71626 Y3.49001
G01 X-30.72325 Y3.49190
G01 X-30.73786 Y3.49582
G01 X-30.74485 Y3.49771
G01 X-30.78288 Y3.50810
G01 X-30.78288 Y3.12648
G01 X-30.78288 Y3.05909
G01 X-30.78288 Y2.93557
G01 X-30.78288 Y2.89380
G01 X-30.78288 Y2.84765
G01 X-30.78288 Y2.81638
G01 X-30.78288 Y2.79354
G01 X-30.78288 Y2.76773
G01 X-30.78288 Y2.75467
G01 X-30.78288 Y2.73178
G01 X-30.78288 Y2.72289
G01 X-30.78288 Y2.70155
G01 X-30.78288 Y2.69436
G01 X-30.78288 Y2.67345
G01 X-30.78288 Y2.66626
G01 X-30.78288 Y2.64491
G01 X-30.78288 Y2.63603
G01 X-30.78288 Y2.61314
G01 X-30.78288 Y2.60008
G01 X-30.78288 Y2.57427
G01 X-30.78288 Y2.55143
G01 X-30.78288 Y2.52016
G01 X-30.78288 Y2.48711
G01 X-30.78809 Y2.48302
G01 X-30.80480 Y2.47020
G01 X-30.80769 Y2.46801
G01 X-30.81527 Y2.44971
G01 X-30.82026 Y2.43677
G01 X-30.82727 Y2.41719
G01 X-30.83434 Y2.39394
G01 X-30.83925 Y2.37433
G01 X-30.84347 Y2.35315
G01 X-30.84513 Y2.34197
G01 X-30.84374 Y2.33930
G01 X-30.83987 Y2.33158
G01 X-30.83255 Y2.31638
G01 X-30.83026 Y2.31177
G01 X-30.82124 Y2.29421
G01 X-30.81965 Y2.29103
G01 X-30.81414 Y2.27972
G01 X-30.81319 Y2.27780
G01 X-30.80403 Y2.25971
G01 X-30.80370 Y2.25906
G01 X-30.79874 Y2.24912
G01 X-30.79866 Y2.24895
G01 X-30.78990 Y2.23133
G01 X-30.78922 Y2.22998
G01 X-30.78544 Y2.22265
G01 X-30.78451 Y2.22080
G01 X-30.77680 Y2.20503
G01 X-30.77527 Y2.20203
G01 X-30.77218 Y2.19622
G01 X-30.77026 Y2.19243
G01 X-30.76338 Y2.17812
G01 X-30.76081 Y2.17310
G01 X-30.76076 Y2.17301
G01 X-30.75515 Y2.16121
G01 X-30.74650 Y2.14031
G01 X-30.74080 Y2.12416
G01 X-30.73406 Y2.10138
G01 X-30.72866 Y2.07873
G01 X-30.72404 Y2.05378
G01 X-30.71981 Y2.02120
G01 X-30.71765 Y1.99381
G01 X-30.71635 Y1.95071
G01 X-30.71645 Y1.94436
G01 X-30.71636 Y1.92240
G01 X-30.71614 Y1.91275
G01 X-30.71599 Y1.89198
G01 X-30.71651 Y1.82588
G01 X-30.71638 Y1.79726
G01 X-30.71616 Y1.78350
G01 X-30.71598 Y1.75639
G01 X-30.71658 Y1.57225
G01 X-30.71641 Y1.52515
G01 X-30.71619 Y1.50366
G01 X-30.71598 Y1.45911
G01 X-30.71601 Y1.41748
G01 X-30.70032 Y1.42044
G01 X-30.67774 Y1.42489
G01 X-30.59636 Y1.44160
G01 X-30.57629 Y1.44555
G01 X-30.54390 Y1.45167
G01 X-30.52286 Y1.45583
G01 X-30.51632 Y1.45718
G01 X-30.40047 Y1.47526
G01 X-30.37959 Y1.47746
G01 X-30.26032 Y1.48373
G01 X-30.23941 Y1.48373
G01 X-30.12014 Y1.47746
G01 X-30.11653 Y1.47708
G01 X-30.09923 Y1.47539
G01 X-30.05569 Y1.47147
G01 X-30.03444 Y1.46937
G01 X-29.97376 Y1.46281
G01 X-29.95184 Y1.46063
G01 X-29.91662 Y1.45744
G01 X-29.91662 Y1.50372
G01 X-29.91662 Y1.57111
G01 X-29.91662 Y1.78359
G01 X-29.91662 Y1.82536
G01 X-29.91662 Y1.91282
G01 X-29.91662 Y1.94409
G01 X-29.91662 Y1.99277
G01 X-29.91662 Y2.01858
G01 X-29.91662 Y2.05029
G01 X-29.91662 Y2.07318
G01 X-29.91662 Y2.09759
G01 X-29.91662 Y2.11893
G01 X-29.91662 Y2.14031
G01 X-29.91662 Y2.16121
G01 X-29.91662 Y2.18258
G01 X-29.91662 Y2.20393
G01 X-29.91662 Y2.22834
G01 X-29.91662 Y2.25123
G01 X-29.91662 Y2.28293
G01 X-29.91662 Y2.30875
G01 X-29.91662 Y2.35052
G01 X-29.91330 Y2.35374
G01 X-29.90402 Y2.36310
G01 X-29.89865 Y2.36870
G01 X-29.89025 Y2.37720
G01 X-29.87288 Y2.39422
G01 X-29.86940 Y2.40715
G01 X-29.86448 Y2.42674
G01 X-29.85751 Y2.46171
G01 X-29.85460 Y2.48133
G01 X-29.85133 Y2.51446
G01 X-29.85036 Y2.53407
G04 P0 ( dwell for no time -- G64 should not smooth over this point )
G00 Z10.00000 ( retract )

G00 X-20.37795 Y1.55054 ( rapid move to begin. )
G01 F30.00000
G01 Z-0.10000
G04 P0 ( dwell for no time -- G64 should not smooth over this point )
G01 F360.00000
G01 X-20.37795 Y1.55054
G01 X-20.80473 Y1.55054
G01 X-21.00475 Y1.55070
G01 X-21.17898 Y1.55098
G01 X-21.38247 Y1.55113
G01 X-25.04023 Y1.55033
G01 X-25.10718 Y1.55048
G01 X-25.17687 Y1.55081
G01 X-25.24466 Y1.55094
G01 X-25.90746 Y1.55033
G01 X-25.94882 Y1.55046
G01 X-25.99046 Y1.55077
G01 X-26.03243 Y1.55088
G01 X-26.30408 Y1.55032
G01 X-26.33481 Y1.55044
G01 X-26.36758 Y1.55075
G01 X-26.39896 Y1.55084
G01 X-26.54579 Y1.55032
G01 X-26.57105 Y1.55041
G01 X-26.60257 Y1.55075
G01 X-26.62844 Y1.55082
G01 X-26.71892 Y1.55033
G01 X-26.74112 Y1.55040
G01 X-26.77203 Y1.55076
G01 X-26.79494 Y1.55081
G01 X-26.85841 Y1.55034
G01 X-26.87887 Y1.55038
G01 X-26.91247 Y1.55076
G01 X-26.93382 Y1.55079
G01 X-26.98222 Y1.55035
G01 X-27.00191 Y1.55037
G01 X-27.04028 Y1.55077
G01 X-27.05075 Y1.55082
G01 X-27.06119 Y1.55082
G01 X-27.16646 Y1.55636
G01 X-27.18734 Y1.55855
G01 X-27.29542 Y1.57573
G01 X-27.31633 Y1.58018
G01 X-27.31714 Y1.58035
G01 X-27.41468 Y1.56271
G01 X-27.43556 Y1.55995
G01 X-27.45054 Y1.55807
G01 X-27.49969 Y1.55230
G01 X-27.51913 Y1.55021
G01 X-27.54183 Y1.54799
G01 X-27.56265 Y1.54573
G01 X-27.61828 Y1.53913
G01 X-27.63809 Y1.53697
G01 X-27.67061 Y1.53373
G01 X-27.69211 Y1.53137
G01 X-27.74650 Y1.52487
G01 X-27.76744 Y1.52255
G01 X-27.78441 Y1.52083
G01 X-27.80080 Y1.51361
G01 X-27.87264 Y1.48130
G01 X-27.89124 Y1.47312
G01 X-27.90643 Y1.46659
G01 X-27.92531 Y1.45829
G01 X-27.94752 Y1.44831
G01 X-27.98394 Y1.43260
G01 X-28.02781 Y1.41445
G01 X-27.98273 Y1.27331
G01 X-27.95397 Y1.22029
G01 X-27.91824 Y1.15228
G01 X-27.87710 Y1.07110
G01 X-27.86103 Y1.03832
G01 X-27.85651 Y1.02875
G01 X-27.84013 Y0.99556
G01 X-27.81859 Y0.95390
G01 X-27.80830 Y0.93296
G01 X-27.80409 Y0.92391
G01 X-27.79343 Y0.90249
G01 X-27.78627 Y0.88906
G01 X-27.77805 Y0.87248
G01 X-27.77464 Y0.86501
G01 X-27.76606 Y0.84801
G01 X-27.76434 Y0.84492
G01 X-27.75706 Y0.83050
G01 X-27.75423 Y0.82420
G01 X-27.75090 Y0.81725
G01 X-27.74675 Y0.80912
G01 X-27.74110 Y0.79646
G01 X-27.73309 Y0.77556
G01 X-27.72986 Y0.76565
G01 X-27.72427 Y0.74477
G01 X-27.72251 Y0.73655
G01 X-27.71919 Y0.71566
G01 X-27.71841 Y0.70827
G01 X-27.71733 Y0.68735
G01 X-27.71724 Y0.68390
G01 X-27.71724 Y0.55055
G01 X-27.71716 Y0.54725
G01 X-27.71619 Y0.52765
G01 X-27.71552 Y0.52081
G01 X-27.71259 Y0.50119
G01 X-27.71108 Y0.49362
G01 X-27.70617 Y0.47401
G01 X-27.70342 Y0.46497
G01 X-27.69638 Y0.44534
G01 X-27.69429 Y0.43992
G01 X-27.68497 Y0.41745
G01 X-27.61614 Y0.25151
G01 X-27.61014 Y0.23800
G01 X-27.60087 Y0.21843
G01 X-27.58438 Y0.18769
G01 X-27.57266 Y0.16813
G01 X-27.56166 Y0.15075
G01 X-27.54774 Y0.12984
G01 X-27.54762 Y0.12965
G01 X-27.53368 Y0.10869
G01 X-27.53261 Y0.10709
G01 X-27.49642 Y0.05308
G01 X-27.49492 Y0.05080
G01 X-18.85604 Y0.05080
G01 X-18.95081 Y0.15075
G01 X-19.75041 Y0.95034
G01 X-20.37795 Y1.55054
G01 X-20.37795 Y1.55054
G01 X-20.95081 Y2.15075
G01 X-21.75065 Y2.95059
G01 X-22.23374 Y3.41124
G01 X-22.25334 Y3.42902
G01 X-22.38943 Y3.55068
G01 X-25.03990 Y3.55068
G01 X-25.10734 Y3.55068
G01 X-25.90727 Y3.55068
G01 X-25.94887 Y3.55068
G01 X-26.30395 Y3.55068
G01 X-26.33482 Y3.55068
G01 X-26.54570 Y3.55068
G01 X-26.57103 Y3.55068
G01 X-26.71887 Y3.55068
G01 X-26.74111 Y3.55068
G01 X-26.85838 Y3.55068
G01 X-26.87886 Y3.55068
G01 X-26.98156 Y3.55068
G01 X-26.98221 Y3.55068
G01 X-27.00125 Y3.55067
G01 X-27.00191 Y3.55067
G01 X-27.05075 Y3.55067
G01 X-27.45054 Y3.55067
G01 X-27.49933 Y3.54948
G01 X-27.51890 Y3.54852
G01 X-27.58389 Y3.54324
G01 X-27.61894 Y3.53926
G01 X-27.63788 Y3.53728
G01 X-27.63879 Y3.53720
G01 X-27.65912 Y3.53506
G01 X-27.74645 Y3.52504
G01 X-27.76750 Y3.52282
G01 X-27.77787 Y3.52181
G01 X-27.78374 Y3.52123
G01 X-27.80083 Y3.51371
G01 X-27.87320 Y3.48116
G01 X-27.89181 Y3.47298
G01 X-27.90644 Y3.46669
G01 X-27.92532 Y3.45839
G01 X-27.94808 Y3.44816
G01 X-27.98394 Y3.43268
G01 X-28.02104 Y3.41732
G01 X-27.98394 Y3.32776
G01 X-27.94152 Y3.21828
G01 X-27.92604 Y3.17508
G01 X-27.91760 Y3.15097
G01 X-27.89514 Y3.08532
G01 X-27.88396 Y3.05082
G01 X-27.88339 Y3.04896
G01 X-27.87280 Y3.01640
G01 X-27.85852 Y2.97517
G01 X-27.85127 Y2.95289
G01 X-27.84989 Y2.94832
G01 X-27.84291 Y2.92694
G01 X-27.83472 Y2.90360
G01 X-27.82947 Y2.88757
G01 X-27.82745 Y2.88092
G01 X-27.82234 Y2.86538
G01 X-27.81713 Y2.85070
G01 X-27.81692 Y2.85011
G01 X-27.80962 Y2.82969
G01 X-27.80482 Y2.81724
G01 X-27.74011 Y2.66102
G01 X-27.73802 Y2.65559
G01 X-27.73101 Y2.63601
G01 X-27.72829 Y2.62704
G01 X-27.72337 Y2.60743
G01 X-27.72186 Y2.59984
G01 X-27.71895 Y2.58025
G01 X-27.71828 Y2.57340
G01 X-27.71732 Y2.55380
G01 X-27.71724 Y2.55054
G01 X-27.71716 Y2.54724
G01 X-27.71619 Y2.52764
G01 X-27.71552 Y2.52080
G01 X-27.71259 Y2.50118
G01 X-27.71108 Y2.49362
G01 X-27.70617 Y2.47400
G01 X-27.70342 Y2.46497
G01 X-27.69638 Y2.44534
G01 X-27.69429 Y2.43991
G01 X-27.65730 Y2.35075
G01 X-27.68489 Y2.28410
G01 X-27.68762 Y2.27793
G01 X-27.69517 Y2.26195
G01 X-27.69646 Y2.25913
G01 X-27.69770 Y2.25631
G01 X-27.70122 Y2.24904
G01 X-27.70745 Y2.23729
G01 X-27.71037 Y2.23134
G01 X-27.71201 Y2.22768
G01 X-27.71452 Y2.22250
G01 X-27.72152 Y2.20908
G01 X-27.72351 Y2.20506
G01 X-27.72607 Y2.19956
G01 X-27.72780 Y2.19601
G01 X-27.73575 Y2.18052
G01 X-27.73692 Y2.17817
G01 X-27.73944 Y2.17297
G01 X-27.74109 Y2.16940
G01 X-27.75019 Y2.14897
G01 X-27.75590 Y2.13403
G01 X-27.76315 Y2.11171
G01 X-27.76868 Y2.09093
G01 X-27.77386 Y2.06656
G01 X-27.77854 Y2.03650
G01 X-27.78133 Y2.00975
G01 X-27.78351 Y1.96583
G01 X-27.78351 Y1.95034
G01 X-27.78370 Y1.93608
G01 X-27.78406 Y1.92262
G01 X-27.78415 Y1.89186
G01 X-27.78357 Y1.86181
G01 X-27.78361 Y1.82334
G01 X-27.78412 Y1.79775
G01 X-27.78430 Y1.75648
G01 X-27.78331 Y1.66050
G01 X-27.78340 Y1.60200
G01 X-27.78434 Y1.52682
G01 X-27.78441 Y1.52083
G01 X-27.76744 Y1.52255
G01 X-27.74650 Y1.52487
G01 X-27.69211 Y1.53137
G01 X-27.67061 Y1.53373
G01 X-27.63809 Y1.53697
G01 X-27.61828 Y1.53913
G01 X-27.56265 Y1.54573
G01 X-27.54183 Y1.54799
G01 X-27.51913 Y1.55021
G01 X-27.49969 Y1.55230
G01 X-27.45054 Y1.55807
G01 X-27.43556 Y1.55995
G01 X-27.41468 Y1.56271
G01 X-27.31714 Y1.58035
G01 X-27.31633 Y1.58018
G01 X-27.29542 Y1.57573
G01 X-27.18734 Y1.55855
G01 X-27.16646 Y1.55636
G01 X-27.06119 Y1.55082
G01 X-27.05075 Y1.55082
G01 X-27.04028 Y1.55077
G01 X-27.00191 Y1.55037
G01 X-26.98222 Y1.55035
G01 X-26.93382 Y1.55079
G01 X-26.91247 Y1.55076
G01 X-26.87887 Y1.55038
G01 X-26.85841 Y1.55034
G01 X-26.79494 Y1.55081
G01 X-26.77203 Y1.55076
G01 X-26.74112 Y1.55040
G01 X-26.71892 Y1.55033
G01 X-26.62844 Y1.55082
G01 X-26.60257 Y1.55075
G01 X-26.57105 Y1.55041
G01 X-26.54579 Y1.55032
G01 X-26.39896 Y1.55084
G01 X-26.36758 Y1.55075
G01 X-26.33481 Y1.55044
G01 X-26.30408 Y1.55032
G01 X-26.03243 Y1.55088
G01 X-25.99046 Y1.55077
G01 X-25.94882 Y1.55046
G01 X-25.90746 Y1.55033
G01 X-25.24466 Y1.55094
G01 X-25.17687 Y1.55081
G01 X-25.10718 Y1.55048
G01 X-25.04023 Y1.55033
G01 X-21.38247 Y1.55113
G01 X-21.17898 Y1.55098
G01 X-21.00475 Y1.55070
G01 X-20.80473 Y1.55054
G01 X-20.37795 Y1.55054
G04 P0 ( dwell for no time -- G64 should not smooth over this point )
G00 Z10.00000 ( retract )

G00 X-32.21401 Y2.14363 ( rapid move to begin. )
G01 F30.00000
G01 Z-0.10000
G04 P0 ( dwell for no time -- G64 should not smooth over this point )
G01 F360.00000
G01 X-32.21401 Y2.14363
G01 X-32.20628 Y2.12182
G01 X-32.20060 Y2.10255
G01 X-32.19489 Y2.07872
G01 X-32.18994 Y2.05168
G01 X-32.18650 Y2.02559
G01 X-32.18346 Y1.98586
G01 X-32.18269 Y1.95707
G01 X-32.18256 Y1.95060
G01 X-32.18218 Y1.92273
G01 X-32.18243 Y1.89292
G01 X-32.18248 Y1.89149
G01 X-32.18276 Y1.85777
G01 X-32.18206 Y1.79802
G01 X-32.18222 Y1.75611
G01 X-32.18274 Y1.72810
G01 X-32.18299 Y1.67726
G01 X-32.18195 Y1.55056
G01 X-32.17478 Y1.55056
G01 X-32.17407 Y1.55056
G01 X-32.15431 Y1.55055
G01 X-32.15361 Y1.55055
G01 X-32.05165 Y1.55055
G01 X-32.05103 Y1.55055
G01 X-32.03198 Y1.55054
G01 X-32.03139 Y1.55054
G01 X-31.98241 Y1.55054
G01 X-31.71596 Y1.55054
G01 X-31.66658 Y1.55176
G01 X-31.64698 Y1.55273
G01 X-31.58261 Y1.55797
G01 X-31.54750 Y1.56196
G01 X-31.53249 Y1.56356
G01 X-31.52766 Y1.56403
G01 X-31.51259 Y1.56563
G01 X-31.44947 Y1.57280
G01 X-31.44961 Y1.63166
G01 X-31.44936 Y1.66812
G01 X-31.44928 Y1.67266
G01 X-31.44907 Y1.71039
G01 X-31.44960 Y1.81072
G01 X-31.44937 Y1.83864
G01 X-31.44931 Y1.84124
G01 X-31.44912 Y1.87019
G01 X-31.44925 Y1.88406
G01 X-31.44722 Y1.94598
G01 X-31.44506 Y1.97336
G01 X-31.43829 Y2.02553
G01 X-31.43367 Y2.05048
G01 X-31.42457 Y2.08868
G01 X-31.41782 Y2.11146
G01 X-31.41597 Y2.11748
G01 X-31.41132 Y2.13211
G01 X-31.40983 Y2.13663
G01 X-31.40845 Y2.14031
G01 X-31.40814 Y2.14113
G01 X-31.40188 Y2.15941
G01 X-31.40131 Y2.16121
G01 X-31.39618 Y2.17744
G01 X-31.39462 Y2.18219
G01 X-31.39360 Y2.18490
G01 X-31.39284 Y2.18688
G01 X-31.38734 Y2.20306
G01 X-31.38678 Y2.20480
G01 X-31.38214 Y2.21952
G01 X-31.38063 Y2.22415
G01 X-31.37957 Y2.22694
G01 X-31.37889 Y2.22873
G01 X-31.37314 Y2.24563
G01 X-31.37277 Y2.24680
G01 X-31.36783 Y2.26245
G01 X-31.36629 Y2.26715
G01 X-31.36514 Y2.27020
G01 X-31.36454 Y2.27178
G01 X-31.36019 Y2.28410
G01 X-31.35800 Y2.29084
G01 X-31.34746 Y2.31821
G01 X-31.33814 Y2.33911
G01 X-31.32191 Y2.37084
G01 X-31.31604 Y2.38101
G01 X-31.31604 Y2.55054
G01 X-31.31644 Y2.56677
G01 X-31.31739 Y2.58637
G01 X-31.32068 Y2.61979
G01 X-31.32359 Y2.63938
G01 X-31.33053 Y2.67417
G01 X-31.33297 Y2.68389
G01 X-31.33532 Y2.69385
G01 X-31.33724 Y2.70248
G01 X-31.34227 Y2.72267
G01 X-31.34507 Y2.73280
G01 X-31.35034 Y2.75381
G01 X-31.35304 Y2.76579
G01 X-31.35579 Y2.77736
G01 X-31.35843 Y2.78790
G01 X-31.36946 Y2.84383
G01 X-31.37304 Y2.86799
G01 X-31.38025 Y2.94267
G01 X-31.38155 Y2.96907
G01 X-31.38270 Y3.01715
G01 X-31.38270 Y3.07461
G01 X-31.38270 Y3.10548
G01 X-31.38270 Y3.28656
G01 X-31.38270 Y3.32817
G01 X-31.38270 Y3.45382
G01 X-31.47469 Y3.44514
G01 X-31.49572 Y3.44330
G01 X-31.52180 Y3.44121
G01 X-31.54382 Y3.43927
G01 X-31.63310 Y3.43072
G01 X-31.65296 Y3.42897
G01 X-31.68459 Y3.42642
G01 X-31.70554 Y3.42456
G01 X-31.71596 Y3.42355
G01 X-31.83885 Y3.41760
G01 X-31.85975 Y3.41760
G01 X-31.98241 Y3.42353
G01 X-31.99306 Y3.42456
G01 X-32.01401 Y3.42642
G01 X-32.04549 Y3.42895
G01 X-32.06533 Y3.43069
G01 X-32.11583 Y3.43552
G01 X-32.15211 Y3.42579
G01 X-32.17100 Y3.42058
G01 X-32.18242 Y3.41733
G01 X-32.18242 Y3.37672
G01 X-32.18242 Y3.30927
G01 X-32.18242 Y3.07893
G01 X-32.18242 Y3.03732
G01 X-32.18242 Y2.94310
G01 X-32.18242 Y2.91223
G01 X-32.18242 Y2.88393
G01 X-32.18299 Y2.86024
G01 X-32.18429 Y2.83385
G01 X-32.18764 Y2.79915
G01 X-32.19122 Y2.77500
G01 X-32.19601 Y2.75070
G01 X-32.20156 Y2.72855
G01 X-32.20687 Y2.71097
G01 X-32.21418 Y2.69056
G01 X-32.21675 Y2.68389
G01 X-32.22622 Y2.66103
G01 X-32.22832 Y2.65560
G01 X-32.23532 Y2.63602
G01 X-32.23805 Y2.62705
G01 X-32.24297 Y2.60744
G01 X-32.24448 Y2.59984
G01 X-32.24739 Y2.58025
G01 X-32.24806 Y2.57344
G01 X-32.24903 Y2.55384
G01 X-32.24911 Y2.55054
G01 X-32.24911 Y2.28410
G01 X-32.24903 Y2.28079
G01 X-32.24806 Y2.26122
G01 X-32.24739 Y2.25441
G01 X-32.24448 Y2.23482
G01 X-32.24297 Y2.22723
G01 X-32.23805 Y2.20761
G01 X-32.23532 Y2.19864
G01 X-32.22832 Y2.17906
G01 X-32.22622 Y2.17363
G01 X-32.21674 Y2.15075
G01 X-32.21401 Y2.14363
G01 X-32.21401 Y2.14363
G01 X-32.21674 Y2.15075
G01 X-32.22622 Y2.17363
G01 X-32.22832 Y2.17906
G01 X-32.23532 Y2.19864
G01 X-32.23805 Y2.20761
G01 X-32.24297 Y2.22723
G01 X-32.24448 Y2.23482
G01 X-32.24739 Y2.25441
G01 X-32.24806 Y2.26122
G01 X-32.24903 Y2.28079
G01 X-32.24911 Y2.28410
G01 X-32.24911 Y2.55054
G01 X-32.24903 Y2.55384
G01 X-32.24806 Y2.57344
G01 X-32.24739 Y2.58025
G01 X-32.24448 Y2.59984
G01 X-32.24297 Y2.60744
G01 X-32.23805 Y2.62705
G01 X-32.23532 Y2.63602
G01 X-32.22832 Y2.65560
G01 X-32.22622 Y2.66103
G01 X-32.21675 Y2.68389
G01 X-32.21418 Y2.69056
G01 X-32.20687 Y2.71097
G01 X-32.20156 Y2.72855
G01 X-32.19601 Y2.75070
G01 X-32.19122 Y2.77500
G01 X-32.18764 Y2.79915
G01 X-32.18429 Y2.83385
G01 X-32.18299 Y2.86024
G01 X-32.18242 Y2.88393
G01 X-32.18242 Y2.91223
G01 X-32.18242 Y2.94310
G01 X-32.18242 Y3.03732
G01 X-32.18242 Y3.07893
G01 X-32.18242 Y3.30927
G01 X-32.18242 Y3.37672
G01 X-32.18242 Y3.41733
G01 X-32.30000 Y3.41734
G01 X-32.30090 Y3.41734
G01 X-32.31969 Y3.41733
G01 X-32.32060 Y3.41733
G01 X-32.38246 Y3.41733
G01 X-32.44410 Y3.41883
G01 X-32.46370 Y3.41979
G01 X-32.58232 Y3.43111
G01 X-32.70012 Y3.41983
G01 X-32.71972 Y3.41886
G01 X-32.78226 Y3.41732
G01 X-32.84405 Y3.41581
G01 X-32.86363 Y3.41485
G01 X-32.98214 Y3.40354
G01 X-32.98214 Y3.37630
G01 X-32.98214 Y3.30885
G01 X-32.98214 Y3.07869
G01 X-32.98214 Y3.03708
G01 X-32.98214 Y2.94295
G01 X-32.98214 Y2.91208
G01 X-32.98214 Y2.88380
G01 X-32.98271 Y2.86014
G01 X-32.98401 Y2.83374
G01 X-32.98735 Y2.79909
G01 X-32.99094 Y2.77493
G01 X-32.99572 Y2.75067
G01 X-33.00127 Y2.72851
G01 X-33.00657 Y2.71096
G01 X-33.01388 Y2.69055
G01 X-33.01645 Y2.68389
G01 X-33.02596 Y2.66093
G01 X-33.02805 Y2.65551
G01 X-33.03506 Y2.63593
G01 X-33.03778 Y2.62699
G01 X-33.04269 Y2.60737
G01 X-33.04420 Y2.59980
G01 X-33.04711 Y2.58021
G01 X-33.04778 Y2.57343
G01 X-33.04875 Y2.55383
G01 X-33.04883 Y2.55054
G01 X-33.04892 Y2.54713
G01 X-33.04910 Y2.54364
G01 X-33.04910 Y2.54010
G01 X-33.04947 Y2.53304
G01 X-33.04983 Y2.52964
G01 X-33.05000 Y2.52625
G01 X-33.05078 Y2.51883
G01 X-33.05131 Y2.51547
G01 X-33.05167 Y2.51213
G01 X-33.05288 Y2.50452
G01 X-33.05358 Y2.50122
G01 X-33.05410 Y2.49794
G01 X-33.05586 Y2.48972
G01 X-33.05667 Y2.48668
G01 X-33.05732 Y2.48362
G01 X-33.05972 Y2.47467
G01 X-33.06067 Y2.47174
G01 X-33.06145 Y2.46883
G01 X-33.06469 Y2.45891
G01 X-33.06565 Y2.45642
G01 X-33.06645 Y2.45392
G01 X-33.07085 Y2.44248
G01 X-33.07182 Y2.44032
G01 X-33.07263 Y2.43820
G01 X-33.07841 Y2.42527
G01 X-33.07931 Y2.42351
G01 X-33.08008 Y2.42178
G01 X-33.08224 Y2.41715
G01 X-33.07418 Y2.40011
G01 X-33.06959 Y2.38906
G01 X-33.06258 Y2.36948
G01 X-33.05987 Y2.36053
G01 X-33.05495 Y2.34092
G01 X-33.05344 Y2.33335
G01 X-33.05054 Y2.31376
G01 X-33.04986 Y2.30694
G01 X-33.04891 Y2.28734
G01 X-33.04883 Y2.28410
G01 X-33.04883 Y2.15075
G01 X-33.04883 Y2.14732
G01 X-33.04883 Y2.14725
G01 X-33.04883 Y2.14383
G01 X-33.04864 Y2.14031
G01 X-33.04864 Y2.13307
G01 X-33.04882 Y2.12969
G01 X-33.04882 Y2.12634
G01 X-33.04882 Y2.12624
G01 X-33.04882 Y2.11841
G01 X-33.04882 Y2.11839
G01 X-33.04882 Y2.11500
G01 X-33.04864 Y2.11168
G01 X-33.04865 Y2.10285
G01 X-33.04882 Y2.09960
G01 X-33.04882 Y2.09643
G01 X-33.04882 Y2.09642
G01 X-33.04882 Y2.08591
G01 X-33.04882 Y2.08585
G01 X-33.04882 Y2.08288
G01 X-33.04866 Y2.07997
G01 X-33.04868 Y2.06687
G01 X-33.04881 Y2.06425
G01 X-33.04882 Y2.06179
G01 X-33.04882 Y2.06172
G01 X-33.04882 Y2.04496
G01 X-33.04882 Y2.04479
G01 X-33.04882 Y2.04305
G01 X-33.04873 Y2.04135
G01 X-33.04879 Y2.01806
G01 X-33.04882 Y2.01753
G01 X-33.04882 Y2.01708
G01 X-33.04882 Y2.01686
G01 X-33.04882 Y1.98592
G01 X-33.04878 Y1.98507
G01 X-33.04867 Y1.94962
G01 X-33.04882 Y1.94558
G01 X-33.04882 Y1.88930
G01 X-33.04851 Y1.87802
G01 X-33.04837 Y1.82694
G01 X-33.04882 Y1.80405
G01 X-33.04882 Y1.65589
G01 X-33.04784 Y1.57905
G01 X-33.04760 Y1.47982
G01 X-33.04771 Y1.46372
G01 X-33.03996 Y1.46128
G01 X-33.01981 Y1.45513
G01 X-32.92605 Y1.42740
G01 X-32.90514 Y1.42103
G01 X-32.89306 Y1.41724
G01 X-32.88331 Y1.41421
G01 X-32.86372 Y1.41581
G01 X-32.84422 Y1.41755
G01 X-32.78226 Y1.42356
G01 X-32.77184 Y1.42461
G01 X-32.75096 Y1.42680
G01 X-32.64902 Y1.44161
G01 X-32.55713 Y1.42790
G01 X-32.54617 Y1.43110
G01 X-32.52339 Y1.43783
G01 X-32.48188 Y1.45080
G01 X-32.42122 Y1.47082
G01 X-32.40143 Y1.47753
G01 X-32.39290 Y1.48051
G01 X-32.37200 Y1.48758
G01 X-32.29426 Y1.51310
G01 X-32.27548 Y1.51946
G01 X-32.26001 Y1.52484
G01 X-32.24010 Y1.53157
G01 X-32.18195 Y1.55056
G01 X-32.18299 Y1.67726
G01 X-32.18274 Y1.72810
G01 X-32.18222 Y1.75611
G01 X-32.18206 Y1.79802
G01 X-32.18276 Y1.85777
G01 X-32.18248 Y1.89149
G01 X-32.18243 Y1.89292
G01 X-32.18218 Y1.92273
G01 X-32.18256 Y1.95060
G01 X-32.18269 Y1.95707
G01 X-32.18346 Y1.98586
G01 X-32.18650 Y2.02559
G01 X-32.18994 Y2.05168
G01 X-32.19489 Y2.07872
G01 X-32.20060 Y2.10255
G01 X-32.20628 Y2.12182
G01 X-32.21401 Y2.14363
G04 P0 ( dwell for no time -- G64 should not smooth over this point )
G00 Z10.00000 ( retract )

G00 X-30.74080 Y2.12416 ( rapid move to begin. )
G01 F30.00000
G01 Z-0.10000
G04 P0 ( dwell for no time -- G64 should not smooth over this point )
G01 F360.00000
G01 X-30.74080 Y2.12416
G01 X-30.74650 Y2.14031
G01 X-30.75515 Y2.16121
G01 X-30.76076 Y2.17301
G01 X-30.76081 Y2.17310
G01 X-30.76338 Y2.17812
G01 X-30.77026 Y2.19243
G01 X-30.77218 Y2.19622
G01 X-30.77527 Y2.20203
G01 X-30.77680 Y2.20503
G01 X-30.78451 Y2.22080
G01 X-30.78544 Y2.22265
G01 X-30.78922 Y2.22998
G01 X-30.78990 Y2.23133
G01 X-30.79866 Y2.24895
G01 X-30.79874 Y2.24912
G01 X-30.80370 Y2.25906
G01 X-30.80403 Y2.25971
G01 X-30.81319 Y2.27780
G01 X-30.81414 Y2.27972
G01 X-30.81965 Y2.29103
G01 X-30.82124 Y2.29421
G01 X-30.83026 Y2.31177
G01 X-30.83255 Y2.31638
G01 X-30.83987 Y2.33158
G01 X-30.84374 Y2.33930
G01 X-30.84513 Y2.34197
G01 X-30.84347 Y2.35315
G01 X-30.83925 Y2.37433
G01 X-30.83434 Y2.39394
G01 X-30.82727 Y2.41719
G01 X-30.82026 Y2.43677
G01 X-30.81527 Y2.44971
G01 X-30.80769 Y2.46801
G01 X-30.80480 Y2.47020
G01 X-30.78809 Y2.48302
G01 X-30.78288 Y2.48711
G01 X-30.78288 Y2.52016
G01 X-30.78288 Y2.55143
G01 X-30.78288 Y2.57427
G01 X-30.78288 Y2.60008
G01 X-30.78288 Y2.61314
G01 X-30.78288 Y2.63603
G01 X-30.78288 Y2.64491
G01 X-30.78288 Y2.66626
G01 X-30.78288 Y2.67345
G01 X-30.78288 Y2.69436
G01 X-30.78288 Y2.70155
G01 X-30.78288 Y2.72289
G01 X-30.78288 Y2.73178
G01 X-30.78288 Y2.75467
G01 X-30.78288 Y2.76773
G01 X-30.78288 Y2.79354
G01 X-30.78288 Y2.81638
G01 X-30.78288 Y2.84765
G01 X-30.78288 Y2.89380
G01 X-30.78288 Y2.93557
G01 X-30.78288 Y3.05909
G01 X-30.78288 Y3.12648
G01 X-30.78288 Y3.50810
G01 X-30.81828 Y3.52392
G01 X-30.83836 Y3.53306
G01 X-30.89316 Y3.55846
G01 X-30.91390 Y3.56792
G01 X-30.91612 Y3.56891
G01 X-31.04947 Y3.63538
G01 X-31.04958 Y3.63544
G01 X-31.12850 Y3.59207
G01 X-31.14718 Y3.58195
G01 X-31.18086 Y3.56396
G01 X-31.20036 Y3.55339
G01 X-31.28838 Y3.50487
G01 X-31.30596 Y3.49534
G01 X-31.34560 Y3.47416
G01 X-31.36411 Y3.46409
G01 X-31.38270 Y3.45382
G01 X-31.38270 Y3.32817
G01 X-31.38270 Y3.28656
G01 X-31.38270 Y3.10548
G01 X-31.38270 Y3.07461
G01 X-31.38270 Y3.01715
G01 X-31.38155 Y2.96907
G01 X-31.38025 Y2.94267
G01 X-31.37304 Y2.86799
G01 X-31.36946 Y2.84383
G01 X-31.35843 Y2.78790
G01 X-31.35579 Y2.77736
G01 X-31.35304 Y2.76579
G01 X-31.35034 Y2.75381
G01 X-31.34507 Y2.73280
G01 X-31.34227 Y2.72267
G01 X-31.33724 Y2.70248
G01 X-31.33532 Y2.69385
G01 X-31.33297 Y2.68389
G01 X-31.33053 Y2.67417
G01 X-31.32359 Y2.63938
G01 X-31.32068 Y2.61979
G01 X-31.31739 Y2.58637
G01 X-31.31644 Y2.56677
G01 X-31.31604 Y2.55054
G01 X-31.31604 Y2.38101
G01 X-31.32191 Y2.37084
G01 X-31.33814 Y2.33911
G01 X-31.34746 Y2.31821
G01 X-31.35800 Y2.29084
G01 X-31.36019 Y2.28410
G01 X-31.36454 Y2.27178
G01 X-31.36514 Y2.27020
G01 X-31.36629 Y2.26715
G01 X-31.36783 Y2.26245
G01 X-31.37277 Y2.24680
G01 X-31.37314 Y2.24563
G01 X-31.37889 Y2.22873
G01 X-31.37957 Y2.22694
G01 X-31.38063 Y2.22415
G01 X-31.38214 Y2.21952
G01 X-31.38678 Y2.20480
G01 X-31.38734 Y2.20306
G01 X-31.39284 Y2.18688
G01 X-31.39360 Y2.18490
G01 X-31.39462 Y2.18219
G01 X-31.39618 Y2.17744
G01 X-31.40131 Y2.16121
G01 X-31.40188 Y2.15941
G01 X-31.40814 Y2.14113
G01 X-31.40845 Y2.14031
G01 X-31.40983 Y2.13663
G01 X-31.41132 Y2.13211
G01 X-31.41597 Y2.11748
G01 X-31.41782 Y2.11146
G01 X-31.42457 Y2.08868
G01 X-31.43367 Y2.05048
G01 X-31.43829 Y2.02553
G01 X-31.44506 Y1.97336
G01 X-31.44722 Y1.94598
G01 X-31.44925 Y1.88406
G01 X-31.44912 Y1.87019
G01 X-31.44931 Y1.84124
G01 X-31.44937 Y1.83864
G01 X-31.44960 Y1.81072
G01 X-31.44907 Y1.71039
G01 X-31.44928 Y1.67266
G01 X-31.44936 Y1.66812
G01 X-31.44961 Y1.63166
G01 X-31.44947 Y1.57280
G01 X-31.40815 Y1.55892
G01 X-31.38952 Y1.55285
G01 X-31.38874 Y1.55260
G01 X-31.36888 Y1.54612
G01 X-31.28958 Y1.51937
G01 X-31.27065 Y1.51318
G01 X-31.26068 Y1.51001
G01 X-31.24037 Y1.50336
G01 X-31.18282 Y1.48388
G01 X-31.16312 Y1.47703
G01 X-31.14354 Y1.47002
G01 X-31.04947 Y1.43207
G01 X-31.02480 Y1.42070
G01 X-31.00522 Y1.41144
G01 X-30.91612 Y1.36549
G01 X-30.87241 Y1.34108
G01 X-30.87075 Y1.34016
G01 X-30.85560 Y1.34770
G01 X-30.84296 Y1.35408
G01 X-30.83560 Y1.35783
G01 X-30.82299 Y1.36419
G01 X-30.71601 Y1.41748
G01 X-30.71598 Y1.45911
G01 X-30.71619 Y1.50366
G01 X-30.71641 Y1.52515
G01 X-30.71658 Y1.57225
G01 X-30.71598 Y1.75639
G01 X-30.71616 Y1.78350
G01 X-30.71638 Y1.79726
G01 X-30.71651 Y1.82588
G01 X-30.71599 Y1.89198
G01 X-30.71614 Y1.91275
G01 X-30.71636 Y1.92240
G01 X-30.71645 Y1.94436
G01 X-30.71635 Y1.95071
G01 X-30.71765 Y1.99381
G01 X-30.71981 Y2.02120
G01 X-30.72404 Y2.05378
G01 X-30.72866 Y2.07873
G01 X-30.73406 Y2.10138
G01 X-30.74080 Y2.12416
G04 P0 ( dwell for no time -- G64 should not smooth over this point )
G00 Z10.00000 ( retract )

G00 X-33.08224 Y2.41715 ( rapid move to begin. )
G01 F30.00000
G01 Z-0.10000
G04 P0 ( dwell for no time -- G64 should not smooth over this point )
G01 F360.00000
G01 X-33.08224 Y2.41715
G01 X-33.08547 Y2.41722
G01 X-33.09307 Y2.41745
G01 X-33.09565 Y2.41751
G01 X-33.09829 Y2.41739
G01 X-33.09972 Y2.41730
G01 X-33.11125 Y2.41717
G01 X-33.11413 Y2.41727
G01 X-33.11707 Y2.41722
G01 X-33.12199 Y2.41725
G01 X-33.12773 Y2.41742
G01 X-33.13093 Y2.41746
G01 X-33.13136 Y2.41743
G01 X-33.13417 Y2.41726
G01 X-33.14297 Y2.41716
G01 X-33.14627 Y2.41730
G01 X-33.14965 Y2.41727
G01 X-33.15188 Y2.41727
G01 X-33.15762 Y2.41738
G01 X-33.15910 Y2.41739
G01 X-33.16098 Y2.41739
G01 X-33.16436 Y2.41720
G01 X-33.17159 Y2.41717
G01 X-33.17504 Y2.41734
G01 X-33.17848 Y2.41732
G01 X-33.17880 Y2.41732
G01 X-33.18205 Y2.41732
G01 X-33.31540 Y2.41732
G01 X-33.31866 Y2.41732
G01 X-33.31870 Y2.41732
G01 X-33.33832 Y2.41733
G01 X-33.33837 Y2.41733
G01 X-33.34557 Y2.41733
G01 X-33.36604 Y2.41733
G01 X-33.37548 Y2.41733
G01 X-33.39772 Y2.41733
G01 X-33.41205 Y2.41733
G01 X-33.43738 Y2.41733
G01 X-33.46230 Y2.41733
G01 X-33.49317 Y2.41733
G01 X-33.54383 Y2.41733
G01 X-33.58543 Y2.41733
G01 X-33.72067 Y2.41733
G01 X-33.78812 Y2.41733
G01 X-34.56118 Y2.41733
G01 X-34.56268 Y2.41733
G01 X-34.75985 Y2.41732
G01 X-34.76160 Y2.41732
G01 X-35.04339 Y2.41732
G01 X-35.04819 Y2.41288
G01 X-35.05507 Y2.40651
G01 X-34.95066 Y2.31018
G01 X-34.92906 Y2.29038
G01 X-34.92216 Y2.28410
G01 X-34.78225 Y2.15075
G01 X-34.78174 Y2.15024
G01 X-34.65350 Y2.02806
G01 X-34.64839 Y2.02343
G01 X-34.63400 Y2.01032
G01 X-34.53728 Y1.92167
G01 X-34.51919 Y1.90523
G01 X-34.44836 Y1.84142
G01 X-34.42243 Y1.82501
G01 X-34.40073 Y1.81112
G01 X-34.36629 Y1.78886
G01 X-34.34531 Y1.77544
G01 X-34.24834 Y1.71410
G01 X-34.20411 Y1.68685
G01 X-34.18450 Y1.67509
G01 X-34.01882 Y1.58625
G01 X-33.99924 Y1.57699
G01 X-33.98190 Y1.56890
G01 X-33.90853 Y1.53518
G01 X-33.88966 Y1.52666
G01 X-33.85336 Y1.51054
G01 X-33.83488 Y1.50219
G01 X-33.79473 Y1.48372
G01 X-33.78594 Y1.48374
G01 X-33.68277 Y1.48423
G01 X-33.66057 Y1.48417
G01 X-33.62374 Y1.48380
G01 X-33.60083 Y1.48375
G01 X-33.52791 Y1.48422
G01 X-33.50745 Y1.48419
G01 X-33.46781 Y1.48379
G01 X-33.44646 Y1.48377
G01 X-33.39122 Y1.48421
G01 X-33.37154 Y1.48420
G01 X-33.32584 Y1.48378
G01 X-33.31540 Y1.48373
G01 X-33.30494 Y1.48373
G01 X-33.18566 Y1.47746
G01 X-33.18205 Y1.47708
G01 X-33.16476 Y1.47539
G01 X-33.14599 Y1.47370
G01 X-33.07434 Y1.46660
G01 X-33.04771 Y1.46372
G01 X-33.04760 Y1.47982
G01 X-33.04784 Y1.57905
G01 X-33.04882 Y1.65589
G01 X-33.04882 Y1.80405
G01 X-33.04837 Y1.82694
G01 X-33.04851 Y1.87802
G01 X-33.04882 Y1.88930
G01 X-33.04882 Y1.94558
G01 X-33.04867 Y1.94962
G01 X-33.04878 Y1.98507
G01 X-33.04882 Y1.98592
G01 X-33.04882 Y2.01686
G01 X-33.04882 Y2.01708
G01 X-33.04882 Y2.01753
G01 X-33.04879 Y2.01806
G01 X-33.04873 Y2.04135
G01 X-33.04882 Y2.04305
G01 X-33.04882 Y2.04479
G01 X-33.04882 Y2.04496
G01 X-33.04882 Y2.06172
G01 X-33.04882 Y2.06179
G01 X-33.04881 Y2.06425
G01 X-33.04868 Y2.06687
G01 X-33.04866 Y2.07997
G01 X-33.04882 Y2.08288
G01 X-33.04882 Y2.08585
G01 X-33.04882 Y2.08591
G01 X-33.04882 Y2.09642
G01 X-33.04882 Y2.09643
G01 X-33.04882 Y2.09960
G01 X-33.04865 Y2.10285
G01 X-33.04864 Y2.11168
G01 X-33.04882 Y2.11500
G01 X-33.04882 Y2.11839
G01 X-33.04882 Y2.11841
G01 X-33.04882 Y2.12624
G01 X-33.04882 Y2.12634
G01 X-33.04882 Y2.12969
G01 X-33.04864 Y2.13307
G01 X-33.04864 Y2.14031
G01 X-33.04883 Y2.14383
G01 X-33.04883 Y2.14725
G01 X-33.04883 Y2.14732
G01 X-33.04883 Y2.15075
G01 X-33.04883 Y2.28410
G01 X-33.04891 Y2.28734
G01 X-33.04986 Y2.30694
G01 X-33.05054 Y2.31376
G01 X-33.05344 Y2.33335
G01 X-33.05495 Y2.34092
G01 X-33.05987 Y2.36053
G01 X-33.06258 Y2.36948
G01 X-33.06959 Y2.38906
G01 X-33.07418 Y2.40011
G01 X-33.08224 Y2.41715
G01 X-33.04892 Y2.54713
G01 X-33.04883 Y2.55054
G01 X-33.04875 Y2.55383
G01 X-33.04778 Y2.57343
G01 X-33.04711 Y2.58021
G01 X-33.04420 Y2.59980
G01 X-33.04269 Y2.60737
G01 X-33.03778 Y2.62699
G01 X-33.03506 Y2.63593
G01 X-33.02805 Y2.65551
G01 X-33.02596 Y2.66093
G01 X-33.01645 Y2.68389
G01 X-33.01388 Y2.69055
G01 X-33.00657 Y2.71096
G01 X-33.00127 Y2.72851
G01 X-32.99572 Y2.75067
G01 X-32.99094 Y2.77493
G01 X-32.98735 Y2.79909
G01 X-32.98401 Y2.83374
G01 X-32.98271 Y2.86014
G01 X-32.98214 Y2.88380
G01 X-32.98214 Y2.91208
G01 X-32.98214 Y2.94295
G01 X-32.98214 Y3.03708
G01 X-32.98214 Y3.07869
G01 X-32.98214 Y3.30885
G01 X-32.98214 Y3.37630
G01 X-32.98214 Y3.40354
G01 X-33.10074 Y3.41486
G01 X-33.12034 Y3.41581
G01 X-33.18205 Y3.41732
G01 X-33.24467 Y3.41886
G01 X-33.26425 Y3.41983
G01 X-33.31540 Y3.42339
G01 X-33.31627 Y3.42347
G01 X-33.37737 Y3.41754
G01 X-33.39687 Y3.41581
G01 X-33.43829 Y3.41243
G01 X-33.45919 Y3.41056
G01 X-33.52377 Y3.40423
G01 X-33.54369 Y3.40243
G01 X-33.58196 Y3.39926
G01 X-33.67321 Y3.37414
G01 X-33.69266 Y3.36893
G01 X-33.70473 Y3.36580
G01 X-33.72564 Y3.36019
G01 X-33.83324 Y3.33048
G01 X-33.84854 Y3.32633
G01 X-33.85337 Y3.32414
G01 X-33.97143 Y3.27085
G01 X-33.99234 Y3.26124
G01 X-33.99951 Y3.25789
G01 X-34.01929 Y3.24879
G01 X-34.17834 Y3.17679
G01 X-34.18052 Y3.17581
G01 X-34.19499 Y3.16518
G01 X-34.21264 Y3.15238
G01 X-34.26908 Y3.11189
G01 X-34.28746 Y3.09856
G01 X-34.38169 Y3.02949
G01 X-34.39296 Y3.02118
G01 X-34.41255 Y3.00666
G01 X-34.63406 Y2.82419
G01 X-34.64839 Y2.81121
G01 X-34.65367 Y2.80643
G01 X-34.78952 Y2.68389
G01 X-34.79237 Y2.68132
G01 X-34.81558 Y2.66043
G01 X-34.84719 Y2.63225
G01 X-34.92072 Y2.55054
G01 X-34.96053 Y2.50750
G01 X-35.04339 Y2.41732
G01 X-34.76160 Y2.41732
G01 X-34.75985 Y2.41732
G01 X-34.56268 Y2.41733
G01 X-34.56118 Y2.41733
G01 X-33.78812 Y2.41733
G01 X-33.72067 Y2.41733
G01 X-33.58543 Y2.41733
G01 X-33.54383 Y2.41733
G01 X-33.49317 Y2.41733
G01 X-33.46230 Y2.41733
G01 X-33.43738 Y2.41733
G01 X-33.41205 Y2.41733
G01 X-33.39772 Y2.41733
G01 X-33.37548 Y2.41733
G01 X-33.36604 Y2.41733
G01 X-33.34557 Y2.41733
G01 X-33.33837 Y2.41733
G01 X-33.33832 Y2.41733
G01 X-33.31870 Y2.41732
G01 X-33.31866 Y2.41732
G01 X-33.31540 Y2.41732
G01 X-33.18205 Y2.41732
G01 X-33.17880 Y2.41732
G01 X-33.17848 Y2.41732
G01 X-33.17504 Y2.41734
G01 X-33.17159 Y2.41717
G01 X-33.16436 Y2.41720
G01 X-33.16098 Y2.41739
G01 X-33.15910 Y2.41739
G01 X-33.15762 Y2.41738
G01 X-33.15188 Y2.41727
G01 X-33.14965 Y2.41727
G01 X-33.14627 Y2.41730
G01 X-33.14297 Y2.41716
G01 X-33.13417 Y2.41726
G01 X-33.13136 Y2.41743
G01 X-33.13093 Y2.41746
G01 X-33.12773 Y2.41742
G01 X-33.12199 Y2.41725
G01 X-33.11707 Y2.41722
G01 X-33.11413 Y2.41727
G01 X-33.11125 Y2.41717
G01 X-33.09972 Y2.41730
G01 X-33.09829 Y2.41739
G01 X-33.09565 Y2.41751
G01 X-33.09307 Y2.41745
G01 X-33.08547 Y2.41722
G01 X-33.08224 Y2.41715
G01 X-33.08008 Y2.42178
G01 X-33.07931 Y2.42351
G01 X-33.07841 Y2.42527
G01 X-33.07263 Y2.43820
G01 X-33.07182 Y2.44032
G01 X-33.07085 Y2.44248
G01 X-33.06645 Y2.45392
G01 X-33.06565 Y2.45642
G01 X-33.06469 Y2.45891
G01 X-33.06145 Y2.46883
G01 X-33.06067 Y2.47174
G01 X-33.05972 Y2.47467
G01 X-33.05732 Y2.48362
G01 X-33.05667 Y2.48668
G01 X-33.05586 Y2.48972
G01 X-33.05410 Y2.49794
G01 X-33.05358 Y2.50122
G01 X-33.05288 Y2.50452
G01 X-33.05167 Y2.51213
G01 X-33.05131 Y2.51547
G01 X-33.05078 Y2.51883
G01 X-33.05000 Y2.52625
G01 X-33.04983 Y2.52964
G01 X-33.04947 Y2.53304
G01 X-33.04910 Y2.54010
G01 X-33.04910 Y2.54364
G01 X-33.04892 Y2.54713
G04 P0 ( dwell for no time -- G64 should not smooth over this point )
G00 Z10.00000 ( retract )

G00 X-30.10046 Y0.05080 ( rapid move to begin. )
G01 F30.00000
G01 Z-0.10000
G04 P0 ( dwell for no time -- G64 should not smooth over this point )
G01 F360.00000
G01 X-30.10046 Y0.05080
G01 X-30.09903 Y0.05861
G01 X-30.09334 Y0.08245
G01 X-30.08358 Y0.11568
G01 X-30.08293 Y0.11751
G01 X-30.07848 Y0.13112
G01 X-30.07660 Y0.13742
G01 X-30.07223 Y0.15075
G01 X-30.07208 Y0.15117
G01 X-30.06505 Y0.17430
G01 X-30.06015 Y0.19386
G01 X-30.05590 Y0.21520
G01 X-30.05301 Y0.23478
G01 X-30.05104 Y0.25477
G01 X-30.05009 Y0.27432
G01 X-30.04985 Y0.28410
G01 X-30.04985 Y0.49583
G01 X-30.04602 Y0.50110
G01 X-30.03384 Y0.51981
G01 X-30.02178 Y0.54069
G01 X-30.01654 Y0.55055
G01 X-30.01445 Y0.55484
G01 X-30.01345 Y0.55685
G01 X-30.00434 Y0.57485
G01 X-30.00397 Y0.57559
G01 X-29.99903 Y0.58549
G01 X-29.99896 Y0.58564
G01 X-29.99021 Y0.60329
G01 X-29.98954 Y0.60462
G01 X-29.98571 Y0.61205
G01 X-29.98482 Y0.61382
G01 X-29.97710 Y0.62961
G01 X-29.97558 Y0.63260
G01 X-29.97250 Y0.63839
G01 X-29.97057 Y0.64221
G01 X-29.96371 Y0.65648
G01 X-29.96112 Y0.66155
G01 X-29.96109 Y0.66161
G01 X-29.95546 Y0.67346
G01 X-29.94682 Y0.69436
G01 X-29.94113 Y0.71052
G01 X-29.93439 Y0.73330
G01 X-29.92901 Y0.75597
G01 X-29.92440 Y0.78091
G01 X-29.92019 Y0.81349
G01 X-29.91803 Y0.84087
G01 X-29.91676 Y0.88355
G01 X-29.91685 Y0.89031
G01 X-29.91677 Y0.91172
G01 X-29.91654 Y0.92192
G01 X-29.91641 Y0.94219
G01 X-29.91692 Y1.00878
G01 X-29.91695 Y1.01682
G01 X-29.91545 Y1.02236
G01 X-29.91320 Y1.03057
G01 X-29.90596 Y1.05865
G01 X-29.88943 Y1.12724
G01 X-29.88012 Y1.16372
G01 X-29.87677 Y1.17614
G01 X-29.86738 Y1.21266
G01 X-29.82509 Y1.38501
G01 X-29.81698 Y1.41738
G01 X-29.82509 Y1.42061
G01 X-29.91662 Y1.45744
G01 X-29.95184 Y1.46063
G01 X-29.97376 Y1.46281
G01 X-30.03444 Y1.46937
G01 X-30.05569 Y1.47147
G01 X-30.09923 Y1.47539
G01 X-30.11653 Y1.47708
G01 X-30.12014 Y1.47746
G01 X-30.23941 Y1.48373
G01 X-30.26032 Y1.48373
G01 X-30.37959 Y1.47746
G01 X-30.40047 Y1.47526
G01 X-30.51632 Y1.45718
G01 X-30.52286 Y1.45583
G01 X-30.54390 Y1.45167
G01 X-30.57629 Y1.44555
G01 X-30.59636 Y1.44160
G01 X-30.67774 Y1.42489
G01 X-30.70032 Y1.42044
G01 X-30.71601 Y1.41748
G01 X-30.82299 Y1.36419
G01 X-30.83560 Y1.35783
G01 X-30.84296 Y1.35408
G01 X-30.85560 Y1.34770
G01 X-30.87075 Y1.34016
G01 X-30.87299 Y1.31853
G01 X-30.87409 Y1.30715
G01 X-30.88465 Y1.25766
G01 X-30.89022 Y1.23258
G01 X-30.90553 Y1.16607
G01 X-30.91039 Y1.14412
G01 X-30.92234 Y1.08810
G01 X-30.92729 Y1.06588
G01 X-30.93719 Y1.02330
G01 X-30.94168 Y1.00317
G01 X-30.95296 Y0.95034
G01 X-30.95318 Y0.94935
G01 X-30.95762 Y0.92844
G01 X-30.97479 Y0.82044
G01 X-30.97698 Y0.79956
G01 X-30.98251 Y0.69436
G01 X-30.98251 Y0.67346
G01 X-30.97698 Y0.56826
G01 X-30.97479 Y0.54738
G01 X-30.95762 Y0.43938
G01 X-30.95318 Y0.41847
G01 X-30.95297 Y0.41749
G01 X-30.97076 Y0.31897
G01 X-30.97351 Y0.29806
G01 X-30.98186 Y0.19188
G01 X-30.98239 Y0.17100
G01 X-30.98270 Y0.15075
G01 X-30.98287 Y0.11998
G01 X-30.98259 Y0.06552
G01 X-30.98258 Y0.05629
G01 X-30.98258 Y0.05080
G01 X-30.10046 Y0.05080
G01 X-30.10046 Y0.05080
G01 X-29.11671 Y0.05080
G01 X-29.11673 Y0.07320
G01 X-29.11680 Y0.07471
G01 X-29.11679 Y0.09668
G01 X-29.11674 Y0.09760
G01 X-29.11676 Y0.11894
G01 X-29.11678 Y0.11936
G01 X-29.11677 Y0.14031
G01 X-29.11677 Y0.14036
G01 X-29.11650 Y0.15075
G01 X-29.11650 Y0.16121
G01 X-29.11539 Y0.18230
G01 X-29.11320 Y0.20317
G01 X-29.10970 Y0.22519
G01 X-29.10525 Y0.24610
G01 X-29.09885 Y0.26994
G01 X-29.09207 Y0.29084
G01 X-29.08153 Y0.31821
G01 X-29.07221 Y0.33911
G01 X-29.05598 Y0.37085
G01 X-29.05011 Y0.38101
G01 X-29.05011 Y0.68390
G01 X-29.05011 Y0.70017
G01 X-29.05011 Y0.70038
G01 X-29.05009 Y0.71986
G01 X-29.05009 Y0.72008
G01 X-29.05009 Y0.75456
G01 X-29.05009 Y0.77503
G01 X-29.05009 Y0.81528
G01 X-29.05009 Y0.83751
G01 X-29.05009 Y0.88998
G01 X-29.05009 Y0.91531
G01 X-29.05009 Y0.99335
G01 X-29.05009 Y1.02422
G01 X-29.05009 Y1.16183
G01 X-29.05009 Y1.20343
G01 X-29.05009 Y1.39928
G01 X-29.05933 Y1.40183
G01 X-29.07877 Y1.40703
G01 X-29.08637 Y1.40900
G01 X-29.10531 Y1.41406
G01 X-29.18355 Y1.43560
G01 X-29.20531 Y1.43369
G01 X-29.22662 Y1.43165
G01 X-29.23380 Y1.43090
G01 X-29.25368 Y1.42899
G01 X-29.31668 Y1.42340
G01 X-29.36278 Y1.42015
G01 X-29.38369 Y1.41906
G01 X-29.45003 Y1.41732
G01 X-29.58338 Y1.41732
G01 X-29.71673 Y1.41732
G01 X-29.77859 Y1.41732
G01 X-29.78333 Y1.41733
G01 X-29.79829 Y1.41738
G01 X-29.80433 Y1.41739
G01 X-29.81698 Y1.41738
G01 X-29.82509 Y1.38501
G01 X-29.86738 Y1.21266
G01 X-29.87677 Y1.17614
G01 X-29.88012 Y1.16372
G01 X-29.88943 Y1.12724
G01 X-29.90596 Y1.05865
G01 X-29.91320 Y1.03057
G01 X-29.91545 Y1.02236
G01 X-29.91695 Y1.01682
G01 X-29.91692 Y1.00878
G01 X-29.91641 Y0.94219
G01 X-29.91654 Y0.92192
G01 X-29.91677 Y0.91172
G01 X-29.91685 Y0.89031
G01 X-29.91676 Y0.88355
G01 X-29.91803 Y0.84087
G01 X-29.92019 Y0.81349
G01 X-29.92440 Y0.78091
G01 X-29.92901 Y0.75597
G01 X-29.93439 Y0.73330
G01 X-29.94113 Y0.71052
G01 X-29.94682 Y0.69436
G01 X-29.95546 Y0.67346
G01 X-29.96109 Y0.66161
G01 X-29.96112 Y0.66155
G01 X-29.96371 Y0.65648
G01 X-29.97057 Y0.64221
G01 X-29.97250 Y0.63839
G01 X-29.97558 Y0.63260
G01 X-29.97710 Y0.62961
G01 X-29.98482 Y0.61382
G01 X-29.98571 Y0.61205
G01 X-29.98954 Y0.60462
G01 X-29.99021 Y0.60329
G01 X-29.99896 Y0.58564
G01 X-29.99903 Y0.58549
G01 X-30.00397 Y0.57559
G01 X-30.00434 Y0.57485
G01 X-30.01345 Y0.55685
G01 X-30.01445 Y0.55484
G01 X-30.01654 Y0.55055
G01 X-30.02178 Y0.54069
G01 X-30.03384 Y0.51981
G01 X-30.04602 Y0.50110
G01 X-30.04985 Y0.49583
G01 X-30.04985 Y0.28410
G01 X-30.05009 Y0.27432
G01 X-30.05104 Y0.25477
G01 X-30.05301 Y0.23478
G01 X-30.05590 Y0.21520
G01 X-30.06015 Y0.19386
G01 X-30.06505 Y0.17430
G01 X-30.07208 Y0.15117
G01 X-30.07223 Y0.15075
G01 X-30.07660 Y0.13742
G01 X-30.07848 Y0.13112
G01 X-30.08293 Y0.11751
G01 X-30.08358 Y0.11568
G01 X-30.09334 Y0.08245
G01 X-30.09903 Y0.05861
G01 X-30.10046 Y0.05080
G04 P0 ( dwell for no time -- G64 should not smooth over this point )
G00 Z10.00000 ( retract )

G00 X-28.25050 Y0.05080 ( rapid move to begin. )
G01 F30.00000
G01 Z-0.10000
G04 P0 ( dwell for no time -- G64 should not smooth over this point )
G01 F360.00000
G01 X-28.25050 Y0.05080
G01 X-28.25057 Y0.05512
G01 X-28.25057 Y0.07646
G01 X-28.25020 Y0.09824
G01 X-28.25020 Y0.11925
G01 X-28.25056 Y0.14031
G01 X-28.25065 Y0.15078
G01 X-28.25065 Y0.16121
G01 X-28.25397 Y0.22434
G01 X-28.25616 Y0.24522
G01 X-28.25658 Y0.24906
G01 X-28.26689 Y0.26703
G01 X-28.26704 Y0.26729
G01 X-28.26715 Y0.26749
G01 X-28.26729 Y0.26771
G01 X-28.28221 Y0.29149
G01 X-28.29209 Y0.29881
G01 X-28.30071 Y0.30507
G01 X-28.31148 Y0.31306
G01 X-28.35054 Y0.34270
G01 X-28.35910 Y0.34906
G01 X-28.36827 Y0.35574
G01 X-28.37677 Y0.36206
G01 X-28.40968 Y0.38706
G01 X-28.41805 Y0.39328
G01 X-28.42661 Y0.39950
G01 X-28.43498 Y0.40571
G01 X-28.45027 Y0.41734
G01 X-28.45027 Y0.44597
G01 X-28.45027 Y0.47724
G01 X-28.45027 Y0.52592
G01 X-28.45027 Y0.55173
G01 X-28.45027 Y0.58344
G01 X-28.45027 Y0.60633
G01 X-28.45027 Y0.63074
G01 X-28.45027 Y0.65208
G01 X-28.45027 Y0.67346
G01 X-28.45027 Y0.69436
G01 X-28.45027 Y0.71573
G01 X-28.45027 Y0.73708
G01 X-28.45027 Y0.76149
G01 X-28.45027 Y0.78438
G01 X-28.45027 Y0.81608
G01 X-28.45027 Y0.84190
G01 X-28.45027 Y0.89057
G01 X-28.45027 Y0.92184
G01 X-28.45027 Y1.00931
G01 X-28.45027 Y1.05108
G01 X-28.45027 Y1.26356
G01 X-28.45027 Y1.33095
G01 X-28.45027 Y1.41733
G01 X-28.47607 Y1.42460
G01 X-28.49625 Y1.43012
G01 X-28.56032 Y1.44708
G01 X-28.58077 Y1.45267
G01 X-28.58378 Y1.45352
G01 X-28.60701 Y1.44955
G01 X-28.62729 Y1.44593
G01 X-28.65018 Y1.44166
G01 X-28.75885 Y1.42605
G01 X-28.77894 Y1.42403
G01 X-28.78353 Y1.42357
G01 X-28.84550 Y1.41754
G01 X-28.86500 Y1.41580
G01 X-28.90683 Y1.41238
G01 X-28.92692 Y1.41057
G01 X-28.99190 Y1.40423
G01 X-29.01182 Y1.40244
G01 X-29.05009 Y1.39928
G01 X-29.05009 Y1.20343
G01 X-29.05009 Y1.16183
G01 X-29.05009 Y1.02422
G01 X-29.05009 Y0.99335
G01 X-29.05009 Y0.91531
G01 X-29.05009 Y0.88998
G01 X-29.05009 Y0.83751
G01 X-29.05009 Y0.81528
G01 X-29.05009 Y0.77503
G01 X-29.05009 Y0.75456
G01 X-29.05009 Y0.72008
G01 X-29.05009 Y0.71986
G01 X-29.05011 Y0.70038
G01 X-29.05011 Y0.70017
G01 X-29.05011 Y0.68390
G01 X-29.05011 Y0.38101
G01 X-29.05598 Y0.37085
G01 X-29.07221 Y0.33911
G01 X-29.08153 Y0.31821
G01 X-29.09207 Y0.29084
G01 X-29.09885 Y0.26994
G01 X-29.10525 Y0.24610
G01 X-29.10970 Y0.22519
G01 X-29.11320 Y0.20317
G01 X-29.11539 Y0.18230
G01 X-29.11650 Y0.16121
G01 X-29.11650 Y0.15075
G01 X-29.11677 Y0.14036
G01 X-29.11677 Y0.14031
G01 X-29.11678 Y0.11936
G01 X-29.11676 Y0.11894
G01 X-29.11674 Y0.09760
G01 X-29.11679 Y0.09668
G01 X-29.11680 Y0.07471
G01 X-29.11673 Y0.07320
G01 X-29.11671 Y0.05080
G01 X-28.25050 Y0.05080
G01 X-28.25050 Y0.05080
G01 X-27.49492 Y0.05080
G01 X-27.49642 Y0.05308
G01 X-27.53261 Y0.10709
G01 X-27.53368 Y0.10869
G01 X-27.54762 Y0.12965
G01 X-27.54774 Y0.12984
G01 X-27.56166 Y0.15075
G01 X-27.57266 Y0.16813
G01 X-27.58438 Y0.18769
G01 X-27.60087 Y0.21843
G01 X-27.61014 Y0.23800
G01 X-27.61614 Y0.25151
G01 X-27.68497 Y0.41745
G01 X-27.69429 Y0.43992
G01 X-27.69638 Y0.44534
G01 X-27.70342 Y0.46497
G01 X-27.70617 Y0.47401
G01 X-27.71108 Y0.49362
G01 X-27.71259 Y0.50119
G01 X-27.71552 Y0.52081
G01 X-27.71619 Y0.52765
G01 X-27.71716 Y0.54725
G01 X-27.71724 Y0.55055
G01 X-27.71724 Y0.68390
G01 X-27.71733 Y0.68735
G01 X-27.71841 Y0.70827
G01 X-27.71919 Y0.71566
G01 X-27.72251 Y0.73655
G01 X-27.72427 Y0.74477
G01 X-27.72986 Y0.76565
G01 X-27.73309 Y0.77556
G01 X-27.74110 Y0.79646
G01 X-27.74675 Y0.80912
G01 X-27.75090 Y0.81725
G01 X-27.75423 Y0.82420
G01 X-27.75706 Y0.83050
G01 X-27.76434 Y0.84492
G01 X-27.76606 Y0.84801
G01 X-27.77464 Y0.86501
G01 X-27.77805 Y0.87248
G01 X-27.78627 Y0.88906
G01 X-27.79343 Y0.90249
G01 X-27.80409 Y0.92391
G01 X-27.80830 Y0.93296
G01 X-27.81859 Y0.95390
G01 X-27.84013 Y0.99556
G01 X-27.85651 Y1.02875
G01 X-27.86103 Y1.03832
G01 X-27.87710 Y1.07110
G01 X-27.91824 Y1.15228
G01 X-27.95397 Y1.22029
G01 X-27.98273 Y1.27331
G01 X-28.02781 Y1.41445
G01 X-28.03578 Y1.41487
G01 X-28.05540 Y1.41582
G01 X-28.11704 Y1.41732
G01 X-28.25039 Y1.41732
G01 X-28.31621 Y1.41732
G01 X-28.31699 Y1.41732
G01 X-28.33722 Y1.41733
G01 X-28.33799 Y1.41733
G01 X-28.45027 Y1.41733
G01 X-28.45027 Y1.33095
G01 X-28.45027 Y1.26356
G01 X-28.45027 Y1.05108
G01 X-28.45027 Y1.00931
G01 X-28.45027 Y0.92184
G01 X-28.45027 Y0.89057
G01 X-28.45027 Y0.84190
G01 X-28.45027 Y0.81608
G01 X-28.45027 Y0.78438
G01 X-28.45027 Y0.76149
G01 X-28.45027 Y0.73708
G01 X-28.45027 Y0.71573
G01 X-28.45027 Y0.69436
G01 X-28.45027 Y0.67346
G01 X-28.45027 Y0.65208
G01 X-28.45027 Y0.63074
G01 X-28.45027 Y0.60633
G01 X-28.45027 Y0.58344
G01 X-28.45027 Y0.55173
G01 X-28.45027 Y0.52592
G01 X-28.45027 Y0.47724
G01 X-28.45027 Y0.44597
G01 X-28.45027 Y0.41734
G01 X-28.43498 Y0.40571
G01 X-28.42661 Y0.39950
G01 X-28.41805 Y0.39328
G01 X-28.40968 Y0.38706
G01 X-28.37677 Y0.36206
G01 X-28.36827 Y0.35574
G01 X-28.35910 Y0.34906
G01 X-28.35054 Y0.34270
G01 X-28.31148 Y0.31306
G01 X-28.30071 Y0.30507
G01 X-28.29209 Y0.29881
G01 X-28.28221 Y0.29149
G01 X-28.26729 Y0.26771
G01 X-28.26715 Y0.26749
G01 X-28.26704 Y0.26729
G01 X-28.26689 Y0.26703
G01 X-28.25658 Y0.24906
G01 X-28.25616 Y0.24522
G01 X-28.25397 Y0.22434
G01 X-28.25065 Y0.16121
G01 X-28.25065 Y0.15078
G01 X-28.25056 Y0.14031
G01 X-28.25020 Y0.11925
G01 X-28.25020 Y0.09824
G01 X-28.25057 Y0.07646
G01 X-28.25057 Y0.05512
G01 X-28.25050 Y0.05080
G04 P0 ( dwell for no time -- G64 should not smooth over this point )
G00 Z10.00000 ( retract )

G00 X-32.24910 Y0.05080 ( rapid move to begin. )
G01 F30.00000
G01 Z-0.10000
G04 P0 ( dwell for no time -- G64 should not smooth over this point )
G01 F360.00000
G01 X-32.24910 Y0.05080
G01 X-32.24910 Y0.15076
G01 X-32.24910 Y0.16201
G01 X-32.24910 Y0.18734
G01 X-32.24910 Y0.20171
G01 X-32.24910 Y0.22395
G01 X-32.24910 Y0.23343
G01 X-32.24910 Y0.25390
G01 X-32.24910 Y0.26112
G01 X-32.24910 Y0.26116
G01 X-32.24911 Y0.28079
G01 X-32.24911 Y0.28083
G01 X-32.24911 Y0.28410
G01 X-32.24919 Y0.28735
G01 X-32.25014 Y0.30695
G01 X-32.25082 Y0.31380
G01 X-32.25373 Y0.33339
G01 X-32.25524 Y0.34099
G01 X-32.26015 Y0.36060
G01 X-32.26288 Y0.36957
G01 X-32.26989 Y0.38915
G01 X-32.27198 Y0.39458
G01 X-32.33754 Y0.55286
G01 X-32.33372 Y0.56465
G01 X-32.32731 Y0.58852
G01 X-32.32286 Y0.60943
G01 X-32.31936 Y0.63147
G01 X-32.31716 Y0.65235
G01 X-32.31605 Y0.67346
G01 X-32.31605 Y0.69436
G01 X-32.31716 Y0.71547
G01 X-32.31936 Y0.73634
G01 X-32.32286 Y0.75838
G01 X-32.32731 Y0.77929
G01 X-32.33372 Y0.80316
G01 X-32.33829 Y0.81725
G01 X-32.34041 Y0.82412
G01 X-32.34206 Y0.82973
G01 X-32.34892 Y0.85013
G01 X-32.34990 Y0.85274
G01 X-32.35754 Y0.87551
G01 X-32.35918 Y0.88105
G01 X-32.36672 Y0.90385
G01 X-32.37061 Y0.91453
G01 X-32.37941 Y0.94106
G01 X-32.38159 Y0.94830
G01 X-32.39042 Y0.97526
G01 X-32.40056 Y1.00395
G01 X-32.41160 Y1.03745
G01 X-32.41589 Y1.05137
G01 X-32.42724 Y1.08613
G01 X-32.44998 Y1.15214
G01 X-32.45505 Y1.16667
G01 X-32.47131 Y1.21257
G01 X-32.51581 Y1.32802
G01 X-32.55713 Y1.42790
G01 X-32.64902 Y1.44161
G01 X-32.75096 Y1.42680
G01 X-32.77184 Y1.42461
G01 X-32.78226 Y1.42356
G01 X-32.84422 Y1.41755
G01 X-32.86372 Y1.41581
G01 X-32.88331 Y1.41421
G01 X-32.89061 Y1.38503
G01 X-32.93271 Y1.21343
G01 X-32.94209 Y1.17692
G01 X-32.94565 Y1.16371
G01 X-32.95497 Y1.12724
G01 X-32.97147 Y1.05873
G01 X-32.97870 Y1.03065
G01 X-32.98098 Y1.02236
G01 X-32.98248 Y1.01682
G01 X-32.98244 Y1.00879
G01 X-32.98193 Y0.94269
G01 X-32.98207 Y0.92192
G01 X-32.98229 Y0.91226
G01 X-32.98238 Y0.89031
G01 X-32.98229 Y0.88395
G01 X-32.98358 Y0.84085
G01 X-32.98575 Y0.81347
G01 X-32.98997 Y0.78089
G01 X-32.99459 Y0.75594
G01 X-32.99999 Y0.73328
G01 X-33.00674 Y0.71050
G01 X-33.01243 Y0.69436
G01 X-33.02109 Y0.67346
G01 X-33.02670 Y0.66166
