( pcb2gcode 2.0.0 )
( Software-independent Gcode )

G94 ( Millimeters per minute feed rate. )
G21 ( Units == Millimeters. )

G90 ( Absolute coordinates. )
G00 S10000 ( RPM spindle speed. )
G01 F360.00000 ( Feedrate. )


G00 Z50.00000 (Retract to tool change height)
T0
M5      (Spindle stop.)
G04 P1.00000 (Wait for spindle to stop)
(MSG, Change tool bit to mill diameter 0.50800mm)
M6      (Tool change.)
M0      (Temporary machine stop.)
M3 ( Spindle on clockwise. )
G04 P1.00000 (Wait for spindle to get up to speed)
G04 P0 ( dwell for no time -- G64 should not smooth over this point )
G00 Z10.00000 ( retract )

G00 X-18.59153 Y-0.25400 ( rapid move to begin. )
G01 F30.00000
( Mill infeed pass 1/1 )
G01 Z-0.10000
G04 P0 ( dwell for no time -- G64 should not smooth over this point )
G01 F360.00000
G01 X-18.59153 Y-0.25400
G01 X-18.90095 Y0.08486
G01 X-19.40801 Y0.60797
G01 X-20.20761 Y1.40754
G01 X-20.83819 Y2.01054
G01 X-21.33615 Y2.53340
G01 X-22.20785 Y3.40779
G01 X-22.84722 Y4.00787
G01 X-26.72225 Y4.00606
G01 X-27.00195 Y4.00929
G01 X-27.97327 Y4.00573
G01 X-28.24066 Y3.97853
G01 X-28.47731 Y3.87452
G01 X-28.70759 Y3.87452
G01 X-28.80657 Y3.87076
G01 X-28.91061 Y3.81450
G01 X-29.37406 Y3.71264
G01 X-29.49268 Y3.73106
G01 X-29.76898 Y3.76204
G01 X-29.92824 Y3.81399
G01 X-30.07883 Y3.87335
G01 X-30.27873 Y3.85597
G01 X-30.37423 Y3.83870
G01 X-30.50703 Y3.87459
G01 X-30.72928 Y3.87579
G01 X-31.01906 Y3.90886
G01 X-31.24007 Y3.96522
G01 X-31.35107 Y4.01460
G01 X-31.50677 Y4.09128
G01 X-31.84075 Y3.91102
G01 X-32.17314 Y3.88064
G01 X-32.28426 Y3.87579
G01 X-32.43961 Y3.88064
G01 X-32.57207 Y3.89288
G01 X-32.63976 Y3.87452
G01 X-32.87392 Y3.87416
G01 X-33.03864 Y3.88770
G01 X-33.15584 Y3.87706
G01 X-33.34855 Y3.87010
G01 X-33.44283 Y3.86042
G01 X-33.49678 Y3.86652
G01 X-33.76793 Y3.88008
G01 X-34.03915 Y3.85592
G01 X-34.30572 Y3.78384
G01 X-34.63943 Y3.63195
G01 X-34.84783 Y3.47960
G01 X-34.96333 Y3.39016
G01 X-35.13887 Y3.24035
G01 X-35.30547 Y3.08798
G01 X-35.51326 Y2.86449
G01 X-35.73716 Y2.84013
G01 X-35.99647 Y3.14188
G01 X-36.09708 Y3.27444
G01 X-36.57417 Y3.94251
G01 X-36.80254 Y3.94086
G01 X-37.08621 Y3.95399
G01 X-37.57577 Y4.00573
G01 X-38.47622 Y4.00708
G01 X-38.61874 Y3.99443
G01 X-38.70757 Y3.97825
G01 X-39.04130 Y3.90446
G01 X-39.09789 Y3.86093
G01 X-39.27300 Y3.90766
G01 X-39.70729 Y4.05199
G01 X-39.85913 Y4.02267
G01 X-40.02933 Y4.00820
G01 X-41.04066 Y4.00789
G01 X-41.37340 Y3.89710
G01 X-41.48437 Y3.84467
G01 X-41.63997 Y3.78132
G01 X-42.30426 Y3.38437
G01 X-42.38358 Y3.27444
G01 X-42.58000 Y3.01897
G01 X-42.84248 Y2.99618
G01 X-43.10609 Y3.00777
G01 X-43.57378 Y3.00761
G01 X-43.63911 Y2.99941
G01 X-43.57378 Y3.00761
G01 X-43.57306 Y4.36933
G01 X-43.56854 Y4.48026
G01 X-43.56212 Y4.52986
G01 X-43.54711 Y4.58574
G01 X-43.52900 Y4.63019
G01 X-43.39600 Y4.89110
G01 X-43.31490 Y5.06946
G01 X-43.30797 Y5.07558
G01 X-43.30654 Y5.16336
G01 X-43.31698 Y5.28864
G01 X-43.35071 Y5.43154
G01 X-43.41520 Y5.66039
G01 X-43.46603 Y5.82882
G01 X-43.63875 Y6.44540
G01 X-43.78053 Y6.92341
G01 X-44.02478 Y6.92447
G01 X-44.23910 Y6.91858
G01 X-44.02478 Y6.92447
G01 X-43.78053 Y6.92341
G01 X-43.38879 Y7.01187
G01 X-43.12531 Y7.04545
G01 X-42.86184 Y7.05663
G01 X-42.55392 Y7.04545
G01 X-42.29044 Y7.01187
G01 X-41.87574 Y6.91670
G01 X-41.34660 Y6.92440
G01 X-41.04010 Y6.91855
G01 X-40.84015 Y6.92450
G01 X-40.58338 Y6.92450
G01 X-40.47901 Y6.94327
G01 X-40.20421 Y6.97829
G01 X-39.92943 Y6.98995
G01 X-39.57394 Y6.97499
G01 X-39.21846 Y6.98995
G01 X-38.73536 Y6.95386
G01 X-38.54628 Y6.99524
G01 X-38.24039 Y7.04113
G01 X-37.93452 Y7.05691
G01 X-37.51496 Y7.05787
G01 X-37.11486 Y7.03329
G01 X-36.74547 Y6.96984
G01 X-36.34903 Y6.85300
G01 X-36.01847 Y6.90428
G01 X-35.68791 Y6.92315
G01 X-35.53231 Y6.92440
G01 X-35.30549 Y6.91855
G01 X-35.10559 Y6.92450
G01 X-34.83889 Y6.92450
G01 X-34.57438 Y6.91434
G01 X-34.56902 Y5.96019
G01 X-34.57199 Y4.74129
G01 X-34.57936 Y4.68048
G01 X-34.62426 Y4.54348
G01 X-34.63341 Y4.48968
G01 X-34.63851 Y4.42435
G01 X-34.63943 Y3.63195
G01 X-34.30572 Y3.78384
G01 X-34.03915 Y3.85592
G01 X-33.76793 Y3.88008
G01 X-33.49678 Y3.86652
G01 X-33.44283 Y3.86042
G01 X-33.43854 Y3.58778
G01 X-33.44007 Y3.34175
G01 X-33.44489 Y3.25940
G01 X-33.46539 Y3.16459
G01 X-33.49648 Y3.08013
G01 X-33.50395 Y3.04099
G01 X-33.51342 Y2.94193
G01 X-33.54006 Y2.87454
G01 X-33.51875 Y2.82402
G01 X-33.50689 Y2.76410
G01 X-33.50600 Y1.92042
G01 X-33.33882 Y1.87206
G01 X-33.43984 Y1.47386
G01 X-33.44225 Y1.27815
G01 X-33.45391 Y1.20620
G01 X-33.46798 Y1.15735
G01 X-33.48855 Y1.10856
G01 X-33.54857 Y0.99179
G01 X-33.57270 Y0.95329
G01 X-33.57484 Y0.70213
G01 X-33.58360 Y0.64894
G01 X-33.61845 Y0.52906
G01 X-33.63547 Y0.42690
G01 X-33.63918 Y0.36706
G01 X-33.63895 Y-0.25400
G01 X-34.17032 Y-0.25400
G01 X-34.17179 Y0.37356
G01 X-34.16371 Y0.47127
G01 X-34.14337 Y0.55885
G01 X-34.12452 Y0.61877
G01 X-34.07717 Y0.75880
G01 X-34.03918 Y0.85174
G01 X-34.03918 Y0.91219
G01 X-34.07247 Y0.97983
G01 X-34.09381 Y1.03838
G01 X-34.13557 Y1.16337
G01 X-34.15581 Y1.23678
G01 X-34.16468 Y1.29042
G01 X-34.17194 Y1.40465
G01 X-34.17166 Y1.53754
G01 X-34.25055 Y1.94122
G01 X-34.43910 Y2.02603
G01 X-34.67042 Y2.15087
G01 X-34.90885 Y2.30025
G01 X-34.90984 Y1.90020
G01 X-34.90476 Y1.58808
G01 X-34.90628 Y1.34188
G01 X-34.91111 Y1.25946
G01 X-34.93160 Y1.16459
G01 X-34.96269 Y1.08019
G01 X-34.97016 Y1.04104
G01 X-34.97933 Y0.94165
G01 X-35.00549 Y0.87455
G01 X-34.93033 Y0.72431
G01 X-34.89957 Y0.67864
G01 X-34.90557 Y0.58517
G01 X-34.90554 Y-0.25400
G01 X-34.90557 Y0.58517
G01 X-34.89957 Y0.67864
G01 X-34.93033 Y0.72431
G01 X-35.00549 Y0.87455
G01 X-35.56241 Y0.87666
G01 X-35.89896 Y0.86921
G01 X-36.38603 Y0.87422
G01 X-36.37664 Y0.72454
G01 X-36.37247 Y0.56899
G01 X-36.37476 Y-0.25400
G01 X-36.37247 Y0.56899
G01 X-36.37664 Y0.72454
G01 X-36.38603 Y0.87422
G01 X-36.39645 Y0.93899
G01 X-36.36246 Y1.37483
G01 X-36.32647 Y2.00624
G01 X-35.73716 Y2.84013
G01 X-35.51326 Y2.86449
G01 X-34.90885 Y2.30025
G01 X-34.67042 Y2.15087
G01 X-34.43910 Y2.02603
G01 X-34.25055 Y1.94122
G01 X-33.90184 Y1.94226
G01 X-33.75035 Y1.94010
G01 X-33.60765 Y1.93231
G01 X-33.50600 Y1.92042
G01 X-33.33882 Y1.87206
G01 X-33.23392 Y1.88112
G01 X-33.10621 Y1.89873
G01 X-33.01665 Y1.88427
G01 X-32.64012 Y2.00777
G01 X-32.17314 Y2.00777
G01 X-32.08106 Y2.01168
G01 X-31.90431 Y2.02916
G01 X-31.66709 Y1.95113
G01 X-31.48477 Y1.87871
G01 X-31.32790 Y1.79756
G01 X-31.17723 Y1.87249
G01 X-31.17261 Y2.16134
G01 X-31.17413 Y2.40734
G01 X-31.17896 Y2.48968
G01 X-31.18810 Y2.54348
G01 X-31.20476 Y2.60027
G01 X-31.30131 Y2.79966
G01 X-31.28124 Y2.88214
G01 X-31.26311 Y2.92664
G01 X-31.23898 Y2.94442
G01 X-31.24007 Y3.96522
G01 X-31.35107 Y4.01460
G01 X-31.50677 Y4.09128
G01 X-31.84075 Y3.91102
G01 X-31.83931 Y3.47495
G01 X-31.82871 Y3.32092
G01 X-31.81304 Y3.23451
G01 X-31.77766 Y3.07983
G01 X-31.77238 Y3.00777
G01 X-31.77286 Y2.83898
G01 X-31.81761 Y2.74132
G01 X-31.87296 Y2.57449
G01 X-31.89069 Y2.50843
G01 X-31.90164 Y2.42773
G01 X-31.90598 Y2.34081
G01 X-31.90431 Y2.02916
G01 X-31.90598 Y2.34081
G01 X-31.90164 Y2.42773
G01 X-31.89069 Y2.50843
G01 X-31.87296 Y2.57449
G01 X-31.81761 Y2.74132
G01 X-31.77286 Y2.83898
G01 X-31.77238 Y3.00777
G01 X-31.77766 Y3.07983
G01 X-31.81304 Y3.23451
G01 X-31.82871 Y3.32092
G01 X-31.83931 Y3.47495
G01 X-31.84075 Y3.91102
G01 X-32.17314 Y3.88064
G01 X-32.28426 Y3.87579
G01 X-32.43961 Y3.88064
G01 X-32.57207 Y3.89288
G01 X-32.63976 Y3.87452
G01 X-32.87392 Y3.87416
G01 X-33.03864 Y3.88770
G01 X-33.15584 Y3.87706
G01 X-33.34855 Y3.87010
G01 X-33.44283 Y3.86042
G01 X-33.49678 Y3.86652
G01 X-33.76793 Y3.88008
G01 X-34.03915 Y3.85592
G01 X-34.30572 Y3.78384
G01 X-34.63943 Y3.63195
G01 X-34.84783 Y3.47960
G01 X-34.96333 Y3.39016
G01 X-35.13887 Y3.24035
G01 X-35.30547 Y3.08798
G01 X-35.51326 Y2.86449
G01 X-35.30547 Y3.08798
G01 X-35.30303 Y4.14670
G01 X-35.30681 Y4.32338
G01 X-35.30549 Y4.58518
G01 X-35.29947 Y4.67871
G01 X-35.33031 Y4.72443
G01 X-35.40544 Y4.87454
G01 X-35.96221 Y4.87665
G01 X-36.29876 Y4.86921
G01 X-36.56820 Y4.87197
G01 X-36.57326 Y4.72780
G01 X-36.57417 Y3.94251
G01 X-36.57326 Y4.72780
G01 X-36.56820 Y4.87197
G01 X-36.57361 Y5.12760
G01 X-36.56366 Y5.32948
G01 X-36.34903 Y6.85300
G01 X-36.01847 Y6.90428
G01 X-35.68791 Y6.92315
G01 X-35.53231 Y6.92440
G01 X-35.30549 Y6.91855
G01 X-35.31060 Y6.09623
G01 X-35.30498 Y5.65673
G01 X-35.30620 Y5.34175
G01 X-35.31103 Y5.25940
G01 X-35.32017 Y5.20560
G01 X-35.36262 Y5.08013
G01 X-35.37008 Y5.04099
G01 X-35.37925 Y4.94172
G01 X-35.40544 Y4.87454
G01 X-35.37925 Y4.94172
G01 X-35.37008 Y5.04099
G01 X-35.36262 Y5.08013
G01 X-35.32017 Y5.20560
G01 X-35.31103 Y5.25940
G01 X-35.30620 Y5.34175
G01 X-35.30498 Y5.65673
G01 X-35.31060 Y6.09623
G01 X-35.30549 Y6.91855
G01 X-35.10559 Y6.92450
G01 X-34.83889 Y6.92450
G01 X-34.57438 Y6.91434
G01 X-34.01235 Y6.92440
G01 X-33.78601 Y6.92183
G01 X-33.70392 Y6.60509
G01 X-33.78601 Y6.92183
G01 X-33.38881 Y7.01187
G01 X-33.12533 Y7.04545
G01 X-32.86186 Y7.05663
G01 X-32.57184 Y7.04690
G01 X-32.19176 Y7.05556
G01 X-31.80641 Y7.01967
G01 X-31.43049 Y6.94129
G01 X-31.34126 Y6.91657
G01 X-31.67931 Y5.39214
G01 X-31.70542 Y5.16336
G01 X-31.70542 Y5.11886
G01 X-31.69097 Y4.94866
G01 X-31.63989 Y4.74439
G01 X-31.58807 Y4.60797
G01 X-31.50806 Y4.42608
G01 X-31.50677 Y4.09128
G01 X-31.50806 Y4.42608
G01 X-31.58807 Y4.60797
G01 X-31.63989 Y4.74439
G01 X-31.69097 Y4.94866
G01 X-31.70542 Y5.11886
G01 X-31.70542 Y5.16336
G01 X-31.67931 Y5.39214
G01 X-31.34126 Y6.91657
G01 X-31.00045 Y6.92440
G01 X-30.50705 Y6.91855
G01 X-30.30703 Y6.92450
G01 X-30.04055 Y6.92450
G01 X-29.84071 Y6.91855
G01 X-29.84000 Y5.33928
G01 X-29.83801 Y5.27832
G01 X-29.82671 Y5.20639
G01 X-29.78399 Y5.07992
G01 X-29.77487 Y5.03060
G01 X-29.77375 Y4.73464
G01 X-29.78061 Y4.68020
G01 X-29.79240 Y4.64116
G01 X-29.87385 Y4.44127
G01 X-29.98724 Y4.10540
G01 X-30.07883 Y3.87335
G01 X-29.92824 Y3.81399
G01 X-29.76898 Y3.76204
G01 X-29.77548 Y3.32801
G01 X-29.77401 Y3.07447
G01 X-29.78018 Y3.01135
G01 X-29.80190 Y2.92969
G01 X-29.77960 Y2.83528
G01 X-29.73781 Y2.78468
G01 X-29.69966 Y2.72522
G01 X-29.66507 Y2.64033
G01 X-29.64782 Y2.56758
G01 X-29.64056 Y2.42217
G01 X-29.64071 Y1.89288
G01 X-29.50802 Y1.85697
G01 X-29.18889 Y1.88603
G01 X-29.03794 Y1.91087
G01 X-28.90746 Y1.87455
G01 X-28.48417 Y1.87180
G01 X-28.24122 Y1.97818
G01 X-27.90774 Y2.01552
G01 X-27.77264 Y2.03822
G01 X-27.53017 Y2.00904
G01 X-27.39423 Y2.00673
G01 X-27.00183 Y2.00917
G01 X-26.72210 Y2.00594
G01 X-26.21618 Y2.01054
G01 X-24.79721 Y2.00216
G01 X-20.83819 Y2.01054
G01 X-21.33615 Y2.53340
G01 X-22.20785 Y3.40779
G01 X-22.84722 Y4.00787
G01 X-23.40800 Y4.60794
G01 X-24.20793 Y5.40791
G01 X-24.56868 Y5.74838
G01 X-24.99124 Y6.09816
G01 X-25.45827 Y6.41970
G01 X-25.89494 Y6.66369
G01 X-26.33162 Y6.84690
G01 X-26.65623 Y6.94789
G01 X-26.95875 Y7.01187
G01 X-27.22222 Y7.04545
G01 X-27.48570 Y7.05663
G01 X-27.79362 Y7.04545
G01 X-28.07950 Y7.00809
G01 X-28.44886 Y6.92341
G01 X-28.69306 Y6.92447
G01 X-28.90741 Y6.91858
G01 X-28.69306 Y6.92447
G01 X-28.44886 Y6.92341
G01 X-28.27482 Y6.33367
G01 X-28.13449 Y5.82905
G01 X-28.01915 Y5.43154
G01 X-27.98542 Y5.28869
G01 X-27.97498 Y5.16336
G01 X-27.97640 Y5.07568
G01 X-27.98343 Y5.06946
G01 X-28.06433 Y4.89153
G01 X-28.19740 Y4.63019
G01 X-28.22484 Y4.55554
G01 X-28.23698 Y4.48015
G01 X-28.24150 Y4.36916
G01 X-28.24066 Y3.97853
G01 X-28.47731 Y3.87452
G01 X-28.38750 Y3.64881
G01 X-28.26692 Y3.28691
G01 X-28.18935 Y3.09799
G01 X-28.17599 Y3.04124
G01 X-28.17269 Y2.97802
G01 X-28.16715 Y2.94688
G01 X-28.15145 Y2.89715
G01 X-28.11447 Y2.80797
G01 X-28.14206 Y2.74132
G01 X-28.20457 Y2.61183
G01 X-28.22085 Y2.56525
G01 X-28.23454 Y2.50223
G01 X-28.24140 Y2.32616
G01 X-28.24122 Y1.97818
G01 X-28.48417 Y1.87180
G01 X-28.43560 Y1.72044
G01 X-28.34081 Y1.54315
G01 X-28.21630 Y1.29149
G01 X-28.18762 Y1.22367
G01 X-28.17579 Y1.16726
G01 X-28.17439 Y1.00109
G01 X-28.16865 Y0.95062
G01 X-28.15938 Y0.91752
G01 X-28.05308 Y0.66358
G01 X-27.90784 Y0.43815
G01 X-27.90784 Y-0.25400
G01 X-28.70492 Y-0.25400
G01 X-28.70886 Y0.26167
G01 X-28.70685 Y0.58268
G01 X-28.71399 Y0.70452
G01 X-28.74018 Y0.74978
G01 X-28.90746 Y0.87455
G01 X-28.90746 Y1.87455
G01 X-29.03794 Y1.91087
G01 X-29.04244 Y2.14859
G01 X-29.03921 Y2.47294
G01 X-29.02615 Y2.58572
G01 X-29.01838 Y2.61864
G01 X-29.03032 Y2.67287
G01 X-29.03954 Y2.75433
G01 X-29.03918 Y2.80388
G01 X-29.03362 Y2.85212
G01 X-28.99263 Y3.02707
G01 X-28.93492 Y3.16073
G01 X-28.91351 Y3.25539
G01 X-28.90840 Y3.34195
G01 X-28.90675 Y3.58795
G01 X-28.91061 Y3.81450
G01 X-28.80657 Y3.87076
G01 X-29.03957 Y4.34175
G01 X-29.03469 Y4.49938
G01 X-29.01221 Y4.59166
G01 X-28.98135 Y4.68059
G01 X-28.97447 Y4.73476
G01 X-28.97492 Y5.00774
G01 X-28.97088 Y5.05351
G01 X-28.95608 Y5.10817
G01 X-28.93383 Y5.16379
G01 X-28.92217 Y5.20560
G01 X-28.91302 Y5.25940
G01 X-28.90789 Y5.32475
G01 X-28.90741 Y6.91858
G01 X-29.12961 Y6.92325
G01 X-29.37406 Y6.91439
G01 X-29.61851 Y6.92325
G01 X-29.84071 Y6.91855
G01 X-30.04055 Y6.92450
G01 X-30.30703 Y6.92450
G01 X-30.50705 Y6.91855
G01 X-30.51216 Y6.09679
G01 X-30.50654 Y5.65704
G01 X-30.50776 Y5.34187
G01 X-30.51259 Y5.25945
G01 X-30.52173 Y5.20568
G01 X-30.53022 Y5.17223
G01 X-30.56001 Y5.09331
G01 X-30.57159 Y5.04101
G01 X-30.57309 Y4.85231
G01 X-30.55318 Y4.76888
G01 X-30.53184 Y4.72430
G01 X-30.50159 Y4.67832
G01 X-30.50692 Y4.63019
G01 X-30.50703 Y3.87459
G01 X-30.37423 Y3.83870
G01 X-30.37332 Y3.46870
G01 X-30.36354 Y3.32135
G01 X-30.35475 Y3.26774
G01 X-30.31868 Y3.12044
G01 X-30.30659 Y3.01889
G01 X-30.31167 Y2.93947
G01 X-30.32971 Y2.85115
G01 X-30.37375 Y2.80878
G01 X-30.37515 Y2.32339
G01 X-30.37136 Y2.14671
G01 X-30.37650 Y1.91455
G01 X-30.27251 Y1.87427
G01 X-30.37299 Y1.47518
G01 X-30.37670 Y1.27815
G01 X-30.38831 Y1.20620
G01 X-30.40235 Y1.15738
G01 X-30.42153 Y1.11194
G01 X-30.48295 Y0.99167
G01 X-30.50705 Y0.95319
G01 X-30.50916 Y0.70223
G01 X-30.51792 Y0.64900
G01 X-30.55658 Y0.51247
G01 X-30.56606 Y0.45852
G01 X-30.57464 Y0.35616
G01 X-30.57169 Y0.10965
G01 X-30.57622 Y-0.25400
G01 X-31.44106 Y-0.25400
G01 X-31.43964 Y0.61849
G01 X-31.42529 Y0.78854
G01 X-31.41010 Y0.87346
G01 X-31.42424 Y0.94866
G01 X-31.43870 Y1.11890
G01 X-31.43870 Y1.16337
G01 X-31.41261 Y1.39212
G01 X-31.37271 Y1.58270
G01 X-31.33245 Y1.75108
G01 X-31.32790 Y1.79756
G01 X-31.17723 Y1.87249
G01 X-30.92224 Y1.92357
G01 X-30.72928 Y1.93995
G01 X-30.57373 Y1.93454
G01 X-30.37650 Y1.91455
G01 X-30.27251 Y1.87427
G01 X-29.91274 Y1.87378
G01 X-29.76413 Y1.88140
G01 X-29.64071 Y1.89288
G01 X-29.50802 Y1.85697
G01 X-29.50693 Y0.83746
G01 X-29.54404 Y0.76213
G01 X-29.55727 Y0.72090
G01 X-29.57238 Y0.64160
G01 X-29.57396 Y-0.25400
G01 X-32.70608 Y-0.25400
G01 X-32.70753 Y0.76398
G01 X-32.72064 Y0.82807
G01 X-32.79417 Y1.00952
G01 X-32.77867 Y1.07394
G01 X-32.77359 Y1.11839
G01 X-32.77349 Y1.16383
G01 X-32.77845 Y1.20835
G01 X-32.78998 Y1.25862
G01 X-32.90745 Y1.60965
G01 X-33.01665 Y1.88427
G01 X-32.64012 Y2.00777
G01 X-32.63920 Y2.36916
G01 X-32.64418 Y2.48051
G01 X-32.65419 Y2.54287
G01 X-32.70212 Y2.69573
G01 X-32.70631 Y2.74132
G01 X-32.70631 Y3.00777
G01 X-32.69907 Y3.06857
G01 X-32.66280 Y3.17223
G01 X-32.64517 Y3.25946
G01 X-32.64035 Y3.34188
G01 X-32.63976 Y3.87452
G01 X-32.87392 Y3.87416
G01 X-33.03864 Y3.88770
G01 X-33.03745 Y4.46435
G01 X-33.02381 Y4.55343
G01 X-32.98172 Y4.67421
G01 X-32.97415 Y4.71871
G01 X-32.97319 Y4.75252
G01 X-32.98731 Y4.82783
G01 X-33.06128 Y5.00946
G01 X-33.04606 Y5.07268
G01 X-33.04080 Y5.11886
G01 X-33.04080 Y5.16336
G01 X-33.04751 Y5.22011
G01 X-33.07291 Y5.30238
G01 X-33.10524 Y5.36849
G01 X-33.28546 Y5.64726
G01 X-33.39236 Y5.84454
G01 X-33.49882 Y6.09219
G01 X-33.70392 Y6.60509
G01 X-33.70138 Y6.22183
G01 X-33.70852 Y5.60227
G01 X-33.70646 Y5.32475
G01 X-33.71154 Y5.25940
G01 X-33.72066 Y5.20565
G01 X-33.76432 Y5.07360
G01 X-33.77258 Y5.00774
G01 X-33.77468 Y4.28419
G01 X-33.76933 Y4.13830
G01 X-33.76793 Y3.88008
G01 X-33.49678 Y3.86652
G01 X-33.44283 Y3.86042
G01 X-33.43854 Y3.58778
G01 X-33.44007 Y3.34175
G01 X-33.44489 Y3.25940
G01 X-33.46539 Y3.16459
G01 X-33.49648 Y3.08013
G01 X-33.50395 Y3.04099
G01 X-33.51342 Y2.94193
G01 X-33.54006 Y2.87454
G01 X-34.09607 Y2.87665
G01 X-34.43262 Y2.86921
G01 X-35.49655 Y2.88016
G01 X-35.51326 Y2.86449
G01 X-35.73716 Y2.84013
G01 X-36.32647 Y2.00624
G01 X-37.67699 Y2.00698
G01 X-37.81951 Y1.99423
G01 X-37.97404 Y1.96352
G01 X-38.10892 Y2.00820
G01 X-38.77422 Y2.00795
G01 X-38.99464 Y1.93469
G01 X-39.21742 Y1.84970
G01 X-39.29187 Y1.87058
G01 X-39.44148 Y1.96362
G01 X-39.75087 Y1.99857
G01 X-39.84203 Y2.00630
G01 X-40.10660 Y2.00993
G01 X-40.24079 Y2.02242
G01 X-40.44081 Y1.97805
G01 X-40.24079 Y2.02242
G01 X-40.24140 Y2.44020
G01 X-40.25458 Y2.54338
G01 X-40.27716 Y2.61333
G01 X-40.32915 Y2.71915
G01 X-40.44693 Y3.00203
G01 X-40.40073 Y3.05067
G01 X-40.36075 Y3.10604
G01 X-40.32745 Y3.17015
G01 X-40.31585 Y3.20733
G01 X-40.30835 Y3.25184
G01 X-40.30533 Y4.37462
G01 X-40.29291 Y4.49603
G01 X-40.28122 Y4.54726
G01 X-40.22512 Y4.72178
G01 X-40.17378 Y4.85173
G01 X-40.17378 Y4.91218
G01 X-40.20708 Y4.97982
G01 X-40.22593 Y5.03047
G01 X-40.27350 Y5.17459
G01 X-40.28961 Y5.23636
G01 X-40.29873 Y5.29019
G01 X-40.30647 Y5.40832
G01 X-40.30627 Y5.53753
G01 X-40.58338 Y6.92450
G01 X-40.84015 Y6.92450
G01 X-41.04010 Y6.91855
G01 X-41.04061 Y5.32488
G01 X-41.04571 Y5.25945
G01 X-41.05486 Y5.20568
G01 X-41.09961 Y5.06857
G01 X-41.10685 Y5.00774
G01 X-41.10685 Y4.74129
G01 X-41.10266 Y4.69572
G01 X-41.05473 Y4.54287
G01 X-41.04472 Y4.48051
G01 X-41.03975 Y4.36916
G01 X-41.04066 Y4.00789
G01 X-41.37340 Y3.89710
G01 X-41.48437 Y3.84467
G01 X-41.63997 Y3.78132
G01 X-42.30426 Y3.38437
G01 X-42.30827 Y3.90616
G01 X-42.30550 Y5.02925
G01 X-42.28833 Y5.20004
G01 X-42.24152 Y5.37926
G01 X-42.20136 Y5.49067
G01 X-42.15539 Y5.65653
G01 X-41.87574 Y6.91670
G01 X-41.34660 Y6.92440
G01 X-41.04010 Y6.91855
G01 X-40.84015 Y6.92450
G01 X-40.58338 Y6.92450
G01 X-40.47901 Y6.94327
G01 X-40.20421 Y6.97829
G01 X-39.88496 Y6.98995
G01 X-39.57394 Y6.97499
G01 X-39.57503 Y4.87672
G01 X-39.60381 Y4.80543
G01 X-39.62375 Y4.74129
G01 X-39.68984 Y4.47380
G01 X-39.70721 Y4.30624
G01 X-39.70729 Y4.05199
G01 X-39.27300 Y3.90766
G01 X-39.09789 Y3.86093
G01 X-39.04130 Y3.90446
G01 X-39.04082 Y4.95336
G01 X-38.99383 Y5.03415
G01 X-38.95677 Y5.10863
G01 X-38.92474 Y5.19323
G01 X-38.91049 Y5.27822
G01 X-38.90808 Y5.47327
G01 X-38.79634 Y5.91561
G01 X-38.68227 Y6.39971
G01 X-38.73536 Y6.95386
G01 X-38.68227 Y6.39971
G01 X-38.55095 Y6.04939
G01 X-38.44110 Y5.78467
G01 X-38.38801 Y5.64485
G01 X-38.26200 Y5.27444
G01 X-38.20676 Y5.14109
G01 X-38.14176 Y5.00705
G01 X-38.16431 Y4.94685
G01 X-38.17343 Y4.89461
G01 X-38.17473 Y3.26327
G01 X-38.18910 Y3.18727
G01 X-38.20754 Y3.14282
G01 X-38.24110 Y3.08854
G01 X-38.24110 Y2.79591
G01 X-38.19124 Y2.70840
G01 X-38.13896 Y2.60025
G01 X-38.12197 Y2.54318
G01 X-38.11257 Y2.48928
G01 X-38.10787 Y2.39304
G01 X-38.10892 Y2.00820
G01 X-37.97404 Y1.96352
G01 X-37.97419 Y1.74178
G01 X-37.97010 Y1.64145
G01 X-37.95535 Y1.53599
G01 X-37.91542 Y1.36350
G01 X-37.90879 Y1.29609
G01 X-37.90945 Y1.10833
G01 X-37.92487 Y1.00787
G01 X-37.91544 Y0.96096
G01 X-37.90879 Y0.89629
G01 X-37.90843 Y0.83729
G01 X-37.94468 Y0.76223
G01 X-38.00193 Y0.59258
G01 X-38.01996 Y0.52913
G01 X-38.03625 Y0.42774
G01 X-38.04237 Y0.24582
G01 X-38.03863 Y0.00851
G01 X-38.04145 Y-0.25400
G01 X-39.43988 Y-0.25400
G01 X-38.77213 Y-0.25400
G01 X-38.77600 Y0.44117
G01 X-38.78384 Y0.51775
G01 X-38.79553 Y0.56899
G01 X-38.81354 Y0.61915
G01 X-38.87498 Y0.74216
G01 X-38.93721 Y0.89586
G01 X-38.95486 Y0.95611
G01 X-38.96502 Y1.00790
G01 X-38.98991 Y1.04524
G01 X-39.02913 Y1.11879
G01 X-39.09296 Y1.27086
G01 X-39.11630 Y1.33609
G01 X-39.15471 Y1.49200
G01 X-39.21742 Y1.84970
G01 X-39.29187 Y1.87058
G01 X-39.44148 Y1.96362
G01 X-39.44018 Y2.27658
G01 X-39.42984 Y2.42809
G01 X-39.41089 Y2.52854
G01 X-39.38732 Y2.62054
G01 X-39.37767 Y2.67988
G01 X-39.36705 Y2.82336
G01 X-39.34821 Y2.90479
G01 X-39.33264 Y2.94927
G01 X-39.28214 Y3.05250
G01 X-39.25420 Y3.09700
G01 X-39.13629 Y3.24322
G01 X-39.04323 Y3.34239
G01 X-39.09789 Y3.86093
G01 X-39.04323 Y3.34239
G01 X-38.98130 Y3.28145
G01 X-38.86004 Y3.14239
G01 X-38.78115 Y3.01907
G01 X-38.75974 Y2.97459
G01 X-38.72784 Y2.88468
G01 X-38.71854 Y2.84399
G01 X-38.75839 Y2.72136
G01 X-38.76820 Y2.67673
G01 X-38.77315 Y2.63022
G01 X-38.77422 Y2.00795
G01 X-38.99464 Y1.93469
G01 X-39.21742 Y1.84970
G01 X-39.29187 Y1.87058
G01 X-39.43947 Y1.60950
G01 X-39.60048 Y1.28908
G01 X-39.63081 Y1.21300
G01 X-39.63772 Y1.17818
G01 X-39.64021 Y1.13370
G01 X-39.63177 Y1.07401
G01 X-39.48539 Y0.70940
G01 X-39.45407 Y0.58369
G01 X-39.44831 Y0.54224
G01 X-39.44069 Y0.42560
G01 X-39.43988 Y-0.25400
G01 X-40.37020 Y-0.25400
G01 X-40.37434 Y0.03335
G01 X-40.37287 Y0.40645
G01 X-40.38145 Y0.51379
G01 X-40.39436 Y0.56962
G01 X-40.41033 Y0.61333
G01 X-40.47269 Y0.74130
G01 X-40.58051 Y1.00162
G01 X-40.52700 Y1.06088
G01 X-40.48603 Y1.11869
G01 X-40.45890 Y1.17627
G01 X-40.44358 Y1.23345
G01 X-40.44033 Y1.31559
G01 X-40.44081 Y1.97805
G01 X-40.61590 Y2.00393
G01 X-40.70703 Y2.00777
G01 X-41.47975 Y2.00894
G01 X-41.63997 Y2.00884
G01 X-41.63997 Y1.95288
G01 X-41.83875 Y1.60950
G01 X-42.09707 Y1.09126
G01 X-42.15087 Y0.99106
G01 X-41.97259 Y0.80853
G01 X-41.91945 Y0.74574
G01 X-41.88366 Y0.69289
G01 X-41.85112 Y0.63017
G01 X-41.81345 Y0.52456
G01 X-41.80134 Y0.47673
G01 X-41.77680 Y0.29296
G01 X-41.77149 Y0.01651
G01 X-41.77505 Y-0.25400
G01 X-41.24206 Y-0.25400
G01 X-41.23685 Y0.13863
G01 X-41.24063 Y0.30655
G01 X-41.24104 Y0.74346
G01 X-41.23906 Y0.79731
G01 X-41.23063 Y0.86345
G01 X-41.32392 Y0.95816
G01 X-41.38610 Y1.03957
G01 X-41.42567 Y1.11209
G01 X-41.49374 Y1.27447
G01 X-41.52837 Y1.37848
G01 X-41.55399 Y1.49200
G01 X-41.60103 Y1.76962
G01 X-41.63997 Y1.95288
G01 X-41.63997 Y2.00884
G01 X-42.16504 Y2.59006
G01 X-42.41104 Y2.87066
G01 X-42.58000 Y3.01897
G01 X-42.84248 Y2.99618
G01 X-42.83954 Y1.13782
G01 X-42.83730 Y1.10795
G01 X-42.82410 Y1.05110
G01 X-42.73718 Y0.84021
G01 X-42.79250 Y0.76622
G01 X-42.86578 Y0.62156
G01 X-42.89189 Y0.54277
G01 X-42.90022 Y0.49929
G01 X-42.90698 Y0.27534
G01 X-42.90149 Y-0.25400
G01 X-43.57456 Y-0.25400
G01 X-43.57187 Y0.37861
G01 X-43.57634 Y0.47993
G01 X-43.58673 Y0.54277
G01 X-43.60108 Y0.59167
G01 X-43.66839 Y0.73304
G01 X-43.70603 Y0.79581
G01 X-43.70603 Y1.08864
G01 X-43.67238 Y1.14305
G01 X-43.65399 Y1.18753
G01 X-43.64401 Y1.22509
G01 X-43.63855 Y1.29372
G01 X-43.63911 Y2.99941
G01 X-43.82267 Y3.00667
G01 X-44.23888 Y2.89278
G01 X-44.66138 Y2.87576
G01 X-45.77456 Y2.87442
G01 X-45.83859 Y2.85803
G01 X-45.77456 Y2.87442
G01 X-45.61538 Y3.35018
G01 X-45.48500 Y3.69512
G01 X-45.37685 Y3.95305
G01 X-45.30758 Y4.13923
G01 X-45.20110 Y4.45475
G01 X-45.12506 Y4.63768
G01 X-45.10804 Y4.70129
G01 X-45.10499 Y4.74129
G01 X-45.10725 Y5.03819
G01 X-45.11678 Y5.08493
G01 X-45.15762 Y5.20626
G01 X-45.16920 Y5.27815
G01 X-45.17139 Y5.34134
G01 X-45.17072 Y6.91863
G01 X-45.34126 Y6.92353
G01 X-45.62749 Y6.92447
G01 X-45.83862 Y6.91855
G01 X-45.84372 Y6.09623
G01 X-45.83811 Y5.65673
G01 X-45.83933 Y5.34175
G01 X-45.84416 Y5.25940
G01 X-45.85330 Y5.20560
G01 X-45.86176 Y5.17223
G01 X-45.89160 Y5.09321
G01 X-45.90318 Y5.04096
G01 X-45.90466 Y4.85231
G01 X-45.88477 Y4.76900
G01 X-45.86343 Y4.72443
G01 X-45.83316 Y4.67840
G01 X-45.83849 Y4.63019
G01 X-45.83994 Y4.32338
G01 X-45.83615 Y4.14670
G01 X-45.83859 Y2.85803
G01 X-46.16501 Y2.73627
G01 X-46.36226 Y2.66723
G01 X-48.46752 Y1.99202
G01 X-51.31664 Y1.08486
G01 X-51.75235 Y0.93094
G01 X-53.24285 Y0.43137
G01 X-53.87162 Y-0.25400
G01 X-72.38997 Y-0.25400
G01 X-72.38997 Y50.00993
G01 X0.25400 Y50.00993
G01 X0.25400 Y-0.25400
G01 X-53.87162 Y-0.25400
G01 X-53.24285 Y0.43137
G01 X-52.80091 Y1.24892
G01 X-52.35895 Y2.01082
G01 X-51.91699 Y2.71706
G01 X-51.45263 Y3.39923
G01 X-51.09576 Y3.88389
G01 X-50.73886 Y4.33207
G01 X-50.38197 Y4.74373
G01 X-50.02505 Y5.11889
G01 X-49.66051 Y5.46854
G01 X-49.34044 Y5.74401
G01 X-49.02035 Y5.98975
G01 X-48.65578 Y6.23367
G01 X-48.29134 Y6.44317
G01 X-47.92688 Y6.61363
G01 X-47.58944 Y6.73875
G01 X-47.22988 Y6.83547
G01 X-46.85881 Y6.89973
G01 X-46.48774 Y6.92315
G01 X-45.83862 Y6.91855
G01 X-45.62749 Y6.92447
G01 X-45.34126 Y6.92353
G01 X-45.17072 Y6.91863
G01 X-44.94997 Y6.92325
G01 X-44.70563 Y6.91439
G01 X-44.46130 Y6.92325
G01 X-44.23910 Y6.91858
G01 X-44.23451 Y6.22183
G01 X-44.24164 Y5.60227
G01 X-44.23959 Y5.32475
G01 X-44.24467 Y5.25940
G01 X-44.25379 Y5.20565
G01 X-44.26544 Y5.16379
G01 X-44.29531 Y5.08556
G01 X-44.30349 Y5.04792
G01 X-44.30649 Y5.00774
G01 X-44.30603 Y4.73474
G01 X-44.31294 Y4.68051
G01 X-44.34375 Y4.59163
G01 X-44.36626 Y4.49931
G01 X-44.37113 Y4.34170
G01 X-44.17235 Y3.94109
G01 X-43.97311 Y3.45844
G01 X-43.82267 Y3.00667
G01 X-44.23888 Y2.89278
G01 X-44.23885 Y1.74178
G01 X-44.23176 Y1.61120
G01 X-44.22000 Y1.53599
G01 X-44.18007 Y1.36350
G01 X-44.17344 Y1.29609
G01 X-44.17411 Y1.10833
G01 X-44.18952 Y1.00787
G01 X-44.18010 Y0.96096
G01 X-44.17344 Y0.89629
G01 X-44.17309 Y0.83729
G01 X-44.20934 Y0.76223
G01 X-44.26659 Y0.59258
G01 X-44.28462 Y0.52913
G01 X-44.30090 Y0.42774
G01 X-44.30702 Y0.24582
G01 X-44.30329 Y0.00851
G01 X-44.30611 Y-0.25400
G04 P0 ( dwell for no time -- G64 should not smooth over this point )
G00 Z10.00000 ( retract )

G00 X-55.50718 Y39.08793 ( rapid move to begin. )
G01 F30.00000
( Mill infeed pass 1/1 )
G01 Z-0.10000
G04 P0 ( dwell for no time -- G64 should not smooth over this point )
G01 F360.00000
G01 X-55.50718 Y39.08793
G01 X-55.53144 Y39.28379
G01 X-55.53862 Y39.31554
G01 X-55.58170 Y39.43233
G01 X-55.62691 Y39.52718
G01 X-55.68658 Y39.61394
G01 X-55.76621 Y39.70970
G01 X-55.81078 Y39.74899
G01 X-55.94772 Y39.85077
G01 X-56.10405 Y39.91834
G01 X-56.16037 Y39.93728
G01 X-56.28310 Y39.95839
G01 X-56.38800 Y39.96667
G01 X-56.49285 Y39.95839
G01 X-56.62341 Y39.93596
G01 X-56.67700 Y39.93063
G01 X-56.73397 Y39.97409
G01 X-63.09718 Y46.33730
G01 X-63.12306 Y46.36734
G01 X-63.13094 Y46.43056
G01 X-63.13094 Y47.45797
G01 X-63.15271 Y47.56320
G01 X-63.25791 Y47.58499
G01 X-64.75806 Y47.58499
G01 X-64.86327 Y47.56320
G01 X-64.88504 Y47.45797
G01 X-64.88504 Y45.95787
G01 X-64.86327 Y45.85264
G01 X-64.75806 Y45.83085
G01 X-63.73063 Y45.83085
G01 X-63.66744 Y45.82300
G01 X-63.63736 Y45.79711
G01 X-57.27416 Y39.43391
G01 X-57.22902 Y39.37399
G01 X-57.24911 Y39.25727
G01 X-57.26880 Y39.08793
G01 X-57.24909 Y38.91857
G01 X-57.23735 Y38.86030
G01 X-57.19425 Y38.74348
G01 X-57.14906 Y38.64867
G01 X-57.08937 Y38.56187
G01 X-57.00977 Y38.46614
G01 X-56.98587 Y38.44404
G01 X-56.83954 Y38.33302
G01 X-56.81596 Y38.31938
G01 X-56.64662 Y38.24818
G01 X-56.61561 Y38.23853
G01 X-56.49285 Y38.21742
G01 X-56.38797 Y38.20917
G01 X-56.28310 Y38.21745
G01 X-56.16037 Y38.23853
G01 X-56.10405 Y38.25751
G01 X-55.95998 Y38.31941
G01 X-55.93644 Y38.33299
G01 X-55.81078 Y38.42685
G01 X-55.76621 Y38.46614
G01 X-55.68658 Y38.56187
G01 X-55.62691 Y38.64867
G01 X-55.58170 Y38.74348
G01 X-55.53860 Y38.86030
G01 X-55.52686 Y38.91857
G01 X-55.50718 Y39.08793
G04 P0 ( dwell for no time -- G64 should not smooth over this point )
G00 Z10.00000 ( retract )

G00 X-27.56718 Y41.62793 ( rapid move to begin. )
G01 F30.00000
( Mill infeed pass 1/1 )
G01 Z-0.10000
G04 P0 ( dwell for no time -- G64 should not smooth over this point )
G01 F360.00000
G01 X-27.56718 Y41.62793
G01 X-27.59144 Y41.82379
G01 X-27.59862 Y41.85554
G01 X-27.64170 Y41.97233
G01 X-27.68691 Y42.06718
G01 X-27.74658 Y42.15394
G01 X-27.82621 Y42.24970
G01 X-27.87078 Y42.28899
G01 X-28.00772 Y42.39077
G01 X-28.16405 Y42.45834
G01 X-28.22037 Y42.47728
G01 X-28.34310 Y42.49839
G01 X-28.44797 Y42.50667
G01 X-28.55285 Y42.49839
G01 X-28.67561 Y42.47728
G01 X-28.73190 Y42.45834
G01 X-28.88826 Y42.39077
G01 X-29.02516 Y42.28899
G01 X-29.06977 Y42.24970
G01 X-29.14940 Y42.15397
G01 X-29.20906 Y42.06718
G01 X-29.25427 Y41.97233
G01 X-29.29735 Y41.85554
G01 X-29.30454 Y41.82379
G01 X-29.32880 Y41.62793
G01 X-29.30454 Y41.43202
G01 X-29.29735 Y41.40030
G01 X-29.25425 Y41.28348
G01 X-29.20906 Y41.18867
G01 X-29.14937 Y41.10187
G01 X-29.06977 Y41.00614
G01 X-29.02516 Y40.96685
G01 X-28.88828 Y40.86504
G01 X-28.73190 Y40.79748
G01 X-28.67561 Y40.77853
G01 X-28.55285 Y40.75742
G01 X-28.44797 Y40.74917
G01 X-28.34310 Y40.75745
G01 X-28.22037 Y40.77853
G01 X-28.16405 Y40.79751
G01 X-28.00769 Y40.86504
G01 X-27.87078 Y40.96685
G01 X-27.82621 Y41.00614
G01 X-27.74658 Y41.10187
G01 X-27.68691 Y41.18867
G01 X-27.64170 Y41.28348
G01 X-27.59860 Y41.40030
G01 X-27.59144 Y41.43202
G01 X-27.56718 Y41.62793
G04 P0 ( dwell for no time -- G64 should not smooth over this point )
G00 Z10.00000 ( retract )

G00 X-7.25091 Y43.41785 ( rapid move to begin. )
G01 F30.00000
( Mill infeed pass 1/1 )
G01 Z-0.10000
G04 P0 ( dwell for no time -- G64 should not smooth over this point )
G01 F360.00000
G01 X-7.25091 Y43.41785
G01 X-7.27268 Y43.31264
G01 X-7.37794 Y43.29085
G01 X-8.87806 Y43.29085
G01 X-8.98327 Y43.31264
G01 X-9.00506 Y43.41785
G01 X-9.00506 Y44.91799
G01 X-8.98327 Y45.02320
G01 X-8.87806 Y45.04497
G01 X-7.37794 Y45.04497
G01 X-7.27271 Y45.02318
G01 X-7.25091 Y44.91799
G01 X-7.25091 Y43.41785
G04 P0 ( dwell for no time -- G64 should not smooth over this point )
G00 Z10.00000 ( retract )

G00 X-7.24715 Y41.62793 ( rapid move to begin. )
G01 F30.00000
( Mill infeed pass 1/1 )
G01 Z-0.10000
G04 P0 ( dwell for no time -- G64 should not smooth over this point )
G01 F360.00000
G01 X-7.24715 Y41.62793
G01 X-7.27144 Y41.82379
G01 X-7.27862 Y41.85554
G01 X-7.32170 Y41.97233
G01 X-7.36691 Y42.06718
G01 X-7.42658 Y42.15394
G01 X-7.50621 Y42.24970
G01 X-7.55079 Y42.28899
G01 X-7.68772 Y42.39077
G01 X-7.84405 Y42.45834
G01 X-7.90037 Y42.47728
G01 X-8.02310 Y42.49839
G01 X-8.12800 Y42.50667
G01 X-8.23285 Y42.49839
G01 X-8.35561 Y42.47728
G01 X-8.41190 Y42.45834
G01 X-8.56826 Y42.39077
G01 X-8.70516 Y42.28899
G01 X-8.74977 Y42.24970
G01 X-8.82940 Y42.15397
G01 X-8.88906 Y42.06718
G01 X-8.93427 Y41.97233
G01 X-8.97735 Y41.85554
G01 X-8.98454 Y41.82379
G01 X-9.00880 Y41.62793
G01 X-8.98454 Y41.43202
G01 X-8.97735 Y41.40030
G01 X-8.93425 Y41.28348
G01 X-8.88906 Y41.18867
G01 X-8.82937 Y41.10187
G01 X-8.74977 Y41.00614
G01 X-8.70516 Y40.96685
G01 X-8.56828 Y40.86504
G01 X-8.41190 Y40.79748
G01 X-8.35561 Y40.77853
G01 X-8.23285 Y40.75742
G01 X-8.12800 Y40.74917
G01 X-8.02310 Y40.75745
G01 X-7.90037 Y40.77853
G01 X-7.84405 Y40.79751
G01 X-7.68769 Y40.86504
G01 X-7.55079 Y40.96685
G01 X-7.50621 Y41.00614
G01 X-7.42658 Y41.10187
G01 X-7.36691 Y41.18867
G01 X-7.32170 Y41.28348
G01 X-7.27860 Y41.40030
G01 X-7.27144 Y41.43202
G01 X-7.24715 Y41.62793

G04 P0 ( dwell for no time -- G64 should not smooth over this point )
G00 Z50.000000 ( retract )

M5 ( Spindle off. )
G04 P1.000000
M9 ( Coolant off. )
M2 ( Program end. )

