( pcb2gcode 2.1.0 )
( Software-independent Gcode )

G94 ( Millimeters per minute feed rate. )
G21 ( Units == Millimeters. )

G90 ( Absolute coordinates. )
G00 S10000 ( RPM spindle speed. )
G01 F360.00000 ( Feedrate. )


G00 Z50.00000 (Retract to tool change height)
T0
M5      (Spindle stop.)
G04 P1.00000 (Wait for spindle to stop)
(MSG, Change tool bit to mill diameter 0.50800mm)
M6      (Tool change.)
M0      (Temporary machine stop.)
M3 ( Spindle on clockwise. )
G04 P1.00000 (Wait for spindle to get up to speed)
G04 P0 ( dwell for no time -- G64 should not smooth over this point )
G00 Z10.00000 ( retract )

G00 X-18.58810 Y-0.25400 ( rapid move to begin. )
G01 F30.00000
( Mill infeed pass 1/1 )
G01 Z-0.10000
G04 P0 ( dwell for no time -- G64 should not smooth over this point )
G01 F360.00000
G01 X-18.58810 Y-0.25400
G01 X0.25400 Y-0.25400
G01 X0.25400 Y50.00993
G01 X-72.38997 Y50.00993
G01 X-72.38997 Y-0.25400
G01 X-53.86819 Y-0.25400
G01 X-53.24754 Y0.42525
G01 X-52.52080 Y1.73802
G01 X-51.79403 Y2.90083
G01 X-51.32200 Y3.58049
G01 X-50.88895 Y4.14800
G01 X-50.45593 Y4.66169
G01 X-50.02291 Y5.12161
G01 X-49.53838 Y5.57733
G01 X-49.07328 Y5.95102
G01 X-48.58591 Y6.27779
G01 X-48.25048 Y6.46422
G01 X-47.89566 Y6.62579
G01 X-47.53153 Y6.75704
G01 X-47.16739 Y6.84908
G01 X-46.79320 Y6.90687
G01 X-46.45805 Y6.92353
G01 X-46.01901 Y6.92353
G01 X-45.83727 Y6.91866
G01 X-45.83377 Y6.22290
G01 X-45.83994 Y5.31211
G01 X-45.84631 Y5.24185
G01 X-45.85546 Y5.19582
G01 X-45.89635 Y5.07876
G01 X-45.90572 Y5.00733
G01 X-45.90430 Y4.85473
G01 X-45.89518 Y4.80253
G01 X-45.87354 Y4.74561
G01 X-45.83166 Y4.67756
G01 X-45.83862 Y4.58810
G01 X-45.83984 Y4.27548
G01 X-45.83643 Y4.07982
G01 X-45.84337 Y3.52844
G01 X-45.83996 Y2.85676
G01 X-45.77055 Y2.87442
G01 X-45.66115 Y3.21013
G01 X-45.48640 Y3.69372
G01 X-45.35749 Y4.00395
G01 X-45.30555 Y4.14127
G01 X-45.19323 Y4.47459
G01 X-45.12092 Y4.65173
G01 X-45.10786 Y4.70819
G01 X-45.10555 Y4.74129
G01 X-45.10555 Y5.00774
G01 X-45.10971 Y5.05328
G01 X-45.15531 Y5.19585
G01 X-45.16443 Y5.24187
G01 X-45.17075 Y5.31211
G01 X-45.17085 Y5.67152
G01 X-45.17779 Y6.05097
G01 X-45.17344 Y6.91863
G01 X-45.37202 Y6.92450
G01 X-45.63872 Y6.92450
G01 X-45.83727 Y6.91866
G01 X-45.63872 Y6.92450
G01 X-45.37202 Y6.92450
G01 X-45.17344 Y6.91863
G01 X-44.95272 Y6.92353
G01 X-44.70563 Y6.91449
G01 X-44.45856 Y6.92353
G01 X-44.24040 Y6.91878
G01 X-44.05109 Y6.92389
G01 X-43.78099 Y6.92358
G01 X-43.47637 Y6.99554
G01 X-43.16773 Y7.04157
G01 X-42.85910 Y7.05691
G01 X-42.51150 Y7.04157
G01 X-42.20286 Y6.99554
G01 X-41.87434 Y6.91670
G01 X-42.15562 Y5.65676
G01 X-42.20502 Y5.47982
G01 X-42.25468 Y5.33829
G01 X-42.29489 Y5.15696
G01 X-42.30649 Y5.00774
G01 X-42.30865 Y3.37993
G01 X-41.64404 Y3.77904
G01 X-41.48712 Y3.84399
G01 X-41.37340 Y3.89722
G01 X-41.04114 Y4.00789
G01 X-41.04041 Y4.43575
G01 X-41.04457 Y4.49229
G01 X-41.05618 Y4.55153
G01 X-41.08839 Y4.64355
G01 X-41.10416 Y4.70479
G01 X-41.10685 Y5.00774
G01 X-41.09728 Y5.07840
G01 X-41.05702 Y5.19587
G01 X-41.04787 Y5.24190
G01 X-41.04150 Y5.31221
G01 X-41.03891 Y5.47378
G01 X-41.04231 Y5.66956
G01 X-41.03533 Y6.22356
G01 X-41.03881 Y6.91863
G01 X-40.84015 Y6.92450
G01 X-40.57886 Y6.92450
G01 X-40.24859 Y6.97421
G01 X-39.92669 Y6.99021
G01 X-39.57394 Y6.97502
G01 X-39.57394 Y4.87693
G01 X-39.60279 Y4.80832
G01 X-39.62354 Y4.74129
G01 X-39.66827 Y4.56758
G01 X-39.69255 Y4.45488
G01 X-39.70701 Y4.30256
G01 X-39.70729 Y4.05204
G01 X-39.26698 Y3.90571
G01 X-39.09911 Y3.85991
G01 X-39.04224 Y3.34338
G01 X-38.94963 Y3.24935
G01 X-38.83993 Y3.11645
G01 X-38.81389 Y3.07739
G01 X-38.76197 Y2.98115
G01 X-38.74587 Y2.94213
G01 X-38.71819 Y2.84312
G01 X-38.76103 Y2.70934
G01 X-38.77396 Y2.62783
G01 X-38.77521 Y2.00777
G01 X-38.98146 Y1.93815
G01 X-39.21747 Y1.84909
G01 X-39.16004 Y1.51747
G01 X-39.12098 Y1.34981
G01 X-39.09489 Y1.27447
G01 X-39.03947 Y1.14110
G01 X-39.00863 Y1.07752
G01 X-38.96431 Y1.00790
G01 X-38.94719 Y0.92862
G01 X-38.92807 Y0.87315
G01 X-38.85837 Y0.70884
G01 X-38.80597 Y0.60127
G01 X-38.79108 Y0.55321
G01 X-38.78194 Y0.50719
G01 X-38.77556 Y0.43685
G01 X-38.77546 Y0.07729
G01 X-38.76906 Y-0.25400
G01 X-39.44211 Y-0.25400
G01 X-39.43972 Y0.40721
G01 X-39.44910 Y0.54785
G01 X-39.47104 Y0.66126
G01 X-39.48394 Y0.70358
G01 X-39.62156 Y1.04137
G01 X-39.63645 Y1.09555
G01 X-39.63957 Y1.16401
G01 X-39.62504 Y1.23121
G01 X-39.60188 Y1.28588
G01 X-39.46553 Y1.55847
G01 X-39.29606 Y1.87129
G01 X-39.21747 Y1.84909
G01 X-39.29606 Y1.87129
G01 X-39.43990 Y1.96304
G01 X-39.43937 Y2.30375
G01 X-39.42575 Y2.45504
G01 X-39.37922 Y2.66969
G01 X-39.36657 Y2.82750
G01 X-39.35882 Y2.86652
G01 X-39.33571 Y2.94188
G01 X-39.31956 Y2.98084
G01 X-39.26769 Y3.07673
G01 X-39.24163 Y3.11574
G01 X-39.16378 Y3.21457
G01 X-39.04224 Y3.34338
G01 X-39.09911 Y3.85991
G01 X-39.04209 Y3.90375
G01 X-39.04082 Y4.95450
G01 X-39.00782 Y5.00774
G01 X-38.95588 Y5.11066
G01 X-38.93932 Y5.14777
G01 X-38.92443 Y5.19587
G01 X-38.91529 Y5.24190
G01 X-38.90891 Y5.31221
G01 X-38.90635 Y5.47510
G01 X-38.67983 Y6.39509
G01 X-38.73419 Y6.95355
G01 X-38.67983 Y6.39509
G01 X-38.55095 Y6.04939
G01 X-38.44110 Y5.78467
G01 X-38.33609 Y5.49466
G01 X-38.26218 Y5.27291
G01 X-38.19098 Y5.10667
G01 X-38.14155 Y5.00814
G01 X-38.16238 Y4.95404
G01 X-38.17173 Y4.91119
G01 X-38.17440 Y4.87423
G01 X-38.17447 Y3.25496
G01 X-38.18372 Y3.20197
G01 X-38.19454 Y3.16890
G01 X-38.20851 Y3.13812
G01 X-38.24046 Y3.08727
G01 X-38.24097 Y2.79484
G01 X-38.20904 Y2.74368
G01 X-38.15017 Y2.62745
G01 X-38.12583 Y2.56301
G01 X-38.11554 Y2.51635
G01 X-38.10825 Y2.43604
G01 X-38.10925 Y2.00810
G01 X-37.97557 Y1.96337
G01 X-37.97313 Y1.71183
G01 X-37.95933 Y1.56035
G01 X-37.91674 Y1.37472
G01 X-37.90767 Y1.29151
G01 X-37.90833 Y1.11486
G01 X-37.92477 Y1.00754
G01 X-37.91476 Y0.95710
G01 X-37.90820 Y0.88966
G01 X-37.90838 Y0.83795
G01 X-37.95014 Y0.74869
G01 X-38.00315 Y0.58814
G01 X-38.01753 Y0.53972
G01 X-38.03307 Y0.45877
G01 X-38.03802 Y0.40856
G01 X-38.04262 Y0.13053
G01 X-38.04036 Y-0.25397
G01 X-40.37637 Y-0.25400
G01 X-40.37340 Y0.43096
G01 X-40.38044 Y0.50681
G01 X-40.40002 Y0.58847
G01 X-40.47279 Y0.74155
G01 X-40.58023 Y1.00223
G01 X-40.51297 Y1.07747
G01 X-40.48689 Y1.11638
G01 X-40.45524 Y1.18379
G01 X-40.44180 Y1.24107
G01 X-40.43954 Y1.97790
G01 X-40.24043 Y2.02232
G01 X-40.24170 Y2.43690
G01 X-40.24785 Y2.50711
G01 X-40.25684 Y2.55306
G01 X-40.28328 Y2.62745
G01 X-40.33954 Y2.74145
G01 X-40.44729 Y3.00241
G01 X-40.37993 Y3.07772
G01 X-40.35384 Y3.11668
G01 X-40.32227 Y3.18397
G01 X-40.30889 Y3.24112
G01 X-40.30576 Y4.37030
G01 X-40.29573 Y4.48112
G01 X-40.28658 Y4.52714
G01 X-40.22618 Y4.71861
G01 X-40.17376 Y4.85173
G01 X-40.17376 Y4.91061
G01 X-40.21115 Y4.98846
G01 X-40.25709 Y5.12161
G01 X-40.28846 Y5.22658
G01 X-40.30485 Y5.34114
G01 X-40.30795 Y5.43832
G01 X-40.30541 Y5.53260
G01 X-40.41221 Y6.05442
G01 X-40.57886 Y6.92450
G01 X-40.84015 Y6.92450
G01 X-41.03881 Y6.91863
G01 X-41.21384 Y6.92353
G01 X-41.65948 Y6.92353
G01 X-41.87434 Y6.91670
G01 X-41.65948 Y6.92353
G01 X-41.21384 Y6.92353
G01 X-41.03881 Y6.91863
G01 X-40.84015 Y6.92450
G01 X-40.57886 Y6.92450
G01 X-40.24859 Y6.97421
G01 X-39.92669 Y6.99021
G01 X-39.57394 Y6.97502
G01 X-39.22121 Y6.99021
G01 X-38.73419 Y6.95355
G01 X-38.45888 Y7.01187
G01 X-38.18357 Y7.04578
G01 X-37.90798 Y7.05787
G01 X-37.50793 Y7.05787
G01 X-37.16414 Y7.03905
G01 X-36.69121 Y6.95658
G01 X-36.34651 Y6.85328
G01 X-35.80295 Y6.92048
G01 X-35.61776 Y6.92442
G01 X-35.30415 Y6.91866
G01 X-35.10559 Y6.92450
G01 X-34.83889 Y6.92450
G01 X-34.57585 Y6.91421
G01 X-34.32520 Y6.92353
G01 X-33.78634 Y6.92206
G01 X-33.47639 Y6.99554
G01 X-33.16775 Y7.04157
G01 X-32.85912 Y7.05691
G01 X-32.57194 Y7.04700
G01 X-32.26293 Y7.05739
G01 X-31.98061 Y7.04159
G01 X-31.52308 Y6.96407
G01 X-31.34185 Y6.91665
G01 X-31.67695 Y5.40791
G01 X-31.69468 Y5.30929
G01 X-31.70573 Y5.16062
G01 X-31.70573 Y5.12161
G01 X-31.68589 Y4.92229
G01 X-31.67812 Y4.88328
G01 X-31.62620 Y4.70233
G01 X-31.50677 Y4.42524
G01 X-31.50677 Y4.09151
G01 X-31.50677 Y4.42524
G01 X-31.62620 Y4.70233
G01 X-31.67812 Y4.88328
G01 X-31.68589 Y4.92229
G01 X-31.70573 Y5.12161
G01 X-31.70573 Y5.16062
G01 X-31.69468 Y5.30929
G01 X-31.67695 Y5.40791
G01 X-31.34185 Y6.91665
G01 X-31.13319 Y6.92353
G01 X-30.68757 Y6.92353
G01 X-30.50568 Y6.91863
G01 X-30.50220 Y6.22356
G01 X-30.50837 Y5.31221
G01 X-30.51475 Y5.24190
G01 X-30.52389 Y5.19587
G01 X-30.56834 Y5.06247
G01 X-30.57416 Y5.00733
G01 X-30.57274 Y4.85473
G01 X-30.55811 Y4.78447
G01 X-30.52669 Y4.71726
G01 X-30.50012 Y4.67751
G01 X-30.50705 Y4.58808
G01 X-30.50827 Y4.27530
G01 X-30.50487 Y4.07952
G01 X-30.50824 Y3.87490
G01 X-30.37261 Y3.83817
G01 X-30.37528 Y3.67289
G01 X-30.37246 Y3.44546
G01 X-30.35877 Y3.29408
G01 X-30.31716 Y3.11046
G01 X-30.30764 Y3.01341
G01 X-30.31480 Y2.92031
G01 X-30.33057 Y2.84978
G01 X-30.37515 Y2.80761
G01 X-30.37380 Y1.91473
G01 X-30.27429 Y1.87455
G01 X-30.37131 Y1.47686
G01 X-30.37515 Y1.31211
G01 X-30.38147 Y1.24188
G01 X-30.39059 Y1.19586
G01 X-30.40545 Y1.14778
G01 X-30.42295 Y1.10853
G01 X-30.47393 Y1.00775
G01 X-30.50703 Y0.95430
G01 X-30.50705 Y0.74130
G01 X-30.51183 Y0.68273
G01 X-30.52036 Y0.64016
G01 X-30.55018 Y0.53967
G01 X-30.56618 Y0.45829
G01 X-30.57134 Y0.40792
G01 X-30.57441 Y0.31130
G01 X-30.57375 Y-0.25397
G01 X-31.43999 Y-0.25397
G01 X-29.57058 Y-0.25400
G01 X-29.57612 Y0.07983
G01 X-29.57271 Y0.27549
G01 X-29.57396 Y0.60830
G01 X-29.56923 Y0.66670
G01 X-29.56077 Y0.70924
G01 X-29.54899 Y0.74828
G01 X-29.50766 Y0.83746
G01 X-29.50533 Y1.85666
G01 X-29.64269 Y1.89238
G01 X-29.63992 Y2.42956
G01 X-29.64861 Y2.57277
G01 X-29.66481 Y2.64157
G01 X-29.69567 Y2.71673
G01 X-29.72333 Y2.76428
G01 X-29.77954 Y2.83515
G01 X-29.80154 Y2.92826
G01 X-29.78404 Y2.99039
G01 X-29.77449 Y3.06502
G01 X-29.77358 Y3.76331
G01 X-29.91432 Y3.81071
G01 X-30.08069 Y3.87436
G01 X-29.97441 Y4.14096
G01 X-29.86910 Y4.45422
G01 X-29.79369 Y4.63949
G01 X-29.77998 Y4.68678
G01 X-29.77401 Y4.74129
G01 X-29.77665 Y5.04424
G01 X-29.79242 Y5.10545
G01 X-29.82425 Y5.19603
G01 X-29.83365 Y5.24215
G01 X-29.84040 Y5.31320
G01 X-29.83850 Y5.66925
G01 X-29.84548 Y6.22364
G01 X-29.84200 Y6.91863
G01 X-30.04055 Y6.92450
G01 X-30.30703 Y6.92450
G01 X-30.50568 Y6.91863
G01 X-30.30703 Y6.92450
G01 X-30.04055 Y6.92450
G01 X-29.84200 Y6.91863
G01 X-29.62125 Y6.92353
G01 X-29.37406 Y6.91446
G01 X-29.12687 Y6.92353
G01 X-28.90746 Y6.91871
G01 X-28.90962 Y5.66925
G01 X-28.90622 Y5.47360
G01 X-28.90942 Y5.29681
G01 X-28.92349 Y5.19753
G01 X-28.96212 Y5.08706
G01 X-28.97147 Y5.04426
G01 X-28.97680 Y4.70484
G01 X-28.98615 Y4.66202
G01 X-29.01693 Y4.58074
G01 X-29.03339 Y4.50710
G01 X-29.03954 Y4.43690
G01 X-29.04185 Y4.34129
G01 X-28.80713 Y3.87068
G01 X-28.90957 Y3.81434
G01 X-28.90647 Y3.47398
G01 X-28.91114 Y3.27536
G01 X-28.91767 Y3.22674
G01 X-28.93093 Y3.17116
G01 X-28.97828 Y3.06474
G01 X-28.99837 Y3.00703
G01 X-29.03350 Y2.85397
G01 X-29.04015 Y2.77101
G01 X-29.03581 Y2.70734
G01 X-29.01912 Y2.61681
G01 X-29.03847 Y2.49197
G01 X-29.04000 Y2.44912
G01 X-29.03982 Y1.91102
G01 X-28.90871 Y1.87455
G01 X-28.90530 Y1.66926
G01 X-28.90746 Y0.87475
G01 X-28.74007 Y0.74836
G01 X-28.71305 Y0.70533
G01 X-28.70700 Y0.58613
G01 X-28.70906 Y-0.25400
G01 X-27.90635 Y-0.25400
G01 X-27.90937 Y-0.02355
G01 X-27.90680 Y0.43990
G01 X-28.03942 Y0.64224
G01 X-28.07332 Y0.70874
G01 X-28.15153 Y0.89708
G01 X-28.16868 Y0.95306
G01 X-28.17437 Y0.99974
G01 X-28.17538 Y1.16086
G01 X-28.19001 Y1.23132
G01 X-28.29817 Y1.45964
G01 X-28.44145 Y1.73505
G01 X-28.48508 Y1.87277
G01 X-28.24112 Y1.97780
G01 X-28.24109 Y2.40795
G01 X-28.23408 Y2.50236
G01 X-28.21181 Y2.59382
G01 X-28.11447 Y2.80797
G01 X-28.15145 Y2.89715
G01 X-28.16911 Y2.95661
G01 X-28.17708 Y3.04429
G01 X-28.19288 Y3.10553
G01 X-28.27053 Y3.29502
G01 X-28.38295 Y3.63517
G01 X-28.47797 Y3.87535
G01 X-28.24061 Y3.97810
G01 X-28.24196 Y4.34495
G01 X-28.23975 Y4.43687
G01 X-28.23337 Y4.50718
G01 X-28.21374 Y4.58848
G01 X-28.19237 Y4.63931
G01 X-28.06136 Y4.89839
G01 X-27.98249 Y5.07053
G01 X-27.97640 Y5.07589
G01 X-27.97487 Y5.16062
G01 X-27.98928 Y5.30723
G01 X-28.01770 Y5.42844
G01 X-28.15184 Y5.89021
G01 X-28.22303 Y6.15053
G01 X-28.44940 Y6.92353
G01 X-28.72707 Y6.92353
G01 X-28.90746 Y6.91871
G01 X-28.72707 Y6.92353
G01 X-28.44940 Y6.92353
G01 X-28.14467 Y6.99554
G01 X-27.83604 Y7.04157
G01 X-27.48844 Y7.05691
G01 X-27.17980 Y7.04157
G01 X-26.83215 Y6.98774
G01 X-26.49670 Y6.90296
G01 X-26.16129 Y6.78205
G01 X-25.72316 Y6.57525
G01 X-25.32403 Y6.33392
G01 X-24.90508 Y6.03133
G01 X-24.52515 Y5.70944
G01 X-24.20793 Y5.40791
G01 X-23.40800 Y4.60794
G01 X-22.99777 Y4.17670
G01 X-22.84661 Y4.00789
G01 X-22.69094 Y3.86845
G01 X-22.20785 Y3.40779
G01 X-21.40801 Y2.60795
G01 X-20.83514 Y2.00777
G01 X-20.20761 Y1.40754
G01 X-19.40801 Y0.60797
G01 X-18.58810 Y-0.25400
G01 X-44.30502 Y-0.25397
G01 X-44.30583 Y0.34140
G01 X-44.29773 Y0.45877
G01 X-44.28218 Y0.53972
G01 X-44.26146 Y0.60825
G01 X-44.21480 Y0.74869
G01 X-44.17301 Y0.83797
G01 X-44.17286 Y0.88966
G01 X-44.17941 Y0.95710
G01 X-44.18942 Y1.00754
G01 X-44.17296 Y1.11486
G01 X-44.17233 Y1.29151
G01 X-44.18139 Y1.37472
G01 X-44.22399 Y1.56035
G01 X-44.23778 Y1.71183
G01 X-44.24060 Y1.93977
G01 X-44.23679 Y2.25641
G01 X-44.24269 Y2.89179
G01 X-43.81802 Y3.00683
G01 X-43.63936 Y2.99977
G01 X-43.57266 Y3.00777
G01 X-43.10609 Y3.00777
G01 X-42.84297 Y2.99634
G01 X-42.57965 Y3.01744
G01 X-42.41104 Y2.86982
G01 X-42.10538 Y2.52319
G01 X-41.63997 Y2.00952
G01 X-41.63997 Y1.95928
G01 X-41.60144 Y1.77005
G01 X-41.55933 Y1.51747
G01 X-41.53487 Y1.40137
G01 X-41.49268 Y1.27084
G01 X-41.42834 Y1.11879
G01 X-41.38892 Y1.04536
G01 X-41.33258 Y0.96853
G01 X-41.22875 Y0.86299
G01 X-41.24018 Y0.74163
G01 X-41.24018 Y-0.25400
G01 X-41.77251 Y-0.25400
G01 X-41.77312 Y0.18369
G01 X-41.78399 Y0.38344
G01 X-41.79077 Y0.42771
G01 X-41.81968 Y0.54691
G01 X-41.86847 Y0.66444
G01 X-41.91660 Y0.74219
G01 X-41.96060 Y0.79446
G01 X-42.10667 Y0.94049
G01 X-42.14858 Y0.98880
G01 X-41.83837 Y1.60988
G01 X-41.63997 Y1.95928
G01 X-41.63997 Y2.00952
G01 X-40.71038 Y2.00825
G01 X-40.56992 Y1.99934
G01 X-40.43954 Y1.97790
G01 X-40.24043 Y2.02232
G01 X-40.03835 Y2.00731
G01 X-39.88438 Y2.00713
G01 X-39.75593 Y1.99878
G01 X-39.43990 Y1.96304
G01 X-39.29606 Y1.87129
G01 X-39.21747 Y1.84909
G01 X-38.98146 Y1.93815
G01 X-38.77521 Y2.00777
G01 X-38.10925 Y2.00810
G01 X-37.97557 Y1.96337
G01 X-37.86040 Y1.98692
G01 X-37.66111 Y2.00678
G01 X-36.32700 Y2.00792
G01 X-35.73671 Y2.84051
G01 X-35.51161 Y2.86377
G01 X-35.30547 Y3.08750
G01 X-35.12508 Y3.25214
G01 X-34.81936 Y3.50172
G01 X-34.63425 Y3.63555
G01 X-34.30981 Y3.78226
G01 X-34.03915 Y3.85562
G01 X-33.76778 Y3.88104
G01 X-33.43933 Y3.86121
G01 X-33.76778 Y3.88104
G01 X-34.03915 Y3.85562
G01 X-34.30981 Y3.78226
G01 X-34.63425 Y3.63555
G01 X-34.30981 Y3.78226
G01 X-34.03915 Y3.85562
G01 X-33.98975 Y3.86080
G01 X-33.76778 Y3.88104
G01 X-33.43933 Y3.86121
G01 X-33.04007 Y3.88777
G01 X-32.90336 Y3.87650
G01 X-32.63837 Y3.87520
G01 X-32.57149 Y3.89240
G01 X-32.43961 Y3.88059
G01 X-32.28701 Y3.87551
G01 X-32.17314 Y3.88061
G01 X-31.83989 Y3.90987
G01 X-31.83961 Y3.44653
G01 X-31.82516 Y3.29420
G01 X-31.77672 Y3.06530
G01 X-31.77322 Y3.00777
G01 X-31.77322 Y2.83726
G01 X-31.81472 Y2.74815
G01 X-31.86499 Y2.60109
G01 X-31.88292 Y2.53972
G01 X-31.89846 Y2.45877
G01 X-31.90657 Y2.34140
G01 X-31.90657 Y2.03002
G01 X-31.90657 Y2.34140
G01 X-31.89846 Y2.45877
G01 X-31.88292 Y2.53972
G01 X-31.86499 Y2.60109
G01 X-31.81472 Y2.74815
G01 X-31.77322 Y2.83726
G01 X-31.77322 Y3.00777
G01 X-31.77672 Y3.06530
G01 X-31.82516 Y3.29420
G01 X-31.83961 Y3.44653
G01 X-31.83989 Y3.90987
G01 X-31.50677 Y4.09151
G01 X-31.24007 Y3.96565
G01 X-31.06504 Y3.91744
G01 X-30.83230 Y3.87975
G01 X-30.68757 Y3.87373
G01 X-30.50824 Y3.87490
G01 X-30.37261 Y3.83817
G01 X-30.31292 Y3.84940
G01 X-30.08069 Y3.87436
G01 X-29.91432 Y3.81071
G01 X-29.77358 Y3.76331
G01 X-29.50743 Y3.73352
G01 X-29.37406 Y3.71137
G01 X-28.90957 Y3.81434
G01 X-28.80713 Y3.87068
G01 X-28.70759 Y3.87482
G01 X-28.47797 Y3.87535
G01 X-28.24061 Y3.97810
G01 X-28.04109 Y4.00045
G01 X-27.92948 Y4.00693
G01 X-22.84661 Y4.00789
G01 X-22.69094 Y3.86845
G01 X-22.20785 Y3.40779
G01 X-21.40801 Y2.60795
G01 X-20.83514 Y2.00777
G01 X-24.40958 Y2.00284
G01 X-26.01430 Y2.01021
G01 X-27.52740 Y2.00787
G01 X-27.72705 Y2.02816
G01 X-27.77452 Y2.03777
G01 X-27.90543 Y2.01544
G01 X-28.24112 Y1.97780
G01 X-28.48508 Y1.87277
G01 X-28.90871 Y1.87455
G01 X-29.03982 Y1.91102
G01 X-29.22006 Y1.88267
G01 X-29.50533 Y1.85666
G01 X-29.64269 Y1.89238
G01 X-29.84467 Y1.87607
G01 X-30.27429 Y1.87455
G01 X-30.37380 Y1.91473
G01 X-30.59527 Y1.93571
G01 X-30.76308 Y1.93982
G01 X-30.95249 Y1.91778
G01 X-31.17218 Y1.87528
G01 X-31.32770 Y1.79723
G01 X-31.37329 Y1.82270
G01 X-31.56285 Y1.91206
G01 X-31.90657 Y2.03002
G01 X-32.01797 Y2.01694
G01 X-32.15025 Y2.00810
G01 X-32.64060 Y2.00777
G01 X-33.01667 Y1.88432
G01 X-33.10621 Y1.89857
G01 X-33.25894 Y1.87805
G01 X-33.34169 Y1.87190
G01 X-33.50600 Y1.92123
G01 X-33.66077 Y1.93581
G01 X-33.79925 Y1.94191
G01 X-34.25439 Y1.94122
G01 X-34.43910 Y2.02654
G01 X-34.70554 Y2.17213
G01 X-34.90107 Y2.29461
G01 X-35.11205 Y2.48514
G01 X-35.38642 Y2.74942
G01 X-35.51161 Y2.86377
G01 X-35.73671 Y2.84051
G01 X-36.32700 Y2.00792
G01 X-36.37496 Y1.17373
G01 X-36.39708 Y0.94122
G01 X-36.38502 Y0.87455
G01 X-36.37430 Y0.62748
G01 X-36.37341 Y-0.25400
G01 X-36.37430 Y0.62748
G01 X-36.38502 Y0.87455
G01 X-35.23851 Y0.87539
G01 X-35.00473 Y0.87455
G01 X-34.93011 Y0.72479
G01 X-34.89909 Y0.67727
G01 X-34.90529 Y0.62746
G01 X-34.90554 Y-0.25400
G01 X-34.90529 Y0.62746
G01 X-34.89909 Y0.67727
G01 X-34.93011 Y0.72479
G01 X-35.00473 Y0.87455
G01 X-34.98187 Y0.93541
G01 X-34.96302 Y1.07866
G01 X-34.92241 Y1.19588
G01 X-34.91327 Y1.24191
G01 X-34.90689 Y1.31224
G01 X-34.90430 Y1.47378
G01 X-34.90770 Y1.66957
G01 X-34.90107 Y2.29461
G01 X-34.70554 Y2.17213
G01 X-34.43910 Y2.02654
G01 X-34.25439 Y1.94122
G01 X-34.17080 Y1.53261
G01 X-34.17334 Y1.43833
G01 X-34.17024 Y1.34115
G01 X-34.15386 Y1.22659
G01 X-34.12249 Y1.12164
G01 X-34.07654 Y0.98847
G01 X-34.03915 Y0.91062
G01 X-34.03915 Y0.85174
G01 X-34.07654 Y0.76063
G01 X-34.11718 Y0.64209
G01 X-34.15287 Y0.52677
G01 X-34.16178 Y0.48085
G01 X-34.17062 Y0.40343
G01 X-34.17250 Y0.34498
G01 X-34.17354 Y-0.25397
G01 X-33.63956 Y-0.25397
G01 X-33.63910 Y0.36921
G01 X-33.62848 Y0.48092
G01 X-33.57750 Y0.68268
G01 X-33.57270 Y0.74130
G01 X-33.57268 Y0.95441
G01 X-33.53961 Y1.00775
G01 X-33.48459 Y1.11610
G01 X-33.45574 Y1.19604
G01 X-33.44675 Y1.24198
G01 X-33.44060 Y1.31219
G01 X-33.43813 Y1.47556
G01 X-33.34169 Y1.87190
G01 X-33.50600 Y1.92123
G01 X-33.50611 Y2.74455
G01 X-33.51609 Y2.81346
G01 X-33.53953 Y2.87454
G01 X-33.51609 Y2.93563
G01 X-33.49683 Y3.07858
G01 X-33.46376 Y3.16817
G01 X-33.44705 Y3.24185
G01 X-33.44067 Y3.31208
G01 X-33.43847 Y3.40393
G01 X-33.43933 Y3.86121
G01 X-33.04007 Y3.88777
G01 X-32.90336 Y3.87650
G01 X-32.63837 Y3.87520
G01 X-32.57149 Y3.89240
G01 X-32.43961 Y3.88059
G01 X-32.28701 Y3.87551
G01 X-32.17314 Y3.88061
G01 X-31.83989 Y3.90987
G01 X-31.50677 Y4.09151
G01 X-31.24007 Y3.96565
G01 X-31.23837 Y2.94536
G01 X-31.26440 Y2.92611
G01 X-31.29166 Y2.84958
G01 X-31.30250 Y2.79928
G01 X-31.21853 Y2.63301
G01 X-31.19719 Y2.58084
G01 X-31.18074 Y2.50708
G01 X-31.17253 Y2.34516
G01 X-31.17555 Y2.07983
G01 X-31.17218 Y1.87528
G01 X-31.32770 Y1.79723
G01 X-31.33138 Y1.76182
G01 X-31.41030 Y1.40754
G01 X-31.42798 Y1.30927
G01 X-31.43900 Y1.12161
G01 X-31.41916 Y0.92232
G01 X-31.40994 Y0.87602
G01 X-31.42798 Y0.77605
G01 X-31.43880 Y0.65593
G01 X-31.43999 Y-0.25397
G01 X-32.70811 Y-0.25397
G01 X-32.70407 Y0.13160
G01 X-32.70540 Y0.71829
G01 X-32.70857 Y0.77450
G01 X-32.72180 Y0.83160
G01 X-32.79480 Y1.00835
G01 X-32.77756 Y1.08128
G01 X-32.77349 Y1.12161
G01 X-32.77344 Y1.16063
G01 X-32.78515 Y1.24005
G01 X-32.90700 Y1.60919
G01 X-33.01667 Y1.88432
G01 X-32.64060 Y2.00777
G01 X-32.64068 Y2.45161
G01 X-32.65564 Y2.55153
G01 X-32.68789 Y2.64351
G01 X-32.70380 Y2.70477
G01 X-32.70700 Y3.00777
G01 X-32.69747 Y3.07894
G01 X-32.65648 Y3.19588
G01 X-32.64733 Y3.24190
G01 X-32.64096 Y3.31224
G01 X-32.63837 Y3.87520
G01 X-32.90336 Y3.87650
G01 X-33.04007 Y3.88777
G01 X-33.04062 Y4.34548
G01 X-33.03737 Y4.45541
G01 X-33.02155 Y4.55793
G01 X-32.97872 Y4.68572
G01 X-32.97311 Y4.74708
G01 X-32.97629 Y4.78267
G01 X-32.98901 Y4.83334
G01 X-33.06128 Y5.00962
G01 X-33.04449 Y5.08147
G01 X-33.04050 Y5.12161
G01 X-33.04449 Y5.20075
G01 X-33.05226 Y5.23977
G01 X-33.08271 Y5.32541
G01 X-33.11627 Y5.38744
G01 X-33.21924 Y5.54200
G01 X-33.31868 Y5.70441
G01 X-33.35752 Y5.77726
G01 X-33.51974 Y6.13715
G01 X-33.70669 Y6.60852
G01 X-33.78634 Y6.92206
G01 X-33.70669 Y6.60852
G01 X-33.70725 Y5.31223
G01 X-33.71324 Y5.24205
G01 X-33.72211 Y5.19615
G01 X-33.76254 Y5.07982
G01 X-33.77258 Y5.00774
G01 X-33.77451 Y4.23987
G01 X-33.76778 Y3.88104
G01 X-33.43933 Y3.86121
G01 X-33.43847 Y3.40393
G01 X-33.44067 Y3.31208
G01 X-33.44705 Y3.24185
G01 X-33.46376 Y3.16817
G01 X-33.49683 Y3.07858
G01 X-33.51609 Y2.93563
G01 X-33.53953 Y2.87454
G01 X-35.50333 Y2.87152
G01 X-35.51161 Y2.86377
G01 X-35.73671 Y2.84051
G01 X-35.93026 Y3.05747
G01 X-36.09691 Y3.27444
G01 X-36.57420 Y3.94251
G01 X-36.57328 Y4.61848
G01 X-36.56848 Y4.87454
G01 X-36.57333 Y5.00774
G01 X-36.57270 Y5.17116
G01 X-36.55141 Y5.43126
G01 X-36.34651 Y6.85328
G01 X-35.82253 Y6.91954
G01 X-35.61776 Y6.92442
G01 X-35.30415 Y6.91866
G01 X-35.10559 Y6.92450
G01 X-34.83889 Y6.92450
G01 X-34.57585 Y6.91421
G01 X-34.57715 Y6.55930
G01 X-34.57090 Y5.57319
G01 X-34.57230 Y4.74129
G01 X-34.58185 Y4.67078
G01 X-34.62210 Y4.55325
G01 X-34.63125 Y4.50723
G01 X-34.63762 Y4.43697
G01 X-34.64022 Y4.27548
G01 X-34.63425 Y3.63555
G01 X-34.81936 Y3.50172
G01 X-35.12508 Y3.25214
G01 X-35.30547 Y3.08750
G01 X-35.51161 Y2.86377
G01 X-35.30547 Y3.08750
G01 X-35.30547 Y4.58848
G01 X-35.30521 Y4.62745
G01 X-35.29899 Y4.67738
G01 X-35.33818 Y4.74045
G01 X-35.40468 Y4.87454
G01 X-35.38179 Y4.93545
G01 X-35.36297 Y5.07858
G01 X-35.32233 Y5.19582
G01 X-35.31319 Y5.24185
G01 X-35.30681 Y5.31211
G01 X-35.30422 Y5.47360
G01 X-35.30763 Y5.66925
G01 X-35.30064 Y6.22290
G01 X-35.30415 Y6.91866
G01 X-35.30064 Y6.22290
G01 X-35.30763 Y5.66925
G01 X-35.30422 Y5.47360
G01 X-35.30681 Y5.31211
G01 X-35.31319 Y5.24185
G01 X-35.32233 Y5.19582
G01 X-35.36297 Y5.07858
G01 X-35.38179 Y4.93545
G01 X-35.40468 Y4.87454
G01 X-36.56848 Y4.87454
G01 X-36.57328 Y4.61848
G01 X-36.57420 Y3.94251
G01 X-36.81235 Y3.94048
G01 X-37.04537 Y3.95067
G01 X-37.50793 Y4.00045
G01 X-37.61842 Y4.00693
G01 X-38.46060 Y4.00776
G01 X-38.66007 Y3.98724
G01 X-39.04209 Y3.90375
G01 X-39.09911 Y3.85991
G01 X-39.26698 Y3.90571
G01 X-39.70729 Y4.05204
G01 X-39.82161 Y4.02869
G01 X-40.02105 Y4.00886
G01 X-41.04114 Y4.00789
G01 X-41.37340 Y3.89722
G01 X-41.48712 Y3.84399
G01 X-41.64404 Y3.77904
G01 X-42.30865 Y3.37993
G01 X-42.39555 Y3.25775
G01 X-42.57965 Y3.01744
G01 X-42.84297 Y2.99634
G01 X-42.83880 Y2.32113
G01 X-42.83900 Y1.12519
G01 X-42.83321 Y1.08346
G01 X-42.81990 Y1.03922
G01 X-42.73766 Y0.83970
G01 X-42.79039 Y0.76904
G01 X-42.82295 Y0.70940
G01 X-42.87787 Y0.59367
G01 X-42.89793 Y0.51664
G01 X-42.90494 Y0.43685
G01 X-42.90776 Y0.32949
G01 X-42.90416 Y0.07943
G01 X-42.90703 Y-0.25400
G01 X-43.57185 Y-0.25400
G01 X-43.57467 Y0.07945
G01 X-43.57106 Y0.32898
G01 X-43.57748 Y0.49258
G01 X-43.59105 Y0.56314
G01 X-43.61515 Y0.62746
G01 X-43.67395 Y0.74356
G01 X-43.70596 Y0.79474
G01 X-43.70563 Y1.08748
G01 X-43.67352 Y1.13863
G01 X-43.65963 Y1.16934
G01 X-43.64888 Y1.20223
G01 X-43.63971 Y1.25509
G01 X-43.63936 Y2.99977
G01 X-43.57266 Y3.00777
G01 X-43.57131 Y4.43697
G01 X-43.56494 Y4.50723
G01 X-43.54530 Y4.58846
G01 X-43.52394 Y4.63939
G01 X-43.39306 Y4.89793
G01 X-43.31393 Y5.07053
G01 X-43.30799 Y5.07576
G01 X-43.30644 Y5.16062
G01 X-43.32082 Y5.30718
G01 X-43.34929 Y5.42844
G01 X-43.48338 Y5.88998
G01 X-43.55462 Y6.15043
G01 X-43.78099 Y6.92358
G01 X-44.05109 Y6.92389
G01 X-44.24040 Y6.91878
G01 X-44.23837 Y5.44119
G01 X-44.24101 Y5.29687
G01 X-44.25490 Y5.19758
G01 X-44.29034 Y5.09735
G01 X-44.30339 Y5.04088
G01 X-44.30837 Y4.70482
G01 X-44.31772 Y4.66197
G01 X-44.34848 Y4.58074
G01 X-44.36496 Y4.50705
G01 X-44.37111 Y4.43677
G01 X-44.37342 Y4.34122
G01 X-44.16974 Y3.93543
G01 X-44.04568 Y3.65364
G01 X-43.81802 Y3.00683
G01 X-44.24269 Y2.89179
G01 X-44.70578 Y2.87442
G01 X-45.77055 Y2.87442
G01 X-45.83996 Y2.85676
G01 X-46.16455 Y2.73581
G01 X-46.70626 Y2.55654
G01 X-50.71638 Y1.27445
G01 X-51.27528 Y1.09992
G01 X-51.52649 Y1.00787
G01 X-52.17409 Y0.78496
G01 X-53.24754 Y0.42525
G01 X-53.86819 Y-0.25400
G01 X-44.30502 Y-0.25397
G04 P0 ( dwell for no time -- G64 should not smooth over this point )
G00 Z10.00000 ( retract )

G00 X-55.50718 Y39.08793 ( rapid move to begin. )
G01 F30.00000
( Mill infeed pass 1/1 )
G01 Z-0.10000
G04 P0 ( dwell for no time -- G64 should not smooth over this point )
G01 F360.00000
G01 X-55.50718 Y39.08793
G01 X-55.52686 Y38.91857
G01 X-55.53860 Y38.86030
G01 X-55.58170 Y38.74348
G01 X-55.62691 Y38.64867
G01 X-55.68658 Y38.56187
G01 X-55.76621 Y38.46614
G01 X-55.81078 Y38.42685
G01 X-55.93644 Y38.33299
G01 X-55.95998 Y38.31941
G01 X-56.10405 Y38.25751
G01 X-56.16037 Y38.23853
G01 X-56.28310 Y38.21745
G01 X-56.38797 Y38.20917
G01 X-56.49285 Y38.21742
G01 X-56.61561 Y38.23853
G01 X-56.64662 Y38.24818
G01 X-56.81596 Y38.31938
G01 X-56.83954 Y38.33302
G01 X-56.98587 Y38.44404
G01 X-57.00977 Y38.46614
G01 X-57.08937 Y38.56187
G01 X-57.14906 Y38.64867
G01 X-57.19425 Y38.74348
G01 X-57.23735 Y38.86030
G01 X-57.24909 Y38.91857
G01 X-57.26880 Y39.08793
G01 X-57.24911 Y39.25727
G01 X-57.22902 Y39.37399
G01 X-57.27416 Y39.43391
G01 X-63.63736 Y45.79711
G01 X-63.66744 Y45.82300
G01 X-63.73063 Y45.83085
G01 X-64.75806 Y45.83085
G01 X-64.86327 Y45.85264
G01 X-64.88504 Y45.95787
G01 X-64.88504 Y47.45797
G01 X-64.86327 Y47.56320
G01 X-64.75806 Y47.58499
G01 X-63.25791 Y47.58499
G01 X-63.15271 Y47.56320
G01 X-63.13094 Y47.45797
G01 X-63.13094 Y46.43056
G01 X-63.12306 Y46.36734
G01 X-63.09718 Y46.33730
G01 X-56.73397 Y39.97409
G01 X-56.67700 Y39.93063
G01 X-56.62341 Y39.93596
G01 X-56.49285 Y39.95839
G01 X-56.38800 Y39.96667
G01 X-56.28310 Y39.95839
G01 X-56.16037 Y39.93728
G01 X-56.10405 Y39.91834
G01 X-55.94772 Y39.85077
G01 X-55.81078 Y39.74899
G01 X-55.76621 Y39.70970
G01 X-55.68658 Y39.61394
G01 X-55.62691 Y39.52718
G01 X-55.58170 Y39.43233
G01 X-55.53862 Y39.31554
G01 X-55.53144 Y39.28379
G01 X-55.50718 Y39.08793
G04 P0 ( dwell for no time -- G64 should not smooth over this point )
G00 Z10.00000 ( retract )

G00 X-27.56718 Y41.62793 ( rapid move to begin. )
G01 F30.00000
( Mill infeed pass 1/1 )
G01 Z-0.10000
G04 P0 ( dwell for no time -- G64 should not smooth over this point )
G01 F360.00000
G01 X-27.56718 Y41.62793
G01 X-27.59144 Y41.43202
G01 X-27.59860 Y41.40030
G01 X-27.64170 Y41.28348
G01 X-27.68691 Y41.18867
G01 X-27.74658 Y41.10187
G01 X-27.82621 Y41.00614
G01 X-27.87078 Y40.96685
G01 X-28.00769 Y40.86504
G01 X-28.16405 Y40.79751
G01 X-28.22037 Y40.77853
G01 X-28.34310 Y40.75745
G01 X-28.44797 Y40.74917
G01 X-28.55285 Y40.75742
G01 X-28.67561 Y40.77853
G01 X-28.73190 Y40.79748
G01 X-28.88828 Y40.86504
G01 X-29.02516 Y40.96685
G01 X-29.06977 Y41.00614
G01 X-29.14937 Y41.10187
G01 X-29.20906 Y41.18867
G01 X-29.25425 Y41.28348
G01 X-29.29735 Y41.40030
G01 X-29.30454 Y41.43202
G01 X-29.32880 Y41.62793
G01 X-29.30454 Y41.82379
G01 X-29.29735 Y41.85554
G01 X-29.25427 Y41.97233
G01 X-29.20906 Y42.06718
G01 X-29.14940 Y42.15397
G01 X-29.06977 Y42.24970
G01 X-29.02516 Y42.28899
G01 X-28.88826 Y42.39077
G01 X-28.73190 Y42.45834
G01 X-28.67561 Y42.47728
G01 X-28.55285 Y42.49839
G01 X-28.44797 Y42.50667
G01 X-28.34310 Y42.49839
G01 X-28.22037 Y42.47728
G01 X-28.16405 Y42.45834
G01 X-28.00772 Y42.39077
G01 X-27.87078 Y42.28899
G01 X-27.82621 Y42.24970
G01 X-27.74658 Y42.15394
G01 X-27.68691 Y42.06718
G01 X-27.64170 Y41.97233
G01 X-27.59862 Y41.85554
G01 X-27.59144 Y41.82379
G01 X-27.56718 Y41.62793
G04 P0 ( dwell for no time -- G64 should not smooth over this point )
G00 Z10.00000 ( retract )

G00 X-7.25091 Y43.41785 ( rapid move to begin. )
G01 F30.00000
( Mill infeed pass 1/1 )
G01 Z-0.10000
G04 P0 ( dwell for no time -- G64 should not smooth over this point )
G01 F360.00000
G01 X-7.25091 Y43.41785
G01 X-7.25091 Y44.91799
G01 X-7.27271 Y45.02318
G01 X-7.37794 Y45.04497
G01 X-8.87806 Y45.04497
G01 X-8.98327 Y45.02320
G01 X-9.00506 Y44.91799
G01 X-9.00506 Y43.41785
G01 X-8.98327 Y43.31264
G01 X-8.87806 Y43.29085
G01 X-7.37794 Y43.29085
G01 X-7.27268 Y43.31264
G01 X-7.25091 Y43.41785
G04 P0 ( dwell for no time -- G64 should not smooth over this point )
G00 Z10.00000 ( retract )

G00 X-7.24715 Y41.62793 ( rapid move to begin. )
G01 F30.00000
( Mill infeed pass 1/1 )
G01 Z-0.10000
G04 P0 ( dwell for no time -- G64 should not smooth over this point )
G01 F360.00000
G01 X-7.24715 Y41.62793
G01 X-7.27144 Y41.43202
G01 X-7.27860 Y41.40030
G01 X-7.32170 Y41.28348
G01 X-7.36691 Y41.18867
G01 X-7.42658 Y41.10187
G01 X-7.50621 Y41.00614
G01 X-7.55079 Y40.96685
G01 X-7.68769 Y40.86504
G01 X-7.84405 Y40.79751
G01 X-7.90037 Y40.77853
G01 X-8.02310 Y40.75745
G01 X-8.12800 Y40.74917
G01 X-8.23285 Y40.75742
G01 X-8.35561 Y40.77853
G01 X-8.41190 Y40.79748
G01 X-8.56828 Y40.86504
G01 X-8.70516 Y40.96685
G01 X-8.74977 Y41.00614
G01 X-8.82937 Y41.10187
G01 X-8.88906 Y41.18867
G01 X-8.93425 Y41.28348
G01 X-8.97735 Y41.40030
G01 X-8.98454 Y41.43202
G01 X-9.00880 Y41.62793
G01 X-8.98454 Y41.82379
G01 X-8.97735 Y41.85554
G01 X-8.93427 Y41.97233
G01 X-8.88906 Y42.06718
G01 X-8.82940 Y42.15397
G01 X-8.74977 Y42.24970
G01 X-8.70516 Y42.28899
G01 X-8.56826 Y42.39077
G01 X-8.41190 Y42.45834
G01 X-8.35561 Y42.47728
G01 X-8.23285 Y42.49839
G01 X-8.12800 Y42.50667
G01 X-8.02310 Y42.49839
G01 X-7.90037 Y42.47728
G01 X-7.84405 Y42.45834
G01 X-7.68772 Y42.39077
G01 X-7.55079 Y42.28899
G01 X-7.50621 Y42.24970
G01 X-7.42658 Y42.15394
G01 X-7.36691 Y42.06718
G01 X-7.32170 Y41.97233
G01 X-7.27862 Y41.85554
G01 X-7.27144 Y41.82379
G01 X-7.24715 Y41.62793

G04 P0 ( dwell for no time -- G64 should not smooth over this point )
G00 Z50.000000 ( retract )

M5 ( Spindle off. )
G04 P1.000000
M9 ( Coolant off. )
M2 ( Program end. )

