( pcb2gcode 2.0.0 )
( Software-independent Gcode )

G94 ( Millimeters per minute feed rate. )
G21 ( Units == Millimeters. )

G90 ( Absolute coordinates. )
G00 S10000 ( RPM spindle speed. )
G01 F360.00000 ( Feedrate. )


G00 Z50.00000 (Retract to tool change height)
T0
M5      (Spindle stop.)
G04 P1.00000 (Wait for spindle to stop)
(MSG, Change tool bit to mill diameter 0.50800mm)
M6      (Tool change.)
M0      (Temporary machine stop.)
M3 ( Spindle on clockwise. )
G04 P1.00000 (Wait for spindle to get up to speed)
G04 P0 ( dwell for no time -- G64 should not smooth over this point )
G00 Z10.00000 ( retract )

G00 X-18.59072 Y-0.25400 ( rapid move to begin. )
G01 F30.00000
( Mill infeed pass 1/1 )
G01 Z-0.10000
G04 P0 ( dwell for no time -- G64 should not smooth over this point )
G01 F360.00000
G01 X-18.59072 Y-0.25400
G01 X0.25400 Y-0.25400
G01 X0.25400 Y50.00993
G01 X-72.38997 Y50.00993
G01 X-72.38997 Y-0.25400
G01 X-53.86822 Y-0.25400
G01 X-53.24544 Y0.42743
G01 X-52.63083 Y1.54490
G01 X-52.04651 Y2.51450
G01 X-51.50373 Y3.32788
G01 X-50.96096 Y4.05704
G01 X-50.41819 Y4.70197
G01 X-49.85657 Y5.28660
G01 X-49.33650 Y5.74678
G01 X-48.91689 Y6.06339
G01 X-48.47661 Y6.34086
G01 X-48.04664 Y6.56201
G01 X-47.57509 Y6.74228
G01 X-47.29538 Y6.82150
G01 X-47.01565 Y6.87756
G01 X-46.72828 Y6.91269
G01 X-46.46181 Y6.92341
G01 X-45.83689 Y6.91881
G01 X-45.66940 Y6.92353
G01 X-45.38322 Y6.92447
G01 X-45.16562 Y6.91817
G01 X-44.70563 Y6.91449
G01 X-44.24741 Y6.91827
G01 X-44.05739 Y6.92353
G01 X-43.77845 Y6.92343
G01 X-43.70187 Y6.94413
G01 X-43.36755 Y7.01568
G01 X-42.99166 Y7.05335
G01 X-42.48219 Y7.03826
G01 X-41.97736 Y6.94413
G01 X-41.87647 Y6.91655
G01 X-41.65948 Y6.92353
G01 X-41.22069 Y6.92353
G01 X-41.04015 Y6.91871
G01 X-40.87084 Y6.92353
G01 X-40.58133 Y6.92450
G01 X-40.41211 Y6.05490
G01 X-40.35875 Y5.80697
G01 X-40.30541 Y5.53319
G01 X-40.30754 Y5.43875
G01 X-40.30256 Y5.31630
G01 X-40.29545 Y5.26420
G01 X-40.27706 Y5.18686
G01 X-40.22037 Y5.01333
G01 X-40.19883 Y4.95849
G01 X-40.17432 Y4.91096
G01 X-40.17414 Y4.85188
G01 X-40.22573 Y4.72008
G01 X-40.27340 Y4.57492
G01 X-40.29197 Y4.50327
G01 X-40.29989 Y4.45259
G01 X-40.30660 Y4.34254
G01 X-40.30502 Y4.00703
G01 X-40.03721 Y4.00858
G01 X-39.83919 Y4.02504
G01 X-39.70708 Y4.05211
G01 X-39.26703 Y3.90566
G01 X-39.09913 Y3.86037
G01 X-39.04183 Y3.90383
G01 X-38.66007 Y3.98724
G01 X-38.46060 Y4.00776
G01 X-37.61842 Y4.00693
G01 X-37.50793 Y4.00045
G01 X-37.04532 Y3.95059
G01 X-36.80333 Y3.94010
G01 X-36.57420 Y3.94246
G01 X-36.57328 Y4.61848
G01 X-36.56848 Y4.87454
G01 X-36.57328 Y4.61848
G01 X-36.57420 Y3.94246
G01 X-36.09691 Y3.27444
G01 X-35.93026 Y3.05747
G01 X-35.73671 Y2.84051
G01 X-35.51192 Y2.86405
G01 X-35.38642 Y2.74942
G01 X-35.11205 Y2.48514
G01 X-34.90554 Y2.29862
G01 X-34.73132 Y2.18770
G01 X-34.44433 Y2.02885
G01 X-34.25368 Y1.94089
G01 X-33.76214 Y1.94175
G01 X-33.63900 Y1.93454
G01 X-33.50600 Y1.92115
G01 X-33.34060 Y1.87142
G01 X-33.20793 Y1.88305
G01 X-33.10621 Y1.89776
G01 X-33.01698 Y1.88435
G01 X-32.63913 Y2.00777
G01 X-32.15025 Y2.00810
G01 X-32.01797 Y2.01694
G01 X-31.90667 Y2.03002
G01 X-31.56285 Y1.91206
G01 X-31.37329 Y1.82270
G01 X-31.32793 Y1.79738
G01 X-31.17426 Y1.87437
G01 X-30.89727 Y1.92669
G01 X-30.71752 Y1.94094
G01 X-30.57373 Y1.93429
G01 X-30.37380 Y1.91511
G01 X-30.27413 Y1.87498
G01 X-29.90720 Y1.87424
G01 X-29.63913 Y1.89202
G01 X-29.50533 Y1.85595
G01 X-29.26817 Y1.87744
G01 X-29.17101 Y1.88910
G01 X-29.03875 Y1.91110
G01 X-28.90746 Y1.87394
G01 X-28.57424 Y1.87556
G01 X-28.48592 Y1.87246
G01 X-28.23906 Y1.97869
G01 X-27.90543 Y2.01605
G01 X-27.77383 Y2.03736
G01 X-27.59156 Y2.01087
G01 X-27.48615 Y2.00713
G01 X-26.11608 Y2.01031
G01 X-24.40958 Y2.00287
G01 X-20.83514 Y2.00777
G01 X-20.20761 Y1.40754
G01 X-19.40801 Y0.60797
G01 X-18.59072 Y-0.25400
G01 X-27.90784 Y-0.25400
G01 X-27.90784 Y0.43800
G01 X-28.04020 Y0.64107
G01 X-28.06101 Y0.68001
G01 X-28.15237 Y0.89624
G01 X-28.17132 Y0.96190
G01 X-28.17551 Y1.00775
G01 X-28.17551 Y1.16190
G01 X-28.19248 Y1.23810
G01 X-28.27218 Y1.40561
G01 X-28.44409 Y1.73822
G01 X-28.48592 Y1.87246
G01 X-28.23906 Y1.97869
G01 X-28.24213 Y2.27498
G01 X-28.23652 Y2.48488
G01 X-28.21793 Y2.57782
G01 X-28.20185 Y2.62029
G01 X-28.15727 Y2.70815
G01 X-28.11473 Y2.80797
G01 X-28.15189 Y2.89669
G01 X-28.16779 Y2.94645
G01 X-28.17348 Y2.97777
G01 X-28.17599 Y3.04124
G01 X-28.18768 Y3.09367
G01 X-28.26776 Y3.28699
G01 X-28.38280 Y3.63665
G01 X-28.47795 Y3.87525
G01 X-28.24056 Y3.97812
G01 X-28.04109 Y4.00045
G01 X-27.92948 Y4.00693
G01 X-22.84661 Y4.00789
G01 X-22.69094 Y3.86845
G01 X-22.20785 Y3.40779
G01 X-21.40801 Y2.60795
G01 X-20.83514 Y2.00777
G01 X-21.40801 Y2.60795
G01 X-22.20785 Y3.40779
G01 X-22.69094 Y3.86845
G01 X-22.84661 Y4.00789
G01 X-22.99777 Y4.17670
G01 X-23.40800 Y4.60794
G01 X-24.20793 Y5.40791
G01 X-24.51219 Y5.69770
G01 X-24.85801 Y5.99222
G01 X-25.33195 Y6.34048
G01 X-25.80589 Y6.61764
G01 X-26.22575 Y6.80880
G01 X-26.64567 Y6.94413
G01 X-27.15049 Y7.03826
G01 X-27.65996 Y7.05335
G01 X-28.03586 Y7.01568
G01 X-28.37017 Y6.94413
G01 X-28.44676 Y6.92343
G01 X-28.01821 Y5.42989
G01 X-27.98318 Y5.26816
G01 X-27.97518 Y5.11305
G01 X-27.97716 Y5.07655
G01 X-27.98252 Y5.07169
G01 X-28.06276 Y4.89516
G01 X-28.19430 Y4.63593
G01 X-28.22080 Y4.56819
G01 X-28.23129 Y4.52219
G01 X-28.24099 Y4.41020
G01 X-28.24056 Y3.97812
G01 X-28.47795 Y3.87525
G01 X-28.80665 Y3.87116
G01 X-29.04180 Y4.34271
G01 X-29.03357 Y4.50703
G01 X-29.01719 Y4.58071
G01 X-28.98422 Y4.66918
G01 X-28.97518 Y4.71848
G01 X-28.97182 Y5.04088
G01 X-28.95874 Y5.09740
G01 X-28.92237 Y5.20167
G01 X-28.91287 Y5.25666
G01 X-28.90883 Y5.31094
G01 X-28.90683 Y5.83141
G01 X-28.91569 Y6.91827
G01 X-28.72567 Y6.92353
G01 X-28.44676 Y6.92343
G01 X-28.72567 Y6.92353
G01 X-28.91569 Y6.91827
G01 X-29.37406 Y6.91449
G01 X-29.83418 Y6.91817
G01 X-29.84292 Y6.23661
G01 X-29.83885 Y5.49765
G01 X-29.84160 Y5.33578
G01 X-29.83476 Y5.25028
G01 X-29.82531 Y5.20060
G01 X-29.78775 Y5.09313
G01 X-29.77629 Y5.04088
G01 X-29.77502 Y4.71848
G01 X-29.78937 Y4.65168
G01 X-29.86179 Y4.47459
G01 X-29.97441 Y4.14096
G01 X-30.08074 Y3.87439
G01 X-30.00502 Y3.84366
G01 X-29.77624 Y3.76304
G01 X-29.50743 Y3.73299
G01 X-29.37406 Y3.71150
G01 X-28.90718 Y3.81554
G01 X-28.80665 Y3.87116
G01 X-28.90718 Y3.81554
G01 X-28.90749 Y3.33868
G01 X-28.91528 Y3.23875
G01 X-28.93317 Y3.16210
G01 X-28.99123 Y3.03243
G01 X-29.03350 Y2.85397
G01 X-29.03863 Y2.81386
G01 X-29.04015 Y2.77101
G01 X-29.03581 Y2.70734
G01 X-29.01925 Y2.61729
G01 X-29.03576 Y2.52311
G01 X-29.04066 Y2.44119
G01 X-29.03875 Y1.91110
G01 X-28.90746 Y1.87394
G01 X-28.90746 Y0.87455
G01 X-28.73990 Y0.74953
G01 X-28.71379 Y0.70642
G01 X-28.70680 Y0.50173
G01 X-28.70705 Y-0.25400
G01 X-27.90784 Y-0.25400
G01 X-29.57055 Y-0.25400
G01 X-29.57551 Y0.22258
G01 X-29.57256 Y0.63950
G01 X-29.56418 Y0.69367
G01 X-29.55303 Y0.73525
G01 X-29.53179 Y0.78986
G01 X-29.50728 Y0.83779
G01 X-29.50868 Y1.57320
G01 X-29.50533 Y1.85595
G01 X-29.63913 Y1.89202
G01 X-29.64045 Y2.45118
G01 X-29.64718 Y2.55976
G01 X-29.65491 Y2.60236
G01 X-29.67396 Y2.66824
G01 X-29.71132 Y2.74500
G01 X-29.74564 Y2.79514
G01 X-29.77947 Y2.83484
G01 X-29.80172 Y2.92905
G01 X-29.78206 Y3.00048
G01 X-29.77429 Y3.07434
G01 X-29.77624 Y3.76304
G01 X-30.00502 Y3.84366
G01 X-30.08074 Y3.87439
G01 X-30.31297 Y3.84950
G01 X-30.37261 Y3.83824
G01 X-30.37507 Y3.60296
G01 X-30.37246 Y3.44546
G01 X-30.36415 Y3.32519
G01 X-30.31470 Y3.09656
G01 X-30.30809 Y3.02712
G01 X-30.31475 Y2.92153
G01 X-30.33052 Y2.84988
G01 X-30.37380 Y2.80906
G01 X-30.37380 Y1.91511
G01 X-30.27413 Y1.87498
G01 X-30.37294 Y1.47523
G01 X-30.37726 Y1.27848
G01 X-30.39473 Y1.18082
G01 X-30.41007 Y1.13741
G01 X-30.43961 Y1.07569
G01 X-30.47373 Y1.00775
G01 X-30.50703 Y0.95423
G01 X-30.50705 Y0.74130
G01 X-30.51183 Y0.68273
G01 X-30.52036 Y0.64016
G01 X-30.55142 Y0.53470
G01 X-30.56791 Y0.44422
G01 X-30.57248 Y0.38956
G01 X-30.57543 Y-0.25400
G01 X-31.44048 Y-0.25400
G01 X-31.43928 Y0.59718
G01 X-31.43090 Y0.75532
G01 X-31.41022 Y0.87521
G01 X-31.43626 Y1.05758
G01 X-31.43842 Y1.09913
G01 X-31.43202 Y1.27765
G01 X-31.41000 Y1.40719
G01 X-31.33204 Y1.75654
G01 X-31.32793 Y1.79738
G01 X-31.17426 Y1.87437
G01 X-31.17350 Y2.41033
G01 X-31.18074 Y2.51076
G01 X-31.19366 Y2.56822
G01 X-31.20880 Y2.61158
G01 X-31.30199 Y2.79938
G01 X-31.29338 Y2.84249
G01 X-31.26415 Y2.92666
G01 X-31.23832 Y2.94543
G01 X-31.24009 Y3.96456
G01 X-31.07850 Y3.92252
G01 X-30.87179 Y3.88348
G01 X-30.68467 Y3.87429
G01 X-30.50695 Y3.87447
G01 X-30.37261 Y3.83824
G01 X-30.50695 Y3.87447
G01 X-30.50703 Y4.59755
G01 X-30.50075 Y4.67845
G01 X-30.52669 Y4.71726
G01 X-30.55811 Y4.78447
G01 X-30.57274 Y4.85473
G01 X-30.57139 Y5.04093
G01 X-30.55828 Y5.09750
G01 X-30.52196 Y5.20169
G01 X-30.51244 Y5.25676
G01 X-30.50720 Y5.33893
G01 X-30.50532 Y6.91881
G01 X-30.33771 Y6.92353
G01 X-30.05178 Y6.92447
G01 X-29.83418 Y6.91817
G01 X-30.05178 Y6.92447
G01 X-30.33771 Y6.92353
G01 X-30.50532 Y6.91881
G01 X-31.13011 Y6.92341
G01 X-31.34109 Y6.91665
G01 X-31.67654 Y5.40791
G01 X-31.70088 Y5.25676
G01 X-31.70502 Y5.09915
G01 X-31.70286 Y5.05760
G01 X-31.66821 Y4.84124
G01 X-31.65709 Y4.79966
G01 X-31.58782 Y4.60797
G01 X-31.50573 Y4.42305
G01 X-31.50608 Y4.09199
G01 X-31.24009 Y3.96456
G01 X-31.50608 Y4.09199
G01 X-31.83989 Y3.91051
G01 X-31.83961 Y3.44653
G01 X-31.82699 Y3.30124
G01 X-31.78081 Y3.09395
G01 X-31.77418 Y3.02839
G01 X-31.77355 Y2.83797
G01 X-31.79785 Y2.79001
G01 X-31.83316 Y2.69545
G01 X-31.87690 Y2.56220
G01 X-31.89473 Y2.48498
G01 X-31.90646 Y2.34292
G01 X-31.90667 Y2.03002
G01 X-31.90646 Y2.34292
G01 X-31.89473 Y2.48498
G01 X-31.87690 Y2.56220
G01 X-31.83316 Y2.69545
G01 X-31.79785 Y2.79001
G01 X-31.77355 Y2.83797
G01 X-31.77418 Y3.02839
G01 X-31.78081 Y3.09395
G01 X-31.82699 Y3.30124
G01 X-31.83961 Y3.44653
G01 X-31.83989 Y3.91051
G01 X-32.25048 Y3.87629
G01 X-32.46336 Y3.88229
G01 X-32.57078 Y3.89334
G01 X-32.64085 Y3.87454
G01 X-32.64149 Y3.29695
G01 X-32.65543 Y3.19761
G01 X-32.69620 Y3.07995
G01 X-32.70628 Y3.00754
G01 X-32.70397 Y2.70815
G01 X-32.69252 Y2.65585
G01 X-32.65472 Y2.54742
G01 X-32.64461 Y2.49204
G01 X-32.64004 Y2.43738
G01 X-32.63913 Y2.00777
G01 X-33.01698 Y1.88435
G01 X-32.90717 Y1.60934
G01 X-32.79460 Y1.27378
G01 X-32.78152 Y1.22522
G01 X-32.77281 Y1.14099
G01 X-32.78226 Y1.05507
G01 X-32.79478 Y1.00879
G01 X-32.72175 Y0.83165
G01 X-32.70855 Y0.77452
G01 X-32.70540 Y0.71829
G01 X-32.70618 Y-0.25400
G01 X-29.57055 Y-0.25400
G01 X-33.64047 Y-0.25400
G01 X-33.63923 Y0.36909
G01 X-33.62853 Y0.48090
G01 X-33.57750 Y0.68268
G01 X-33.57270 Y0.74130
G01 X-33.57268 Y0.95433
G01 X-33.53940 Y1.00775
G01 X-33.48609 Y1.11321
G01 X-33.45960 Y1.18087
G01 X-33.44253 Y1.27864
G01 X-33.43847 Y1.47523
G01 X-33.34060 Y1.87142
G01 X-33.50600 Y1.92115
G01 X-33.50611 Y2.74455
G01 X-33.51609 Y2.81346
G01 X-33.53946 Y2.87434
G01 X-33.52289 Y2.91356
G01 X-33.51052 Y2.95974
G01 X-33.49879 Y3.06850
G01 X-33.46376 Y3.16817
G01 X-33.44705 Y3.24185
G01 X-33.44067 Y3.31208
G01 X-33.43847 Y3.40393
G01 X-33.43933 Y3.86121
G01 X-33.03854 Y3.88800
G01 X-32.84253 Y3.87454
G01 X-32.64085 Y3.87454
G01 X-32.84253 Y3.87454
G01 X-33.03854 Y3.88800
G01 X-33.03768 Y4.45209
G01 X-33.02376 Y4.55143
G01 X-32.98294 Y4.66918
G01 X-32.97517 Y4.70819
G01 X-32.97296 Y4.74454
G01 X-32.97517 Y4.77444
G01 X-32.98845 Y4.83138
G01 X-33.06188 Y5.00870
G01 X-33.04228 Y5.09951
G01 X-33.04009 Y5.14106
G01 X-33.04891 Y5.22491
G01 X-33.07791 Y5.31452
G01 X-33.11093 Y5.37848
G01 X-33.21840 Y5.54078
G01 X-33.34192 Y5.74683
G01 X-33.38340 Y5.82828
G01 X-33.52490 Y6.14744
G01 X-33.70605 Y6.60895
G01 X-33.70725 Y5.31223
G01 X-33.71324 Y5.24205
G01 X-33.72211 Y5.19615
G01 X-33.76254 Y5.07982
G01 X-33.77250 Y5.01104
G01 X-33.77062 Y4.23990
G01 X-33.77555 Y3.88087
G01 X-33.43933 Y3.86121
G01 X-33.77555 Y3.88087
G01 X-34.03915 Y3.85575
G01 X-34.30572 Y3.78412
G01 X-34.63770 Y3.63301
G01 X-34.63646 Y4.06809
G01 X-34.64034 Y4.31282
G01 X-34.63760 Y4.43814
G01 X-34.63356 Y4.49242
G01 X-34.62406 Y4.54734
G01 X-34.58238 Y4.66918
G01 X-34.57232 Y4.74152
G01 X-34.57090 Y5.57319
G01 X-34.57715 Y6.55930
G01 X-34.57585 Y6.91421
G01 X-34.32520 Y6.92353
G01 X-33.78368 Y6.92198
G01 X-33.70605 Y6.60895
G01 X-33.78368 Y6.92198
G01 X-33.70189 Y6.94413
G01 X-33.19706 Y7.03826
G01 X-32.68759 Y7.05335
G01 X-32.57263 Y7.04644
G01 X-32.13593 Y7.05325
G01 X-31.67075 Y6.99569
G01 X-31.34109 Y6.91665
G01 X-31.67654 Y5.40791
G01 X-31.70088 Y5.25676
G01 X-31.70502 Y5.09915
G01 X-31.70286 Y5.05760
G01 X-31.66821 Y4.84124
G01 X-31.65709 Y4.79966
G01 X-31.58782 Y4.60797
G01 X-31.50573 Y4.42305
G01 X-31.50608 Y4.09199
G01 X-31.83989 Y3.91051
G01 X-32.25048 Y3.87629
G01 X-32.46336 Y3.88229
G01 X-32.57078 Y3.89334
G01 X-32.64085 Y3.87454
G01 X-32.84253 Y3.87454
G01 X-33.03854 Y3.88800
G01 X-33.43933 Y3.86121
G01 X-33.43847 Y3.40393
G01 X-33.44067 Y3.31208
G01 X-33.44705 Y3.24185
G01 X-33.46376 Y3.16817
G01 X-33.49879 Y3.06850
G01 X-33.51052 Y2.95974
G01 X-33.52289 Y2.91356
G01 X-33.53946 Y2.87434
G01 X-35.50392 Y2.87152
G01 X-35.30707 Y3.08620
G01 X-35.12741 Y3.25021
G01 X-34.82020 Y3.50114
G01 X-34.63770 Y3.63301
G01 X-34.30572 Y3.78412
G01 X-34.03915 Y3.85575
G01 X-33.77555 Y3.88087
G01 X-33.43933 Y3.86121
G01 X-33.61182 Y3.87360
G01 X-33.77555 Y3.88087
G01 X-33.80834 Y3.87822
G01 X-34.03915 Y3.85575
G01 X-34.30572 Y3.78412
G01 X-34.63770 Y3.63301
G01 X-34.82020 Y3.50114
G01 X-35.12741 Y3.25021
G01 X-35.30707 Y3.08620
G01 X-35.30808 Y3.53004
G01 X-35.30354 Y4.11274
G01 X-35.30575 Y4.59219
G01 X-35.29919 Y4.67853
G01 X-35.33856 Y4.74129
G01 X-35.40455 Y4.87429
G01 X-35.38855 Y4.91307
G01 X-35.37636 Y4.95960
G01 X-35.37110 Y5.03065
G01 X-35.36206 Y5.07990
G01 X-35.32162 Y5.19613
G01 X-35.31271 Y5.24205
G01 X-35.30669 Y5.31223
G01 X-35.30547 Y6.91871
G01 X-35.13628 Y6.92353
G01 X-34.85010 Y6.92447
G01 X-34.57585 Y6.91421
G01 X-34.85010 Y6.92447
G01 X-35.13628 Y6.92353
G01 X-35.30547 Y6.91871
G01 X-35.61776 Y6.92442
G01 X-35.80295 Y6.92048
G01 X-36.34651 Y6.85328
G01 X-36.55141 Y5.43126
G01 X-36.57270 Y5.17116
G01 X-36.57333 Y5.00774
G01 X-36.56848 Y4.87454
G01 X-35.40455 Y4.87429
G01 X-35.38855 Y4.91307
G01 X-35.37636 Y4.95960
G01 X-35.37110 Y5.03065
G01 X-35.36206 Y5.07990
G01 X-35.32162 Y5.19613
G01 X-35.31271 Y5.24205
G01 X-35.30669 Y5.31223
G01 X-35.30547 Y6.91871
G01 X-35.61776 Y6.92442
G01 X-35.82253 Y6.91954
G01 X-36.34651 Y6.85328
G01 X-36.69121 Y6.95658
G01 X-37.16414 Y7.03905
G01 X-37.51496 Y7.05787
G01 X-37.93452 Y7.05691
G01 X-38.24039 Y7.04113
G01 X-38.54628 Y6.99524
G01 X-38.73508 Y6.95396
G01 X-38.67968 Y6.38510
G01 X-38.55270 Y6.05114
G01 X-38.44478 Y5.79349
G01 X-38.33609 Y5.49466
G01 X-38.26218 Y5.27291
G01 X-38.19411 Y5.11371
G01 X-38.14280 Y5.00870
G01 X-38.16777 Y4.93588
G01 X-38.17485 Y4.87423
G01 X-38.17526 Y3.24670
G01 X-38.19256 Y3.17406
G01 X-38.21201 Y3.13228
G01 X-38.24046 Y3.08618
G01 X-38.24097 Y2.79611
G01 X-38.22040 Y2.76360
G01 X-38.15143 Y2.63053
G01 X-38.12804 Y2.56819
G01 X-38.11758 Y2.52225
G01 X-38.10795 Y2.41074
G01 X-38.10820 Y2.00790
G01 X-37.97557 Y1.96337
G01 X-37.86040 Y1.98692
G01 X-37.66111 Y2.00678
G01 X-36.32733 Y2.00772
G01 X-35.73671 Y2.84051
G01 X-35.51192 Y2.86405
G01 X-35.30707 Y3.08620
G01 X-35.51192 Y2.86405
G01 X-35.73671 Y2.84051
G01 X-36.32733 Y2.00772
G01 X-36.37547 Y1.17373
G01 X-36.39685 Y0.94127
G01 X-36.38517 Y0.87455
G01 X-35.00460 Y0.87429
G01 X-34.98865 Y0.91298
G01 X-34.97646 Y0.95954
G01 X-34.97118 Y1.03066
G01 X-34.96213 Y1.07996
G01 X-34.92172 Y1.19619
G01 X-34.91281 Y1.24211
G01 X-34.90676 Y1.31237
G01 X-34.90554 Y2.29862
G01 X-34.73132 Y2.18770
G01 X-34.44433 Y2.02885
G01 X-34.25368 Y1.94089
G01 X-34.17080 Y1.53319
G01 X-34.17293 Y1.43876
G01 X-34.16795 Y1.31630
G01 X-34.16084 Y1.26421
G01 X-34.14784 Y1.20322
G01 X-34.08576 Y1.01333
G01 X-34.06422 Y0.95849
G01 X-34.03973 Y0.91100
G01 X-34.03953 Y0.85189
G01 X-34.07161 Y0.77366
G01 X-34.13938 Y0.57490
G01 X-34.15904 Y0.49980
G01 X-34.16856 Y0.42205
G01 X-34.17367 Y0.24577
G01 X-34.17052 Y0.04234
G01 X-34.17306 Y-0.25400
G01 X-33.64047 Y-0.25400
G01 X-34.90648 Y-0.25400
G01 X-34.90361 Y0.11245
G01 X-34.90582 Y0.59220
G01 X-34.89930 Y0.67833
G01 X-34.93003 Y0.72492
G01 X-35.00460 Y0.87429
G01 X-34.93003 Y0.72492
G01 X-34.89930 Y0.67833
G01 X-34.90582 Y0.59220
G01 X-34.90361 Y0.11245
G01 X-34.90648 Y-0.25400
G01 X-36.37351 Y-0.25400
G01 X-36.37379 Y0.62103
G01 X-36.38517 Y0.87455
G01 X-36.37379 Y0.62103
G01 X-36.37351 Y-0.25400
G01 X-38.04061 Y-0.25400
G01 X-38.04105 Y0.34127
G01 X-38.03587 Y0.43322
G01 X-38.02903 Y0.48517
G01 X-38.01105 Y0.56223
G01 X-37.95446 Y0.73579
G01 X-37.93307 Y0.79083
G01 X-37.90861 Y0.83866
G01 X-37.90853 Y0.89418
G01 X-37.91511 Y0.96109
G01 X-37.92444 Y1.00785
G01 X-37.90892 Y1.10823
G01 X-37.90800 Y1.29609
G01 X-37.91455 Y1.36378
G01 X-37.95933 Y1.56035
G01 X-37.97313 Y1.71183
G01 X-37.97557 Y1.96337
G01 X-38.10820 Y2.00790
G01 X-38.77330 Y2.00792
G01 X-38.77285 Y2.63954
G01 X-38.76444 Y2.69375
G01 X-38.71829 Y2.84363
G01 X-38.72283 Y2.86659
G01 X-38.74587 Y2.94213
G01 X-38.76197 Y2.98115
G01 X-38.81389 Y3.07739
G01 X-38.83993 Y3.11645
G01 X-38.94963 Y3.24935
G01 X-39.04224 Y3.34338
G01 X-39.16378 Y3.21457
G01 X-39.24163 Y3.11574
G01 X-39.26769 Y3.07673
G01 X-39.31956 Y2.98084
G01 X-39.33571 Y2.94188
G01 X-39.35882 Y2.86652
G01 X-39.37320 Y2.76294
G01 X-39.37851 Y2.67437
G01 X-39.42613 Y2.45486
G01 X-39.43942 Y2.30370
G01 X-39.44036 Y1.96332
G01 X-39.29586 Y1.87099
G01 X-39.21755 Y1.84907
G01 X-38.97394 Y1.94086
G01 X-38.77330 Y2.00792
G01 X-38.97394 Y1.94086
G01 X-39.21755 Y1.84907
G01 X-39.16009 Y1.51945
G01 X-39.13002 Y1.37866
G01 X-39.11712 Y1.33627
G01 X-39.09350 Y1.27084
G01 X-39.02913 Y1.11879
G01 X-38.98969 Y1.04534
G01 X-38.96484 Y1.00833
G01 X-38.95098 Y0.94313
G01 X-38.92809 Y0.87315
G01 X-38.85806 Y0.70820
G01 X-38.81107 Y0.61280
G01 X-38.78727 Y0.53640
G01 X-38.77681 Y0.46731
G01 X-38.77485 Y0.40731
G01 X-38.77470 Y-0.25400
G01 X-39.44097 Y-0.25400
G01 X-39.44021 Y0.42088
G01 X-39.45110 Y0.56424
G01 X-39.47244 Y0.66698
G01 X-39.48471 Y0.70630
G01 X-39.62176 Y1.04206
G01 X-39.63708 Y1.09954
G01 X-39.63998 Y1.15512
G01 X-39.62560 Y1.23033
G01 X-39.59987 Y1.28918
G01 X-39.47427 Y1.54297
G01 X-39.29586 Y1.87099
G01 X-39.21755 Y1.84907
G01 X-39.29586 Y1.87099
G01 X-39.44036 Y1.96332
G01 X-39.77383 Y2.00035
G01 X-39.88438 Y2.00683
G01 X-40.04056 Y2.00731
G01 X-40.24043 Y2.02248
G01 X-40.24165 Y2.43685
G01 X-40.24767 Y2.50703
G01 X-40.25659 Y2.55295
G01 X-40.28293 Y2.62748
G01 X-40.33959 Y2.74155
G01 X-40.44666 Y3.00131
G01 X-40.40177 Y3.05003
G01 X-40.34765 Y3.12699
G01 X-40.32006 Y3.18988
G01 X-40.31003 Y3.23141
G01 X-40.30627 Y3.32120
G01 X-40.30850 Y3.83990
G01 X-40.30502 Y4.00703
G01 X-41.03967 Y4.00789
G01 X-41.03926 Y4.37860
G01 X-41.04516 Y4.49204
G01 X-41.05526 Y4.54741
G01 X-41.09674 Y4.66913
G01 X-41.10586 Y4.72158
G01 X-41.10579 Y5.03065
G01 X-41.09674 Y5.07995
G01 X-41.05633 Y5.19618
G01 X-41.04742 Y5.24210
G01 X-41.04137 Y5.31236
G01 X-41.04015 Y6.91871
G01 X-40.87084 Y6.92353
G01 X-40.58133 Y6.92450
G01 X-40.43027 Y6.95028
G01 X-40.08920 Y6.98637
G01 X-39.74816 Y6.98647
G01 X-39.57485 Y6.97474
G01 X-39.08166 Y6.98647
G01 X-38.73508 Y6.95396
G01 X-38.67968 Y6.38510
G01 X-38.90668 Y5.47479
G01 X-38.91077 Y5.27868
G01 X-38.92786 Y5.18089
G01 X-38.95435 Y5.11315
G01 X-39.00785 Y5.00731
G01 X-39.04061 Y4.95430
G01 X-39.04183 Y3.90383
G01 X-39.09913 Y3.86037
G01 X-39.04224 Y3.34338
G01 X-39.09913 Y3.86037
G01 X-39.26703 Y3.90566
G01 X-39.70708 Y4.05211
G01 X-39.70736 Y4.23954
G01 X-39.69789 Y4.41978
G01 X-39.68120 Y4.51208
G01 X-39.62364 Y4.74129
G01 X-39.60322 Y4.80713
G01 X-39.57223 Y4.87830
G01 X-39.57587 Y5.89036
G01 X-39.57056 Y6.35612
G01 X-39.57485 Y6.97474
G01 X-39.74816 Y6.98647
G01 X-40.08920 Y6.98637
G01 X-40.43027 Y6.95028
G01 X-40.58133 Y6.92450
G01 X-40.87084 Y6.92353
G01 X-41.04015 Y6.91871
G01 X-41.22069 Y6.92353
G01 X-41.65948 Y6.92353
G01 X-41.87647 Y6.91655
G01 X-42.15508 Y5.65622
G01 X-42.19110 Y5.52445
G01 X-42.26248 Y5.31106
G01 X-42.29842 Y5.13220
G01 X-42.30649 Y5.00774
G01 X-42.30779 Y3.38112
G01 X-41.63997 Y3.78203
G01 X-41.55209 Y3.81645
G01 X-41.37340 Y3.89727
G01 X-41.03967 Y4.00789
G01 X-41.37340 Y3.89727
G01 X-41.55209 Y3.81645
G01 X-41.63997 Y3.78203
G01 X-42.30779 Y3.38112
G01 X-42.39555 Y3.25775
G01 X-42.57965 Y3.01744
G01 X-42.41571 Y2.87368
G01 X-42.31480 Y2.75712
G01 X-41.63969 Y2.00840
G01 X-40.71038 Y2.00830
G01 X-40.56992 Y1.99939
G01 X-40.43893 Y1.97780
G01 X-40.24043 Y2.02248
G01 X-40.43893 Y1.97780
G01 X-40.44185 Y1.83998
G01 X-40.43949 Y1.32133
G01 X-40.44323 Y1.23149
G01 X-40.45326 Y1.18996
G01 X-40.48084 Y1.12702
G01 X-40.53484 Y1.05009
G01 X-40.57983 Y1.00124
G01 X-40.47279 Y0.74155
G01 X-40.40025 Y0.58847
G01 X-40.38100 Y0.50703
G01 X-40.37378 Y0.41085
G01 X-40.37376 Y-0.25400
G01 X-38.04061 Y-0.25400
G01 X-41.24152 Y-0.25400
G01 X-41.24404 Y0.04369
G01 X-41.23893 Y0.26053
G01 X-41.24066 Y0.71902
G01 X-41.22890 Y0.86312
G01 X-41.33261 Y0.96853
G01 X-41.38897 Y1.04534
G01 X-41.42842 Y1.11879
G01 X-41.49278 Y1.27084
G01 X-41.51640 Y1.33627
G01 X-41.55719 Y1.50414
G01 X-41.59220 Y1.72573
G01 X-41.63946 Y1.95750
G01 X-41.63969 Y2.00840
G01 X-41.63946 Y1.95750
G01 X-41.83891 Y1.60934
G01 X-42.14744 Y0.98849
G01 X-42.10621 Y0.94087
G01 X-41.94741 Y0.78052
G01 X-41.89105 Y0.70373
G01 X-41.85046 Y0.62746
G01 X-41.83423 Y0.58847
G01 X-41.80017 Y0.47455
G01 X-41.79092 Y0.42850
G01 X-41.77322 Y0.23564
G01 X-41.77360 Y-0.25400
G01 X-41.24152 Y-0.25400
G01 X-42.90969 Y-0.25400
G01 X-42.90380 Y0.11369
G01 X-42.90723 Y0.34592
G01 X-42.90284 Y0.47054
G01 X-42.89613 Y0.52243
G01 X-42.88556 Y0.56825
G01 X-42.87032 Y0.61163
G01 X-42.84535 Y0.66426
G01 X-42.79359 Y0.76357
G01 X-42.73763 Y0.83967
G01 X-42.81884 Y1.03607
G01 X-42.82953 Y1.06893
G01 X-42.83865 Y1.12118
G01 X-42.83809 Y1.83998
G01 X-42.84177 Y2.09636
G01 X-42.83949 Y2.99664
G01 X-42.57965 Y3.01744
G01 X-42.83949 Y2.99664
G01 X-43.07657 Y3.00678
G01 X-43.57053 Y3.00802
G01 X-43.56755 Y3.59405
G01 X-43.57378 Y4.28064
G01 X-43.56946 Y4.47045
G01 X-43.56288 Y4.52227
G01 X-43.55239 Y4.56822
G01 X-43.53725 Y4.61157
G01 X-43.39445 Y4.89471
G01 X-43.31396 Y5.07169
G01 X-43.30873 Y5.07644
G01 X-43.30675 Y5.11305
G01 X-43.31475 Y5.26811
G01 X-43.34977 Y5.42989
G01 X-43.77845 Y6.92343
G01 X-44.05739 Y6.92353
G01 X-44.24741 Y6.91827
G01 X-44.23715 Y5.66918
G01 X-44.24053 Y5.31094
G01 X-44.24451 Y5.25668
G01 X-44.25401 Y5.20167
G01 X-44.29034 Y5.09735
G01 X-44.30339 Y5.04088
G01 X-44.30674 Y4.71848
G01 X-44.31579 Y4.66913
G01 X-44.34876 Y4.58071
G01 X-44.36511 Y4.50698
G01 X-44.37334 Y4.34264
G01 X-44.16974 Y3.93492
G01 X-44.03910 Y3.64246
G01 X-43.90817 Y3.27784
G01 X-43.82074 Y3.00688
G01 X-43.63936 Y2.99977
G01 X-43.57053 Y3.00802
G01 X-43.63936 Y2.99977
G01 X-43.63707 Y2.09768
G01 X-43.64073 Y1.84056
G01 X-43.64017 Y1.24686
G01 X-43.64530 Y1.21458
G01 X-43.66367 Y1.15974
G01 X-43.70540 Y1.08626
G01 X-43.70591 Y0.79484
G01 X-43.67284 Y0.74155
G01 X-43.60525 Y0.60465
G01 X-43.58244 Y0.52227
G01 X-43.57276 Y0.41034
G01 X-43.56915 Y-0.25400
G01 X-42.90969 Y-0.25400
G01 X-44.30527 Y-0.25400
G01 X-44.30570 Y0.34127
G01 X-44.30052 Y0.43322
G01 X-44.29369 Y0.48517
G01 X-44.27571 Y0.56223
G01 X-44.21911 Y0.73579
G01 X-44.19773 Y0.79083
G01 X-44.17327 Y0.83866
G01 X-44.17319 Y0.89418
G01 X-44.17977 Y0.96109
G01 X-44.18909 Y1.00785
G01 X-44.17357 Y1.10823
G01 X-44.17266 Y1.29609
G01 X-44.17921 Y1.36378
G01 X-44.22399 Y1.56035
G01 X-44.23778 Y1.71183
G01 X-44.24060 Y1.93977
G01 X-44.23679 Y2.25641
G01 X-44.24269 Y2.89194
G01 X-43.82074 Y3.00688
G01 X-44.24269 Y2.89194
G01 X-44.70578 Y2.87442
G01 X-45.77090 Y2.87442
G01 X-45.66056 Y3.21330
G01 X-45.48762 Y3.69250
G01 X-45.35289 Y4.01739
G01 X-45.30585 Y4.14096
G01 X-45.19323 Y4.47459
G01 X-45.12092 Y4.65173
G01 X-45.10659 Y4.71848
G01 X-45.10728 Y5.03738
G01 X-45.12457 Y5.10746
G01 X-45.15683 Y5.20062
G01 X-45.16625 Y5.25031
G01 X-45.17304 Y5.33578
G01 X-45.17029 Y5.49755
G01 X-45.17438 Y6.23448
G01 X-45.16562 Y6.91817
G01 X-45.38322 Y6.92447
G01 X-45.66940 Y6.92353
G01 X-45.83689 Y6.91881
G01 X-45.83877 Y5.33883
G01 X-45.84400 Y5.25666
G01 X-45.85350 Y5.20167
G01 X-45.88988 Y5.09740
G01 X-45.90296 Y5.04088
G01 X-45.90430 Y4.85473
G01 X-45.88970 Y4.78457
G01 X-45.85830 Y4.71744
G01 X-45.83232 Y4.67853
G01 X-45.83859 Y4.59758
G01 X-45.83666 Y4.11274
G01 X-45.84624 Y2.85529
G01 X-45.77090 Y2.87442
G01 X-45.84624 Y2.85529
G01 X-46.16447 Y2.73576
G01 X-46.36229 Y2.66723
G01 X-46.80516 Y2.52428
G01 X-47.36653 Y2.34749
G01 X-48.54357 Y1.96736
G01 X-51.22479 Y1.11557
G01 X-51.40922 Y1.04762
G01 X-52.17490 Y0.78494
G01 X-53.24544 Y0.42743
G01 X-53.86822 Y-0.25400
G01 X-44.30527 Y-0.25400
G04 P0 ( dwell for no time -- G64 should not smooth over this point )
G00 Z10.00000 ( retract )

G00 X-55.50718 Y39.08793 ( rapid move to begin. )
G01 F30.00000
( Mill infeed pass 1/1 )
G01 Z-0.10000
G04 P0 ( dwell for no time -- G64 should not smooth over this point )
G01 F360.00000
G01 X-55.50718 Y39.08793
G01 X-55.52686 Y38.91857
G01 X-55.53860 Y38.86030
G01 X-55.58170 Y38.74348
G01 X-55.62691 Y38.64867
G01 X-55.68658 Y38.56187
G01 X-55.76621 Y38.46614
G01 X-55.81078 Y38.42685
G01 X-55.93644 Y38.33299
G01 X-55.95998 Y38.31941
G01 X-56.10405 Y38.25751
G01 X-56.16037 Y38.23853
G01 X-56.28310 Y38.21745
G01 X-56.38797 Y38.20917
G01 X-56.49285 Y38.21742
G01 X-56.61561 Y38.23853
G01 X-56.64662 Y38.24818
G01 X-56.81596 Y38.31938
G01 X-56.83954 Y38.33302
G01 X-56.98587 Y38.44404
G01 X-57.00977 Y38.46614
G01 X-57.08937 Y38.56187
G01 X-57.14906 Y38.64867
G01 X-57.19425 Y38.74348
G01 X-57.23735 Y38.86030
G01 X-57.24909 Y38.91857
G01 X-57.26880 Y39.08793
G01 X-57.24911 Y39.25727
G01 X-57.22902 Y39.37399
G01 X-57.27416 Y39.43391
G01 X-63.63736 Y45.79711
G01 X-63.66744 Y45.82300
G01 X-63.73063 Y45.83085
G01 X-64.75806 Y45.83085
G01 X-64.86327 Y45.85264
G01 X-64.88504 Y45.95787
G01 X-64.88504 Y47.45797
G01 X-64.86327 Y47.56320
G01 X-64.75806 Y47.58499
G01 X-63.25791 Y47.58499
G01 X-63.15271 Y47.56320
G01 X-63.13094 Y47.45797
G01 X-63.13094 Y46.43056
G01 X-63.12306 Y46.36734
G01 X-63.09718 Y46.33730
G01 X-56.73397 Y39.97409
G01 X-56.67700 Y39.93063
G01 X-56.62341 Y39.93596
G01 X-56.49285 Y39.95839
G01 X-56.38800 Y39.96667
G01 X-56.28310 Y39.95839
G01 X-56.16037 Y39.93728
G01 X-56.10405 Y39.91834
G01 X-55.94772 Y39.85077
G01 X-55.81078 Y39.74899
G01 X-55.76621 Y39.70970
G01 X-55.68658 Y39.61394
G01 X-55.62691 Y39.52718
G01 X-55.58170 Y39.43233
G01 X-55.53862 Y39.31554
G01 X-55.53144 Y39.28379
G01 X-55.50718 Y39.08793
G04 P0 ( dwell for no time -- G64 should not smooth over this point )
G00 Z10.00000 ( retract )

G00 X-27.56718 Y41.62793 ( rapid move to begin. )
G01 F30.00000
( Mill infeed pass 1/1 )
G01 Z-0.10000
G04 P0 ( dwell for no time -- G64 should not smooth over this point )
G01 F360.00000
G01 X-27.56718 Y41.62793
G01 X-27.59144 Y41.43202
G01 X-27.59860 Y41.40030
G01 X-27.64170 Y41.28348
G01 X-27.68691 Y41.18867
G01 X-27.74658 Y41.10187
G01 X-27.82621 Y41.00614
G01 X-27.87078 Y40.96685
G01 X-28.00769 Y40.86504
G01 X-28.16405 Y40.79751
G01 X-28.22037 Y40.77853
G01 X-28.34310 Y40.75745
G01 X-28.44797 Y40.74917
G01 X-28.55285 Y40.75742
G01 X-28.67561 Y40.77853
G01 X-28.73190 Y40.79748
G01 X-28.88828 Y40.86504
G01 X-29.02516 Y40.96685
G01 X-29.06977 Y41.00614
G01 X-29.14937 Y41.10187
G01 X-29.20906 Y41.18867
G01 X-29.25425 Y41.28348
G01 X-29.29735 Y41.40030
G01 X-29.30454 Y41.43202
G01 X-29.32880 Y41.62793
G01 X-29.30454 Y41.82379
G01 X-29.29735 Y41.85554
G01 X-29.25427 Y41.97233
G01 X-29.20906 Y42.06718
G01 X-29.14940 Y42.15397
G01 X-29.06977 Y42.24970
G01 X-29.02516 Y42.28899
G01 X-28.88826 Y42.39077
G01 X-28.73190 Y42.45834
G01 X-28.67561 Y42.47728
G01 X-28.55285 Y42.49839
G01 X-28.44797 Y42.50667
G01 X-28.34310 Y42.49839
G01 X-28.22037 Y42.47728
G01 X-28.16405 Y42.45834
G01 X-28.00772 Y42.39077
G01 X-27.87078 Y42.28899
G01 X-27.82621 Y42.24970
G01 X-27.74658 Y42.15394
G01 X-27.68691 Y42.06718
G01 X-27.64170 Y41.97233
G01 X-27.59862 Y41.85554
G01 X-27.59144 Y41.82379
G01 X-27.56718 Y41.62793
G04 P0 ( dwell for no time -- G64 should not smooth over this point )
G00 Z10.00000 ( retract )

G00 X-7.25091 Y43.41785 ( rapid move to begin. )
G01 F30.00000
( Mill infeed pass 1/1 )
G01 Z-0.10000
G04 P0 ( dwell for no time -- G64 should not smooth over this point )
G01 F360.00000
G01 X-7.25091 Y43.41785
G01 X-7.25091 Y44.91799
G01 X-7.27271 Y45.02318
G01 X-7.37794 Y45.04497
G01 X-8.87806 Y45.04497
G01 X-8.98327 Y45.02320
G01 X-9.00506 Y44.91799
G01 X-9.00506 Y43.41785
G01 X-8.98327 Y43.31264
G01 X-8.87806 Y43.29085
G01 X-7.37794 Y43.29085
G01 X-7.27268 Y43.31264
G01 X-7.25091 Y43.41785
G04 P0 ( dwell for no time -- G64 should not smooth over this point )
G00 Z10.00000 ( retract )

G00 X-7.24715 Y41.62793 ( rapid move to begin. )
G01 F30.00000
( Mill infeed pass 1/1 )
G01 Z-0.10000
G04 P0 ( dwell for no time -- G64 should not smooth over this point )
G01 F360.00000
G01 X-7.24715 Y41.62793
G01 X-7.27144 Y41.43202
G01 X-7.27860 Y41.40030
G01 X-7.32170 Y41.28348
G01 X-7.36691 Y41.18867
G01 X-7.42658 Y41.10187
G01 X-7.50621 Y41.00614
G01 X-7.55079 Y40.96685
G01 X-7.68769 Y40.86504
G01 X-7.84405 Y40.79751
G01 X-7.90037 Y40.77853
G01 X-8.02310 Y40.75745
G01 X-8.12800 Y40.74917
G01 X-8.23285 Y40.75742
G01 X-8.35561 Y40.77853
G01 X-8.41190 Y40.79748
G01 X-8.56828 Y40.86504
G01 X-8.70516 Y40.96685
G01 X-8.74977 Y41.00614
G01 X-8.82937 Y41.10187
G01 X-8.88906 Y41.18867
G01 X-8.93425 Y41.28348
G01 X-8.97735 Y41.40030
G01 X-8.98454 Y41.43202
G01 X-9.00880 Y41.62793
G01 X-8.98454 Y41.82379
G01 X-8.97735 Y41.85554
G01 X-8.93427 Y41.97233
G01 X-8.88906 Y42.06718
G01 X-8.82940 Y42.15397
G01 X-8.74977 Y42.24970
G01 X-8.70516 Y42.28899
G01 X-8.56826 Y42.39077
G01 X-8.41190 Y42.45834
G01 X-8.35561 Y42.47728
G01 X-8.23285 Y42.49839
G01 X-8.12800 Y42.50667
G01 X-8.02310 Y42.49839
G01 X-7.90037 Y42.47728
G01 X-7.84405 Y42.45834
G01 X-7.68772 Y42.39077
G01 X-7.55079 Y42.28899
G01 X-7.50621 Y42.24970
G01 X-7.42658 Y42.15394
G01 X-7.36691 Y42.06718
G01 X-7.32170 Y41.97233
G01 X-7.27862 Y41.85554
G01 X-7.27144 Y41.82379
G01 X-7.24715 Y41.62793

G04 P0 ( dwell for no time -- G64 should not smooth over this point )
G00 Z50.000000 ( retract )

M5 ( Spindle off. )
G04 P1.000000
M9 ( Coolant off. )
M2 ( Program end. )

