( pcb2gcode 2.0.0 )
( Software-independent Gcode )

G94 ( Millimeters per minute feed rate. )
G21 ( Units == Millimeters. )

G90 ( Absolute coordinates. )
G00 S10000 ( RPM spindle speed. )
G01 F360.00000 ( Feedrate. )


G00 Z50.00000 (Retract to tool change height)
T0
M5      (Spindle stop.)
G04 P1.00000 (Wait for spindle to stop)
(MSG, Change tool bit to mill diameter 0.50800mm)
M6      (Tool change.)
M0      (Temporary machine stop.)
M3 ( Spindle on clockwise. )
G04 P1.00000 (Wait for spindle to get up to speed)
G04 P0 ( dwell for no time -- G64 should not smooth over this point )
G00 Z10.00000 ( retract )

G00 X-18.59072 Y-0.25400 ( rapid move to begin. )
G01 F30.00000
( Mill infeed pass 1/1 )
G01 Z-0.10000
G04 P0 ( dwell for no time -- G64 should not smooth over this point )
G01 F360.00000
G01 X-18.59072 Y-0.25400
G01 X-19.40801 Y0.60797
G01 X-20.20761 Y1.40754
G01 X-20.83514 Y2.00777
G01 X-21.40801 Y2.60795
G01 X-22.20785 Y3.40779
G01 X-22.69094 Y3.86845
G01 X-22.84661 Y4.00789
G01 X-22.99777 Y4.17670
G01 X-23.40800 Y4.60794
G01 X-24.20793 Y5.40791
G01 X-24.51219 Y5.69770
G01 X-24.85801 Y5.99222
G01 X-25.33195 Y6.34048
G01 X-25.80589 Y6.61764
G01 X-26.22575 Y6.80880
G01 X-26.64567 Y6.94413
G01 X-27.17137 Y7.04045
G01 X-27.65996 Y7.05335
G01 X-27.70152 Y7.05117
G01 X-28.03586 Y7.01568
G01 X-28.37017 Y6.94413
G01 X-28.44292 Y6.92450
G01 X-28.70759 Y6.92450
G01 X-28.90454 Y6.91873
G01 X-28.70759 Y6.92450
G01 X-28.44292 Y6.92450
G01 X-28.23914 Y6.19222
G01 X-28.15217 Y5.90121
G01 X-28.01358 Y5.41180
G01 X-28.00251 Y5.37017
G01 X-27.97807 Y5.22889
G01 X-27.97706 Y5.07822
G01 X-27.98547 Y5.07068
G01 X-28.04109 Y4.94185
G01 X-28.19738 Y4.63052
G01 X-28.22080 Y4.56819
G01 X-28.23129 Y4.52219
G01 X-28.23789 Y4.47040
G01 X-28.24216 Y4.34525
G01 X-28.24056 Y3.97812
G01 X-28.47767 Y3.87535
G01 X-28.44114 Y3.78831
G01 X-28.37050 Y3.59679
G01 X-28.26680 Y3.28691
G01 X-28.19296 Y3.10792
G01 X-28.17785 Y3.05349
G01 X-28.16715 Y2.94688
G01 X-28.15145 Y2.89715
G01 X-28.11447 Y2.80797
G01 X-28.14206 Y2.74130
G01 X-28.20088 Y2.62034
G01 X-28.21719 Y2.57787
G01 X-28.23106 Y2.52377
G01 X-28.23713 Y2.47574
G01 X-28.24216 Y2.34523
G01 X-28.23906 Y1.97869
G01 X-28.48501 Y1.87168
G01 X-28.43929 Y1.72829
G01 X-28.30810 Y1.47663
G01 X-28.19027 Y1.23279
G01 X-28.17561 Y1.16553
G01 X-28.17442 Y1.00775
G01 X-28.17023 Y0.96213
G01 X-28.15145 Y0.89715
G01 X-28.07332 Y0.70874
G01 X-28.03942 Y0.64224
G01 X-27.90673 Y0.43972
G01 X-27.90784 Y-0.25400
G01 X-28.70705 Y-0.25400
G01 X-28.70680 Y0.50173
G01 X-28.71379 Y0.70642
G01 X-28.73990 Y0.74953
G01 X-28.90746 Y0.87455
G01 X-28.90746 Y1.87455
G01 X-29.04096 Y1.91074
G01 X-29.03992 Y2.44084
G01 X-29.03588 Y2.52748
G01 X-29.01925 Y2.61729
G01 X-29.03581 Y2.70734
G01 X-29.04015 Y2.77101
G01 X-29.03863 Y2.81386
G01 X-29.03350 Y2.85397
G01 X-28.99123 Y3.03243
G01 X-28.93317 Y3.16210
G01 X-28.91528 Y3.23875
G01 X-28.90878 Y3.31315
G01 X-28.90677 Y3.40421
G01 X-28.90830 Y3.81485
G01 X-28.80644 Y3.87076
G01 X-29.04180 Y4.34256
G01 X-29.03946 Y4.43697
G01 X-29.03309 Y4.50723
G01 X-29.02395 Y4.55325
G01 X-28.99242 Y4.64106
G01 X-28.97759 Y4.69565
G01 X-28.97353 Y4.74132
G01 X-28.97414 Y5.00758
G01 X-28.96997 Y5.05333
G01 X-28.92301 Y5.20151
G01 X-28.91328 Y5.25638
G01 X-28.90898 Y5.31084
G01 X-28.90380 Y6.14845
G01 X-28.90454 Y6.91873
G01 X-29.27337 Y6.91960
G01 X-29.36949 Y6.91413
G01 X-29.83418 Y6.91817
G01 X-30.04055 Y6.92450
G01 X-30.30703 Y6.92450
G01 X-30.51353 Y6.91817
G01 X-31.13011 Y6.92341
G01 X-31.34109 Y6.91665
G01 X-31.67654 Y5.40791
G01 X-31.70088 Y5.25676
G01 X-31.70502 Y5.09915
G01 X-31.70286 Y5.05760
G01 X-31.66821 Y4.84124
G01 X-31.65709 Y4.79966
G01 X-31.58782 Y4.60797
G01 X-31.50677 Y4.42547
G01 X-31.50677 Y4.09161
G01 X-31.50677 Y4.42547
G01 X-31.58782 Y4.60797
G01 X-31.65709 Y4.79966
G01 X-31.66821 Y4.84124
G01 X-31.70286 Y5.05760
G01 X-31.70502 Y5.09915
G01 X-31.70088 Y5.25676
G01 X-31.67654 Y5.40791
G01 X-31.34109 Y6.91665
G01 X-31.48985 Y6.95660
G01 X-31.96379 Y7.03918
G01 X-32.00278 Y7.04299
G01 X-32.28612 Y7.05780
G01 X-32.56943 Y7.04672
G01 X-32.99168 Y7.05335
G01 X-33.36757 Y7.01568
G01 X-33.70189 Y6.94413
G01 X-33.78368 Y6.92198
G01 X-34.32520 Y6.92353
G01 X-34.57585 Y6.91421
G01 X-34.83889 Y6.92450
G01 X-35.10559 Y6.92450
G01 X-35.30549 Y6.91855
G01 X-35.50539 Y6.92450
G01 X-35.80295 Y6.92048
G01 X-36.34651 Y6.85328
G01 X-36.69121 Y6.95658
G01 X-37.16414 Y7.03905
G01 X-37.51496 Y7.05787
G01 X-37.93452 Y7.05691
G01 X-38.24039 Y7.04113
G01 X-38.54628 Y6.99524
G01 X-38.73741 Y6.95335
G01 X-39.06858 Y6.98685
G01 X-39.39972 Y6.98647
G01 X-39.57302 Y6.97474
G01 X-40.06621 Y6.98647
G01 X-40.10777 Y6.98431
G01 X-40.58308 Y6.92450
G01 X-40.84015 Y6.92450
G01 X-41.03881 Y6.91863
G01 X-41.22069 Y6.92353
G01 X-41.65948 Y6.92353
G01 X-41.87647 Y6.91655
G01 X-41.65948 Y6.92353
G01 X-41.22069 Y6.92353
G01 X-41.03881 Y6.91863
G01 X-40.84015 Y6.92450
G01 X-40.58308 Y6.92450
G01 X-40.30868 Y5.54939
G01 X-40.30447 Y5.35081
G01 X-40.29138 Y5.24452
G01 X-40.27371 Y5.17439
G01 X-40.21780 Y5.00774
G01 X-40.19588 Y4.95277
G01 X-40.17376 Y4.91119
G01 X-40.17376 Y4.85173
G01 X-40.22679 Y4.71716
G01 X-40.27322 Y4.57421
G01 X-40.29291 Y4.50007
G01 X-40.30279 Y4.42234
G01 X-40.30828 Y4.24576
G01 X-40.30500 Y4.00769
G01 X-40.30850 Y3.83990
G01 X-40.30647 Y3.27464
G01 X-40.31242 Y3.21869
G01 X-40.33149 Y3.15958
G01 X-40.37020 Y3.09098
G01 X-40.39527 Y3.05694
G01 X-40.44714 Y3.00088
G01 X-40.34064 Y2.74155
G01 X-40.28392 Y2.62748
G01 X-40.25730 Y2.55326
G01 X-40.24815 Y2.50723
G01 X-40.24178 Y2.43698
G01 X-40.24043 Y2.02248
G01 X-40.43893 Y1.97780
G01 X-40.44185 Y1.83998
G01 X-40.43970 Y1.27478
G01 X-40.44561 Y1.21877
G01 X-40.46466 Y1.15966
G01 X-40.50332 Y1.09103
G01 X-40.52837 Y1.05697
G01 X-40.58031 Y1.00081
G01 X-40.47383 Y0.74155
G01 X-40.42293 Y0.64056
G01 X-40.40104 Y0.58847
G01 X-40.38145 Y0.50721
G01 X-40.37513 Y0.43698
G01 X-40.37292 Y0.34564
G01 X-40.37376 Y-0.25400
G01 X-38.04143 Y-0.25400
G01 X-38.04209 Y0.32609
G01 X-38.03663 Y0.43279
G01 X-38.02951 Y0.48489
G01 X-38.01113 Y0.56223
G01 X-37.95281 Y0.74049
G01 X-37.93663 Y0.78184
G01 X-37.90787 Y0.83830
G01 X-37.91298 Y0.94661
G01 X-37.92444 Y1.00795
G01 X-37.91496 Y1.05476
G01 X-37.90823 Y1.11953
G01 X-37.90709 Y1.27236
G01 X-37.91245 Y1.34650
G01 X-37.92146 Y1.39860
G01 X-37.96020 Y1.56070
G01 X-37.97325 Y1.71196
G01 X-37.97557 Y1.96337
G01 X-38.10820 Y2.00790
G01 X-38.10800 Y2.40833
G01 X-38.11814 Y2.52255
G01 X-38.13236 Y2.58135
G01 X-38.15908 Y2.64447
G01 X-38.20787 Y2.74155
G01 X-38.24097 Y2.79491
G01 X-38.24046 Y3.08618
G01 X-38.19881 Y3.15951
G01 X-38.18037 Y3.21442
G01 X-38.17526 Y3.24670
G01 X-38.17440 Y4.87423
G01 X-38.16718 Y4.93547
G01 X-38.14178 Y5.00870
G01 X-38.19187 Y5.10863
G01 X-38.26137 Y5.27294
G01 X-38.37620 Y5.60885
G01 X-38.44110 Y5.78467
G01 X-38.55095 Y6.04939
G01 X-38.67930 Y6.39115
G01 X-38.73741 Y6.95335
G01 X-38.67930 Y6.39115
G01 X-38.90714 Y5.47289
G01 X-38.91077 Y5.27868
G01 X-38.92786 Y5.18089
G01 X-38.95435 Y5.11315
G01 X-39.00762 Y5.00774
G01 X-39.04082 Y4.95442
G01 X-39.04183 Y3.90383
G01 X-39.09827 Y3.86105
G01 X-39.04252 Y3.34442
G01 X-39.16380 Y3.21480
G01 X-39.24178 Y3.11615
G01 X-39.26789 Y3.07724
G01 X-39.32004 Y2.98133
G01 X-39.33624 Y2.94241
G01 X-39.35959 Y2.86685
G01 X-39.36741 Y2.82786
G01 X-39.38135 Y2.65367
G01 X-39.42575 Y2.45504
G01 X-39.43830 Y2.34927
G01 X-39.44071 Y1.96334
G01 X-39.29456 Y1.87145
G01 X-39.21597 Y1.85019
G01 X-39.29456 Y1.87145
G01 X-39.50790 Y1.47592
G01 X-39.59987 Y1.28918
G01 X-39.62568 Y1.23038
G01 X-39.64021 Y1.15517
G01 X-39.63741 Y1.09949
G01 X-39.62220 Y1.04178
G01 X-39.49022 Y0.71981
G01 X-39.46444 Y0.63284
G01 X-39.45588 Y0.58986
G01 X-39.44346 Y0.48702
G01 X-39.44071 Y0.40820
G01 X-39.44038 Y-0.25400
G01 X-38.77775 Y-0.25400
G01 X-38.77249 Y0.18037
G01 X-38.77478 Y0.40978
G01 X-38.77653 Y0.46713
G01 X-38.78669 Y0.53624
G01 X-38.81021 Y0.61293
G01 X-38.87048 Y0.73508
G01 X-38.93612 Y0.89583
G01 X-38.95372 Y0.95565
G01 X-38.96406 Y1.00790
G01 X-38.98925 Y1.04551
G01 X-39.02847 Y1.11882
G01 X-39.09258 Y1.27086
G01 X-39.11603 Y1.33604
G01 X-39.15496 Y1.49355
G01 X-39.21597 Y1.85019
G01 X-38.96159 Y1.94473
G01 X-38.77427 Y2.00790
G01 X-38.77475 Y2.56601
G01 X-38.77168 Y2.65031
G01 X-38.75250 Y2.74056
G01 X-38.71849 Y2.84470
G01 X-38.74524 Y2.94190
G01 X-38.79464 Y3.04528
G01 X-38.87142 Y3.15890
G01 X-38.90343 Y3.19799
G01 X-39.04252 Y3.34442
G01 X-39.09827 Y3.86105
G01 X-39.27302 Y3.90766
G01 X-39.70619 Y4.05224
G01 X-39.70706 Y4.31155
G01 X-39.70409 Y4.36745
G01 X-39.69029 Y4.47561
G01 X-39.61061 Y4.78622
G01 X-39.57394 Y4.87677
G01 X-39.57526 Y5.67411
G01 X-39.57201 Y5.89036
G01 X-39.57731 Y6.35612
G01 X-39.57302 Y6.97474
G01 X-40.06621 Y6.98647
G01 X-40.10777 Y6.98431
G01 X-40.58308 Y6.92450
G01 X-40.84015 Y6.92450
G01 X-41.03881 Y6.91863
G01 X-41.03533 Y6.22356
G01 X-41.04231 Y5.66956
G01 X-41.04015 Y5.33880
G01 X-41.04673 Y5.24688
G01 X-41.05598 Y5.19760
G01 X-41.09674 Y5.07995
G01 X-41.10685 Y5.00774
G01 X-41.10685 Y4.74129
G01 X-41.10266 Y4.69572
G01 X-41.05572 Y4.54751
G01 X-41.04597 Y4.49263
G01 X-41.04168 Y4.43814
G01 X-41.03967 Y4.00789
G01 X-41.37180 Y3.89816
G01 X-41.55209 Y3.81645
G01 X-41.63997 Y3.78203
G01 X-42.30779 Y3.38112
G01 X-42.30649 Y5.00774
G01 X-42.29842 Y5.13220
G01 X-42.26248 Y5.31106
G01 X-42.19110 Y5.52445
G01 X-42.15508 Y5.65622
G01 X-41.87647 Y6.91655
G01 X-41.97736 Y6.94413
G01 X-42.48219 Y7.03826
G01 X-42.99166 Y7.05335
G01 X-43.36755 Y7.01568
G01 X-43.70187 Y6.94413
G01 X-43.77461 Y6.92450
G01 X-44.03928 Y6.92450
G01 X-44.23623 Y6.91873
G01 X-44.60507 Y6.91960
G01 X-44.70103 Y6.91413
G01 X-45.16562 Y6.91817
G01 X-45.37202 Y6.92450
G01 X-45.63872 Y6.92450
G01 X-45.84510 Y6.91817
G01 X-45.63872 Y6.92450
G01 X-45.37202 Y6.92450
G01 X-45.16562 Y6.91817
G01 X-45.17438 Y6.23448
G01 X-45.17194 Y5.34076
G01 X-45.16633 Y5.25640
G01 X-45.15663 Y5.20159
G01 X-45.10959 Y5.05330
G01 X-45.10537 Y5.00774
G01 X-45.10499 Y4.74129
G01 X-45.10908 Y4.69567
G01 X-45.12391 Y4.64119
G01 X-45.20522 Y4.44152
G01 X-45.30758 Y4.13923
G01 X-45.37199 Y3.96464
G01 X-45.48269 Y3.69743
G01 X-45.63872 Y3.26951
G01 X-45.76953 Y2.87442
G01 X-45.84497 Y2.85575
G01 X-45.83547 Y3.58480
G01 X-45.83943 Y4.57596
G01 X-45.83232 Y4.67853
G01 X-45.87354 Y4.74561
G01 X-45.89518 Y4.80253
G01 X-45.90430 Y4.85473
G01 X-45.90527 Y5.00733
G01 X-45.89518 Y5.07990
G01 X-45.85373 Y5.20068
G01 X-45.83946 Y5.30603
G01 X-45.83636 Y6.23585
G01 X-45.84510 Y6.91817
G01 X-46.46181 Y6.92341
G01 X-46.72828 Y6.91269
G01 X-47.01565 Y6.87756
G01 X-47.29538 Y6.82150
G01 X-47.61664 Y6.72879
G01 X-48.04664 Y6.56201
G01 X-48.47661 Y6.34086
G01 X-48.91689 Y6.06339
G01 X-49.33650 Y5.74678
G01 X-49.85657 Y5.28660
G01 X-50.41819 Y4.70197
G01 X-50.96096 Y4.05704
G01 X-51.50373 Y3.32788
G01 X-52.04651 Y2.51450
G01 X-52.63083 Y1.54490
G01 X-53.24399 Y0.43020
G01 X-53.75681 Y-0.11923
G01 X-53.87452 Y-0.25400
G01 X-72.38997 Y-0.25400
G01 X-72.38997 Y50.00993
G01 X0.25400 Y50.00993
G01 X0.25400 Y-0.25400
G01 X-53.87452 Y-0.25400
G01 X-53.75681 Y-0.11923
G01 X-53.24399 Y0.43020
G01 X-52.04351 Y0.82934
G01 X-51.51801 Y1.00790
G01 X-51.27013 Y1.09875
G01 X-46.36229 Y2.66723
G01 X-46.16447 Y2.73576
G01 X-45.84497 Y2.85575
G01 X-45.76953 Y2.87442
G01 X-44.66577 Y2.87556
G01 X-44.24269 Y2.89187
G01 X-43.82074 Y3.00688
G01 X-43.90817 Y3.27784
G01 X-44.03910 Y3.64246
G01 X-44.16974 Y3.93492
G01 X-44.37337 Y4.34249
G01 X-44.37101 Y4.43687
G01 X-44.36466 Y4.50718
G01 X-44.35551 Y4.55320
G01 X-44.32399 Y4.64099
G01 X-44.30916 Y4.69562
G01 X-44.30509 Y4.74129
G01 X-44.30570 Y5.00758
G01 X-44.30156 Y5.05330
G01 X-44.25465 Y5.20154
G01 X-44.24492 Y5.25640
G01 X-44.24065 Y5.31086
G01 X-44.23547 Y6.14853
G01 X-44.23623 Y6.91873
G01 X-44.03928 Y6.92450
G01 X-43.77461 Y6.92450
G01 X-43.57065 Y6.19181
G01 X-43.48376 Y5.90113
G01 X-43.34513 Y5.41172
G01 X-43.33405 Y5.37009
G01 X-43.30964 Y5.22887
G01 X-43.30865 Y5.07810
G01 X-43.31691 Y5.07068
G01 X-43.37279 Y4.94132
G01 X-43.52897 Y4.63050
G01 X-43.55239 Y4.56822
G01 X-43.56288 Y4.52227
G01 X-43.56946 Y4.47045
G01 X-43.57373 Y4.34543
G01 X-43.56755 Y3.59405
G01 X-43.57053 Y3.00802
G01 X-43.63936 Y2.99977
G01 X-43.63707 Y2.09768
G01 X-43.64073 Y1.84056
G01 X-43.64017 Y1.24686
G01 X-43.64530 Y1.21458
G01 X-43.66367 Y1.15974
G01 X-43.70540 Y1.08623
G01 X-43.70593 Y0.79484
G01 X-43.65988 Y0.71758
G01 X-43.60608 Y0.60457
G01 X-43.59051 Y0.55860
G01 X-43.57616 Y0.47064
G01 X-43.57281 Y0.40792
G01 X-43.56915 Y-0.25400
G01 X-42.90505 Y-0.25400
G01 X-42.90723 Y0.34592
G01 X-42.90362 Y0.45822
G01 X-42.89549 Y0.52461
G01 X-42.87281 Y0.60457
G01 X-42.84523 Y0.66418
G01 X-42.79433 Y0.76459
G01 X-42.73878 Y0.84000
G01 X-42.81924 Y1.03574
G01 X-42.82991 Y1.06878
G01 X-42.83895 Y1.12118
G01 X-42.84370 Y2.99629
G01 X-42.57965 Y3.01744
G01 X-42.39555 Y3.25775
G01 X-42.30779 Y3.38112
G01 X-41.63997 Y3.78203
G01 X-41.55209 Y3.81645
G01 X-41.37180 Y3.89816
G01 X-41.03967 Y4.00789
G01 X-40.04056 Y4.00863
G01 X-39.83944 Y4.02567
G01 X-39.70619 Y4.05224
G01 X-39.27302 Y3.90766
G01 X-39.09827 Y3.86105
G01 X-39.04183 Y3.90383
G01 X-38.65999 Y3.98709
G01 X-38.46060 Y4.00693
G01 X-37.64128 Y4.00787
G01 X-37.45713 Y3.99481
G01 X-37.09449 Y3.95458
G01 X-36.87006 Y3.94259
G01 X-36.57331 Y3.93997
G01 X-36.57328 Y4.73075
G01 X-36.56848 Y4.87454
G01 X-35.40519 Y4.87403
G01 X-35.39333 Y4.90070
G01 X-35.37659 Y4.95915
G01 X-35.37125 Y5.03065
G01 X-35.36249 Y5.08008
G01 X-35.32162 Y5.19613
G01 X-35.31271 Y5.24205
G01 X-35.30592 Y5.31744
G01 X-35.30549 Y6.91855
G01 X-35.30709 Y5.29115
G01 X-35.32162 Y5.19613
G01 X-35.36249 Y5.08008
G01 X-35.38007 Y4.94243
G01 X-35.40519 Y4.87403
G01 X-35.34113 Y4.74490
G01 X-35.29968 Y4.67832
G01 X-35.30630 Y4.57596
G01 X-35.30229 Y3.09133
G01 X-35.51250 Y2.86395
G01 X-35.49787 Y2.87749
G01 X-33.54014 Y2.87406
G01 X-33.51431 Y2.94272
G01 X-33.49915 Y3.06873
G01 X-33.45619 Y3.19583
G01 X-33.44118 Y3.29095
G01 X-33.44034 Y3.86108
G01 X-33.51464 Y3.86870
G01 X-33.76877 Y3.88115
G01 X-33.77446 Y4.37579
G01 X-33.77258 Y5.00758
G01 X-33.76536 Y5.06852
G01 X-33.72244 Y5.19745
G01 X-33.70809 Y5.29674
G01 X-33.70476 Y5.47312
G01 X-33.70819 Y5.66928
G01 X-33.70120 Y6.22089
G01 X-33.70308 Y6.59704
G01 X-33.78368 Y6.92198
G01 X-33.70308 Y6.59704
G01 X-33.44735 Y5.96819
G01 X-33.42645 Y5.92130
G01 X-33.26798 Y5.62150
G01 X-33.10288 Y5.36456
G01 X-33.08170 Y5.32300
G01 X-33.06046 Y5.26839
G01 X-33.04931 Y5.22681
G01 X-33.04093 Y5.17263
G01 X-33.04228 Y5.09951
G01 X-33.06188 Y5.00870
G01 X-32.98845 Y4.83138
G01 X-32.97517 Y4.77444
G01 X-32.97296 Y4.74454
G01 X-32.97517 Y4.70819
G01 X-32.98294 Y4.66918
G01 X-33.02376 Y4.55143
G01 X-33.03768 Y4.45209
G01 X-33.03854 Y3.88800
G01 X-32.84253 Y3.87454
G01 X-32.63961 Y3.87454
G01 X-32.64149 Y3.29695
G01 X-32.65543 Y3.19761
G01 X-32.69620 Y3.07995
G01 X-32.70524 Y3.03065
G01 X-32.70631 Y2.74132
G01 X-32.69907 Y2.68051
G01 X-32.65518 Y2.54752
G01 X-32.64543 Y2.49263
G01 X-32.63887 Y2.34475
G01 X-32.63913 Y2.00777
G01 X-33.01431 Y1.88511
G01 X-32.97298 Y1.78524
G01 X-32.90875 Y1.61094
G01 X-32.79305 Y1.26896
G01 X-32.77575 Y1.19372
G01 X-32.77281 Y1.14099
G01 X-32.78226 Y1.05507
G01 X-32.79478 Y1.00879
G01 X-32.72175 Y0.83165
G01 X-32.70855 Y0.77452
G01 X-32.70540 Y0.71829
G01 X-32.70598 Y-0.25400
G01 X-30.57543 Y-0.25400
G01 X-30.57284 Y0.38928
G01 X-30.56854 Y0.44376
G01 X-30.55244 Y0.53447
G01 X-30.51970 Y0.64277
G01 X-30.50822 Y0.71199
G01 X-30.50705 Y0.95423
G01 X-30.47373 Y1.00775
G01 X-30.43961 Y1.07569
G01 X-30.41007 Y1.13741
G01 X-30.39473 Y1.18082
G01 X-30.37726 Y1.27848
G01 X-30.37337 Y1.47340
G01 X-30.27413 Y1.87498
G01 X-30.37380 Y1.91511
G01 X-30.37274 Y2.80896
G01 X-30.33006 Y2.85143
G01 X-30.31475 Y2.92153
G01 X-30.30753 Y2.99128
G01 X-30.31259 Y3.07950
G01 X-30.36484 Y3.32557
G01 X-30.37258 Y3.44559
G01 X-30.37507 Y3.60296
G01 X-30.37261 Y3.83799
G01 X-30.50459 Y3.87416
G01 X-30.50786 Y4.57594
G01 X-30.50075 Y4.67845
G01 X-30.52669 Y4.71726
G01 X-30.55811 Y4.78447
G01 X-30.57274 Y4.85473
G01 X-30.57139 Y5.04093
G01 X-30.55828 Y5.09750
G01 X-30.53773 Y5.14830
G01 X-30.52216 Y5.20073
G01 X-30.50789 Y5.30616
G01 X-30.50477 Y6.23649
G01 X-30.51353 Y6.91817
G01 X-30.30703 Y6.92450
G01 X-30.04055 Y6.92450
G01 X-29.83418 Y6.91817
G01 X-29.84292 Y6.23661
G01 X-29.84053 Y5.34114
G01 X-29.83484 Y5.25638
G01 X-29.82511 Y5.20159
G01 X-29.77802 Y5.05330
G01 X-29.77380 Y5.00774
G01 X-29.77375 Y4.73464
G01 X-29.78061 Y4.68020
G01 X-29.79240 Y4.64116
G01 X-29.87385 Y4.44127
G01 X-29.97614 Y4.13923
G01 X-30.04055 Y3.96464
G01 X-30.07835 Y3.87345
G01 X-30.00502 Y3.84366
G01 X-29.77624 Y3.76304
G01 X-29.77429 Y3.07434
G01 X-29.78206 Y3.00048
G01 X-29.80172 Y2.92905
G01 X-29.77947 Y2.83484
G01 X-29.74564 Y2.79514
G01 X-29.71132 Y2.74500
G01 X-29.67396 Y2.66824
G01 X-29.65491 Y2.60236
G01 X-29.64718 Y2.55976
G01 X-29.64137 Y2.50101
G01 X-29.63959 Y2.40088
G01 X-29.64073 Y1.89192
G01 X-29.50533 Y1.85631
G01 X-29.50868 Y1.57320
G01 X-29.50728 Y0.83787
G01 X-29.53558 Y0.78138
G01 X-29.55153 Y0.73983
G01 X-29.57116 Y0.65019
G01 X-29.57551 Y0.22258
G01 X-29.57055 Y-0.25400
G01 X-31.43974 Y-0.25400
G01 X-31.43928 Y0.59718
G01 X-31.43090 Y0.75532
G01 X-31.41022 Y0.87521
G01 X-31.43626 Y1.05758
G01 X-31.43842 Y1.09913
G01 X-31.42717 Y1.31013
G01 X-31.41022 Y1.40719
G01 X-31.33128 Y1.76436
G01 X-31.32793 Y1.79738
G01 X-31.17426 Y1.87485
G01 X-31.17350 Y2.41033
G01 X-31.18074 Y2.51076
G01 X-31.19366 Y2.56822
G01 X-31.20880 Y2.61158
G01 X-31.30210 Y2.79931
G01 X-31.28020 Y2.88547
G01 X-31.26351 Y2.92626
G01 X-31.23834 Y2.94493
G01 X-31.24009 Y3.96542
G01 X-31.50677 Y4.09161
G01 X-31.83758 Y3.91173
G01 X-32.04400 Y3.89151
G01 X-32.25051 Y3.87655
G01 X-32.43961 Y3.88074
G01 X-32.57301 Y3.89181
G01 X-32.63961 Y3.87454
G01 X-32.84253 Y3.87454
G01 X-33.03854 Y3.88800
G01 X-33.44034 Y3.86108
G01 X-33.51464 Y3.86870
G01 X-33.76877 Y3.88115
G01 X-34.00542 Y3.86001
G01 X-34.03674 Y3.85646
G01 X-34.30572 Y3.78412
G01 X-34.64235 Y3.63090
G01 X-34.63674 Y3.93291
G01 X-34.64032 Y4.27563
G01 X-34.63745 Y4.43824
G01 X-34.63315 Y4.49270
G01 X-34.62343 Y4.54749
G01 X-34.57951 Y4.68059
G01 X-34.57230 Y4.74129
G01 X-34.57585 Y6.91421
G01 X-34.83889 Y6.92450
G01 X-35.10559 Y6.92450
G01 X-35.30549 Y6.91855
G01 X-35.63874 Y6.92450
G01 X-35.82253 Y6.91954
G01 X-36.34651 Y6.85328
G01 X-36.55405 Y5.40791
G01 X-36.57031 Y5.24309
G01 X-36.57328 Y5.13055
G01 X-36.56848 Y4.87454
G01 X-36.57328 Y4.73075
G01 X-36.57331 Y3.93997
G01 X-36.09381 Y3.26934
G01 X-35.92817 Y3.05595
G01 X-35.73851 Y2.83985
G01 X-35.51250 Y2.86395
G01 X-35.30229 Y3.09133
G01 X-35.09124 Y3.28140
G01 X-34.83889 Y3.48640
G01 X-34.64235 Y3.63090
G01 X-34.30572 Y3.78412
G01 X-34.03674 Y3.85646
G01 X-33.96320 Y3.86413
G01 X-33.76877 Y3.88115
G01 X-33.51464 Y3.86870
G01 X-33.44034 Y3.86108
G01 X-33.44118 Y3.29095
G01 X-33.45619 Y3.19583
G01 X-33.49915 Y3.06873
G01 X-33.51431 Y2.94272
G01 X-33.54014 Y2.87406
G01 X-33.51977 Y2.82669
G01 X-33.50697 Y2.76123
G01 X-33.50484 Y1.92082
G01 X-33.33948 Y1.87107
G01 X-33.43890 Y1.47340
G01 X-33.44283 Y1.27846
G01 X-33.46033 Y1.18080
G01 X-33.47570 Y1.13741
G01 X-33.50524 Y1.07572
G01 X-33.53956 Y1.00744
G01 X-33.57255 Y0.95423
G01 X-33.57321 Y0.71191
G01 X-33.58459 Y0.64232
G01 X-33.62015 Y0.52659
G01 X-33.62935 Y0.48057
G01 X-33.63951 Y0.36881
G01 X-33.64047 Y-0.25400
G01 X-34.17319 Y-0.25400
G01 X-34.17052 Y0.04234
G01 X-34.17367 Y0.24577
G01 X-34.16818 Y0.42235
G01 X-34.15830 Y0.50008
G01 X-34.13862 Y0.57422
G01 X-34.07153 Y0.77361
G01 X-34.03915 Y0.85174
G01 X-34.03915 Y0.91120
G01 X-34.06127 Y0.95278
G01 X-34.08319 Y1.00775
G01 X-34.13910 Y1.17439
G01 X-34.15678 Y1.24452
G01 X-34.16986 Y1.35082
G01 X-34.17413 Y1.54267
G01 X-34.25378 Y1.94170
G01 X-34.47600 Y2.04346
G01 X-34.70554 Y2.17213
G01 X-34.90554 Y2.29738
G01 X-34.90717 Y1.29126
G01 X-34.92172 Y1.19619
G01 X-34.96257 Y1.08014
G01 X-34.98017 Y0.94237
G01 X-35.00521 Y0.87404
G01 X-34.93051 Y0.72405
G01 X-34.89980 Y0.67808
G01 X-34.90638 Y0.57595
G01 X-34.90326 Y-0.25400
G01 X-34.90638 Y0.57595
G01 X-34.89980 Y0.67808
G01 X-34.93051 Y0.72405
G01 X-35.00521 Y0.87404
G01 X-35.26198 Y0.87544
G01 X-36.38517 Y0.87455
G01 X-36.37280 Y0.57539
G01 X-36.37351 Y-0.25400
G01 X-36.37280 Y0.57539
G01 X-36.38517 Y0.87455
G01 X-36.39640 Y0.94127
G01 X-36.37859 Y1.12796
G01 X-36.32741 Y2.00614
G01 X-35.73851 Y2.83985
G01 X-35.51250 Y2.86395
G01 X-34.90554 Y2.29738
G01 X-34.70554 Y2.17213
G01 X-34.47600 Y2.04346
G01 X-34.25378 Y1.94170
G01 X-33.77039 Y1.94092
G01 X-33.62653 Y1.93312
G01 X-33.50484 Y1.92082
G01 X-33.33948 Y1.87107
G01 X-33.20814 Y1.88402
G01 X-33.10621 Y1.89883
G01 X-33.01431 Y1.88511
G01 X-32.63913 Y2.00777
G01 X-32.17314 Y2.00716
G01 X-32.07431 Y2.01183
G01 X-31.90667 Y2.03002
G01 X-31.56285 Y1.91206
G01 X-31.37329 Y1.82270
G01 X-31.32793 Y1.79738
G01 X-31.17426 Y1.87485
G01 X-30.97352 Y1.91440
G01 X-30.79758 Y1.93721
G01 X-30.75602 Y1.93939
G01 X-30.57373 Y1.93429
G01 X-30.37380 Y1.91511
G01 X-30.27413 Y1.87498
G01 X-29.90720 Y1.87424
G01 X-29.64073 Y1.89192
G01 X-29.50533 Y1.85631
G01 X-29.26817 Y1.87744
G01 X-29.17101 Y1.88910
G01 X-29.04096 Y1.91074
G01 X-28.90746 Y1.87455
G01 X-28.48501 Y1.87168
G01 X-28.23906 Y1.97869
G01 X-27.90543 Y2.01557
G01 X-27.77477 Y2.03759
G01 X-27.59156 Y2.01087
G01 X-27.48615 Y2.00713
G01 X-26.11608 Y2.01031
G01 X-24.40958 Y2.00287
G01 X-20.83514 Y2.00777
G01 X-21.40801 Y2.60795
G01 X-22.20785 Y3.40779
G01 X-22.69094 Y3.86845
G01 X-22.84661 Y4.00789
G01 X-27.92948 Y4.00693
G01 X-28.04109 Y4.00045
G01 X-28.24056 Y3.97812
G01 X-28.47767 Y3.87535
G01 X-28.70759 Y3.87482
G01 X-28.80644 Y3.87076
G01 X-28.90830 Y3.81485
G01 X-29.37406 Y3.71246
G01 X-29.60591 Y3.74553
G01 X-29.77624 Y3.76304
G01 X-30.00502 Y3.84366
G01 X-30.07835 Y3.87345
G01 X-30.30703 Y3.84955
G01 X-30.37261 Y3.83799
G01 X-30.50459 Y3.87416
G01 X-30.70708 Y3.87485
G01 X-30.91843 Y3.89072
G01 X-30.95998 Y3.89733
G01 X-31.10687 Y3.92902
G01 X-31.24009 Y3.96542
G01 X-31.50677 Y4.09161
G01 X-31.83758 Y3.91173
G01 X-31.84136 Y3.67289
G01 X-31.83854 Y3.44546
G01 X-31.82666 Y3.30103
G01 X-31.77868 Y3.07962
G01 X-31.77322 Y3.00777
G01 X-31.77322 Y2.83787
G01 X-31.80151 Y2.78138
G01 X-31.82635 Y2.71711
G01 X-31.87644 Y2.56223
G01 X-31.89547 Y2.48275
G01 X-31.90441 Y2.40320
G01 X-31.90644 Y2.34127
G01 X-31.90667 Y2.03002
G01 X-31.90644 Y2.34127
G01 X-31.90441 Y2.40320
G01 X-31.89547 Y2.48275
G01 X-31.87644 Y2.56223
G01 X-31.82635 Y2.71711
G01 X-31.80151 Y2.78138
G01 X-31.77322 Y2.83787
G01 X-31.77322 Y3.00777
G01 X-31.77868 Y3.07962
G01 X-31.82666 Y3.30103
G01 X-31.83854 Y3.44546
G01 X-31.84136 Y3.67289
G01 X-31.83758 Y3.91173
G01 X-32.04400 Y3.89151
G01 X-32.25051 Y3.87655
G01 X-32.43961 Y3.88074
G01 X-32.57301 Y3.89181
G01 X-32.63961 Y3.87454
G01 X-32.84253 Y3.87454
G01 X-33.03854 Y3.88800
G01 X-33.44034 Y3.86108
G01 X-33.51464 Y3.86870
G01 X-33.76877 Y3.88115
G01 X-34.00542 Y3.86001
G01 X-34.03674 Y3.85646
G01 X-34.30572 Y3.78412
G01 X-34.64235 Y3.63090
G01 X-34.83889 Y3.48640
G01 X-35.09124 Y3.28140
G01 X-35.30229 Y3.09133
G01 X-35.51250 Y2.86395
G01 X-35.73851 Y2.83985
G01 X-36.32741 Y2.00614
G01 X-37.66111 Y2.00678
G01 X-37.86040 Y1.98692
G01 X-37.97557 Y1.96337
G01 X-38.10820 Y2.00790
G01 X-38.77427 Y2.00790
G01 X-38.96159 Y1.94473
G01 X-39.21597 Y1.85019
G01 X-39.29456 Y1.87145
G01 X-39.44071 Y1.96334
G01 X-39.80909 Y2.00294
G01 X-39.90721 Y2.00777
G01 X-40.04056 Y2.00777
G01 X-40.24043 Y2.02248
G01 X-40.43893 Y1.97780
G01 X-40.56997 Y1.99913
G01 X-40.71038 Y2.00774
G01 X-41.63969 Y2.00840
G01 X-41.63949 Y1.96271
G01 X-41.80081 Y1.67660
G01 X-41.91018 Y1.47041
G01 X-42.14772 Y0.98788
G01 X-42.10705 Y0.94074
G01 X-41.95978 Y0.79306
G01 X-41.91361 Y0.73663
G01 X-41.89148 Y0.70355
G01 X-41.85112 Y0.62746
G01 X-41.83497 Y0.58849
G01 X-41.80119 Y0.47498
G01 X-41.79204 Y0.42896
G01 X-41.77607 Y0.29484
G01 X-41.77314 Y-0.25400
G01 X-41.23802 Y-0.25400
G01 X-41.24180 Y0.19614
G01 X-41.24066 Y0.71902
G01 X-41.22870 Y0.86307
G01 X-41.33235 Y0.96873
G01 X-41.38854 Y1.04551
G01 X-41.42776 Y1.11882
G01 X-41.49187 Y1.27086
G01 X-41.51531 Y1.33604
G01 X-41.55425 Y1.49355
G01 X-41.59273 Y1.72626
G01 X-41.63949 Y1.96271
G01 X-41.63969 Y2.00840
G01 X-42.10540 Y2.52301
G01 X-42.41363 Y2.87195
G01 X-42.57965 Y3.01744
G01 X-42.84370 Y2.99629
G01 X-43.10609 Y3.00777
G01 X-43.57053 Y3.00802
G01 X-43.63936 Y2.99977
G01 X-43.82074 Y3.00688
G01 X-44.24269 Y2.89187
G01 X-44.23679 Y2.25641
G01 X-44.24060 Y1.93977
G01 X-44.23791 Y1.71196
G01 X-44.22485 Y1.56070
G01 X-44.18612 Y1.39860
G01 X-44.17332 Y1.30744
G01 X-44.17289 Y1.11953
G01 X-44.17962 Y1.05476
G01 X-44.18909 Y1.00795
G01 X-44.17764 Y0.94661
G01 X-44.17253 Y0.83830
G01 X-44.20128 Y0.78184
G01 X-44.21746 Y0.74049
G01 X-44.27578 Y0.56223
G01 X-44.29417 Y0.48489
G01 X-44.30128 Y0.43279
G01 X-44.30674 Y0.32609
G01 X-44.30608 Y-0.25400
G04 P0 ( dwell for no time -- G64 should not smooth over this point )
G00 Z10.00000 ( retract )

G00 X-55.50718 Y39.08793 ( rapid move to begin. )
G01 F30.00000
( Mill infeed pass 1/1 )
G01 Z-0.10000
G04 P0 ( dwell for no time -- G64 should not smooth over this point )
G01 F360.00000
G01 X-55.50718 Y39.08793
G01 X-55.53144 Y39.28379
G01 X-55.53862 Y39.31554
G01 X-55.58170 Y39.43233
G01 X-55.62691 Y39.52718
G01 X-55.68658 Y39.61394
G01 X-55.76621 Y39.70970
G01 X-55.81078 Y39.74899
G01 X-55.94772 Y39.85077
G01 X-56.10405 Y39.91834
G01 X-56.16037 Y39.93728
G01 X-56.28310 Y39.95839
G01 X-56.38800 Y39.96667
G01 X-56.49285 Y39.95839
G01 X-56.62341 Y39.93596
G01 X-56.67700 Y39.93063
G01 X-56.73397 Y39.97409
G01 X-63.09718 Y46.33730
G01 X-63.12306 Y46.36734
G01 X-63.13094 Y46.43056
G01 X-63.13094 Y47.45797
G01 X-63.15271 Y47.56320
G01 X-63.25791 Y47.58499
G01 X-64.75806 Y47.58499
G01 X-64.86327 Y47.56320
G01 X-64.88504 Y47.45797
G01 X-64.88504 Y45.95787
G01 X-64.86327 Y45.85264
G01 X-64.75806 Y45.83085
G01 X-63.73063 Y45.83085
G01 X-63.66744 Y45.82300
G01 X-63.63736 Y45.79711
G01 X-57.27416 Y39.43391
G01 X-57.22902 Y39.37399
G01 X-57.24911 Y39.25727
G01 X-57.26880 Y39.08793
G01 X-57.24909 Y38.91857
G01 X-57.23735 Y38.86030
G01 X-57.19425 Y38.74348
G01 X-57.14906 Y38.64867
G01 X-57.08937 Y38.56187
G01 X-57.00977 Y38.46614
G01 X-56.98587 Y38.44404
G01 X-56.83954 Y38.33302
G01 X-56.81596 Y38.31938
G01 X-56.64662 Y38.24818
G01 X-56.61561 Y38.23853
G01 X-56.49285 Y38.21742
G01 X-56.38797 Y38.20917
G01 X-56.28310 Y38.21745
G01 X-56.16037 Y38.23853
G01 X-56.10405 Y38.25751
G01 X-55.95998 Y38.31941
G01 X-55.93644 Y38.33299
G01 X-55.81078 Y38.42685
G01 X-55.76621 Y38.46614
G01 X-55.68658 Y38.56187
G01 X-55.62691 Y38.64867
G01 X-55.58170 Y38.74348
G01 X-55.53860 Y38.86030
G01 X-55.52686 Y38.91857
G01 X-55.50718 Y39.08793
G04 P0 ( dwell for no time -- G64 should not smooth over this point )
G00 Z10.00000 ( retract )

G00 X-27.56718 Y41.62793 ( rapid move to begin. )
G01 F30.00000
( Mill infeed pass 1/1 )
G01 Z-0.10000
G04 P0 ( dwell for no time -- G64 should not smooth over this point )
G01 F360.00000
G01 X-27.56718 Y41.62793
G01 X-27.59144 Y41.82379
G01 X-27.59862 Y41.85554
G01 X-27.64170 Y41.97233
G01 X-27.68691 Y42.06718
G01 X-27.74658 Y42.15394
G01 X-27.82621 Y42.24970
G01 X-27.87078 Y42.28899
G01 X-28.00772 Y42.39077
G01 X-28.16405 Y42.45834
G01 X-28.22037 Y42.47728
G01 X-28.34310 Y42.49839
G01 X-28.44797 Y42.50667
G01 X-28.55285 Y42.49839
G01 X-28.67561 Y42.47728
G01 X-28.73190 Y42.45834
G01 X-28.88826 Y42.39077
G01 X-29.02516 Y42.28899
G01 X-29.06977 Y42.24970
G01 X-29.14940 Y42.15397
G01 X-29.20906 Y42.06718
G01 X-29.25427 Y41.97233
G01 X-29.29735 Y41.85554
G01 X-29.30454 Y41.82379
G01 X-29.32880 Y41.62793
G01 X-29.30454 Y41.43202
G01 X-29.29735 Y41.40030
G01 X-29.25425 Y41.28348
G01 X-29.20906 Y41.18867
G01 X-29.14937 Y41.10187
G01 X-29.06977 Y41.00614
G01 X-29.02516 Y40.96685
G01 X-28.88828 Y40.86504
G01 X-28.73190 Y40.79748
G01 X-28.67561 Y40.77853
G01 X-28.55285 Y40.75742
G01 X-28.44797 Y40.74917
G01 X-28.34310 Y40.75745
G01 X-28.22037 Y40.77853
G01 X-28.16405 Y40.79751
G01 X-28.00769 Y40.86504
G01 X-27.87078 Y40.96685
G01 X-27.82621 Y41.00614
G01 X-27.74658 Y41.10187
G01 X-27.68691 Y41.18867
G01 X-27.64170 Y41.28348
G01 X-27.59860 Y41.40030
G01 X-27.59144 Y41.43202
G01 X-27.56718 Y41.62793
G04 P0 ( dwell for no time -- G64 should not smooth over this point )
G00 Z10.00000 ( retract )

G00 X-7.25091 Y43.41785 ( rapid move to begin. )
G01 F30.00000
( Mill infeed pass 1/1 )
G01 Z-0.10000
G04 P0 ( dwell for no time -- G64 should not smooth over this point )
G01 F360.00000
G01 X-7.25091 Y43.41785
G01 X-7.27268 Y43.31264
G01 X-7.37794 Y43.29085
G01 X-8.87806 Y43.29085
G01 X-8.98327 Y43.31264
G01 X-9.00506 Y43.41785
G01 X-9.00506 Y44.91799
G01 X-8.98327 Y45.02320
G01 X-8.87806 Y45.04497
G01 X-7.37794 Y45.04497
G01 X-7.27271 Y45.02318
G01 X-7.25091 Y44.91799
G01 X-7.25091 Y43.41785
G04 P0 ( dwell for no time -- G64 should not smooth over this point )
G00 Z10.00000 ( retract )

G00 X-7.24715 Y41.62793 ( rapid move to begin. )
G01 F30.00000
( Mill infeed pass 1/1 )
G01 Z-0.10000
G04 P0 ( dwell for no time -- G64 should not smooth over this point )
G01 F360.00000
G01 X-7.24715 Y41.62793
G01 X-7.27144 Y41.82379
G01 X-7.27862 Y41.85554
G01 X-7.32170 Y41.97233
G01 X-7.36691 Y42.06718
G01 X-7.42658 Y42.15394
G01 X-7.50621 Y42.24970
G01 X-7.55079 Y42.28899
G01 X-7.68772 Y42.39077
G01 X-7.84405 Y42.45834
G01 X-7.90037 Y42.47728
G01 X-8.02310 Y42.49839
G01 X-8.12800 Y42.50667
G01 X-8.23285 Y42.49839
G01 X-8.35561 Y42.47728
G01 X-8.41190 Y42.45834
G01 X-8.56826 Y42.39077
G01 X-8.70516 Y42.28899
G01 X-8.74977 Y42.24970
G01 X-8.82940 Y42.15397
G01 X-8.88906 Y42.06718
G01 X-8.93427 Y41.97233
G01 X-8.97735 Y41.85554
G01 X-8.98454 Y41.82379
G01 X-9.00880 Y41.62793
G01 X-8.98454 Y41.43202
G01 X-8.97735 Y41.40030
G01 X-8.93425 Y41.28348
G01 X-8.88906 Y41.18867
G01 X-8.82937 Y41.10187
G01 X-8.74977 Y41.00614
G01 X-8.70516 Y40.96685
G01 X-8.56828 Y40.86504
G01 X-8.41190 Y40.79748
G01 X-8.35561 Y40.77853
G01 X-8.23285 Y40.75742
G01 X-8.12800 Y40.74917
G01 X-8.02310 Y40.75745
G01 X-7.90037 Y40.77853
G01 X-7.84405 Y40.79751
G01 X-7.68769 Y40.86504
G01 X-7.55079 Y40.96685
G01 X-7.50621 Y41.00614
G01 X-7.42658 Y41.10187
G01 X-7.36691 Y41.18867
G01 X-7.32170 Y41.28348
G01 X-7.27860 Y41.40030
G01 X-7.27144 Y41.43202
G01 X-7.24715 Y41.62793

G04 P0 ( dwell for no time -- G64 should not smooth over this point )
G00 Z50.000000 ( retract )

M5 ( Spindle off. )
G04 P1.000000
M9 ( Coolant off. )
M2 ( Program end. )

