( pcb2gcode 2.5.0 )
( Software-independent Gcode )

G94 ( Millimeters per minute feed rate. )
G21 ( Units == Millimeters. )

G90 ( Absolute coordinates. )
G00 S10000 ( RPM spindle speed. )
G01 F360.00000 ( Feedrate. )


G00 Z50.00000 (Retract to tool change height)
T1
M5      (Spindle stop.)
G04 P1.00000 (Wait for spindle to stop)
(MSG, Change tool bit to mill diameter 0.50800mm)
M6      (Tool change.)
M0      (Temporary machine stop.)
M3 ( Spindle on clockwise. )
G04 P1.00000 (Wait for spindle to get up to speed)
G04 P0 ( dwell for no time -- G64 should not smooth over this point )
G00 Z10.00000 ( retract )

G00 X-18.58957 Y-0.25400 ( rapid move to begin. )
G01 F30.00000
( Mill infeed pass 1/1 )
G01 Z-0.10000
G04 P0 ( dwell for no time -- G64 should not smooth over this point )
G01 F360.00000
G01 X-18.58957 Y-0.25400
G01 X0.25400 Y-0.25400
G01 X0.25400 Y50.00993
G01 X-72.38997 Y50.00993
G01 X-72.38997 Y-0.25400
G01 X-53.87492 Y-0.25400
G01 X-53.24632 Y0.42756
G01 X-51.69565 Y0.94651
G01 X-51.26860 Y1.10211
G01 X-50.43482 Y1.36172
G01 X-48.77044 Y1.89814
G01 X-46.35444 Y2.66939
G01 X-46.12437 Y2.74958
G01 X-45.84497 Y2.85661
G01 X-45.83859 Y3.44884
G01 X-45.83938 Y4.53796
G01 X-45.83859 Y4.61843
G01 X-45.83257 Y4.67731
G01 X-45.86895 Y4.73601
G01 X-45.88746 Y4.77756
G01 X-45.89849 Y4.81373
G01 X-45.90527 Y4.86420
G01 X-45.90529 Y5.01754
G01 X-45.89534 Y5.08091
G01 X-45.86069 Y5.17705
G01 X-45.84931 Y5.22445
G01 X-45.83935 Y5.32237
G01 X-45.84075 Y5.93855
G01 X-45.83554 Y6.91873
G01 X-45.67240 Y6.92323
G01 X-45.37362 Y6.92424
G01 X-45.16984 Y6.91878
G01 X-45.17474 Y5.85742
G01 X-45.17194 Y5.33994
G01 X-45.16925 Y5.28046
G01 X-45.15546 Y5.19478
G01 X-45.11772 Y5.09069
G01 X-45.10573 Y5.03029
G01 X-45.10453 Y4.74160
G01 X-45.10761 Y4.70207
G01 X-45.11914 Y4.65399
G01 X-45.20463 Y4.44320
G01 X-45.31418 Y4.11884
G01 X-45.37199 Y3.96464
G01 X-45.48269 Y3.69743
G01 X-45.63872 Y3.26951
G01 X-45.77126 Y2.87485
G01 X-45.84497 Y2.85661
G01 X-45.77126 Y2.87485
G01 X-44.66554 Y2.87556
G01 X-44.23809 Y2.89255
G01 X-43.81751 Y3.00739
G01 X-43.63519 Y2.99977
G01 X-43.57332 Y3.00754
G01 X-43.09379 Y3.00802
G01 X-42.83974 Y2.99657
G01 X-42.57944 Y3.01874
G01 X-42.41074 Y2.87000
G01 X-42.12981 Y2.55059
G01 X-41.63967 Y2.00884
G01 X-41.63972 Y1.96230
G01 X-41.60126 Y1.77259
G01 X-41.55427 Y1.49311
G01 X-41.53759 Y1.41315
G01 X-41.50479 Y1.30391
G01 X-41.42610 Y1.11529
G01 X-41.39362 Y1.05265
G01 X-41.32781 Y0.96375
G01 X-41.22816 Y0.86220
G01 X-41.23736 Y0.79261
G01 X-41.24096 Y0.67970
G01 X-41.23901 Y0.17554
G01 X-41.24587 Y-0.25400
G01 X-44.30580 Y-0.25400
G01 X-44.30626 Y0.31034
G01 X-44.30230 Y0.43000
G01 X-44.28503 Y0.53025
G01 X-44.26077 Y0.61206
G01 X-44.20078 Y0.78141
G01 X-44.17250 Y0.83787
G01 X-44.17555 Y0.92852
G01 X-44.18983 Y1.00658
G01 X-44.17339 Y1.11658
G01 X-44.17273 Y1.28481
G01 X-44.17642 Y1.33388
G01 X-44.18909 Y1.40754
G01 X-44.21276 Y1.50495
G01 X-44.23336 Y1.62621
G01 X-44.23776 Y1.68255
G01 X-44.24048 Y1.77828
G01 X-44.23809 Y2.89255
G01 X-43.81751 Y3.00739
G01 X-44.04749 Y3.66088
G01 X-44.16895 Y3.93431
G01 X-44.37316 Y4.34274
G01 X-44.37164 Y4.42661
G01 X-44.36466 Y4.51089
G01 X-44.35318 Y4.56347
G01 X-44.31231 Y4.68246
G01 X-44.30593 Y4.73471
G01 X-44.30545 Y5.02867
G01 X-44.29765 Y5.07604
G01 X-44.25592 Y5.19473
G01 X-44.24815 Y5.23123
G01 X-44.23959 Y5.32262
G01 X-44.23753 Y5.55262
G01 X-44.24114 Y5.93923
G01 X-44.23623 Y6.91873
G01 X-44.03928 Y6.92450
G01 X-43.77731 Y6.92450
G01 X-43.61599 Y6.96595
G01 X-43.19704 Y7.03826
G01 X-42.76946 Y7.05655
G01 X-42.24271 Y7.00331
G01 X-41.87350 Y6.91639
G01 X-42.15168 Y5.67004
G01 X-42.19100 Y5.52447
G01 X-42.25267 Y5.34490
G01 X-42.29090 Y5.18523
G01 X-42.29669 Y5.14624
G01 X-42.30624 Y5.01807
G01 X-42.30586 Y3.38209
G01 X-41.63997 Y3.78076
G01 X-41.52415 Y3.82816
G01 X-41.37434 Y3.89664
G01 X-41.04015 Y4.00789
G01 X-41.03865 Y4.33385
G01 X-41.04251 Y4.46105
G01 X-41.05572 Y4.54751
G01 X-41.10266 Y4.69572
G01 X-41.10685 Y4.74129
G01 X-41.10685 Y5.00774
G01 X-41.09938 Y5.07050
G01 X-41.05262 Y5.21320
G01 X-41.04272 Y5.29097
G01 X-41.03611 Y6.10100
G01 X-41.03723 Y6.91873
G01 X-40.84015 Y6.92450
G01 X-40.58371 Y6.92450
G01 X-40.34394 Y6.96283
G01 X-40.04605 Y6.98835
G01 X-39.74816 Y6.98647
G01 X-39.57485 Y6.97474
G01 X-39.57198 Y6.44911
G01 X-39.57394 Y4.87657
G01 X-39.61694 Y4.76618
G01 X-39.66484 Y4.57896
G01 X-39.69504 Y4.44078
G01 X-39.70680 Y4.27553
G01 X-39.70749 Y4.05242
G01 X-39.28476 Y3.91196
G01 X-39.09708 Y3.85976
G01 X-39.04331 Y3.34325
G01 X-38.96223 Y3.26189
G01 X-38.87678 Y3.16499
G01 X-38.79527 Y3.04589
G01 X-38.74351 Y2.93451
G01 X-38.71758 Y2.84373
G01 X-38.75179 Y2.73992
G01 X-38.77160 Y2.65029
G01 X-38.77513 Y2.00777
G01 X-38.97645 Y1.94013
G01 X-39.21491 Y1.84932
G01 X-39.13929 Y1.41610
G01 X-39.10266 Y1.29774
G01 X-39.02423 Y1.10884
G01 X-38.96469 Y1.00927
G01 X-38.95006 Y0.93817
G01 X-38.93612 Y0.89522
G01 X-38.86876 Y0.73063
G01 X-38.80335 Y0.59614
G01 X-38.78501 Y0.53010
G01 X-38.77780 Y0.47564
G01 X-38.77363 Y0.36363
G01 X-38.77617 Y-0.25397
G01 X-39.43975 Y-0.25397
G01 X-39.44079 Y0.42570
G01 X-39.45443 Y0.58390
G01 X-39.47450 Y0.67361
G01 X-39.49761 Y0.74145
G01 X-39.62641 Y1.05435
G01 X-39.63680 Y1.09563
G01 X-39.64036 Y1.15339
G01 X-39.63485 Y1.19664
G01 X-39.61338 Y1.26190
G01 X-39.43576 Y1.61491
G01 X-39.29510 Y1.87157
G01 X-39.21491 Y1.84932
G01 X-39.29510 Y1.87157
G01 X-39.44130 Y1.96383
G01 X-39.44059 Y2.27703
G01 X-39.43373 Y2.39687
G01 X-39.41181 Y2.52194
G01 X-39.37803 Y2.67980
G01 X-39.36688 Y2.82705
G01 X-39.34562 Y2.91442
G01 X-39.31470 Y2.99121
G01 X-39.29352 Y3.03276
G01 X-39.21580 Y3.15051
G01 X-39.18214 Y3.19207
G01 X-39.04331 Y3.34325
G01 X-39.09708 Y3.85976
G01 X-39.04125 Y3.90360
G01 X-39.04082 Y4.95394
G01 X-39.01443 Y4.99501
G01 X-38.95209 Y5.11896
G01 X-38.92453 Y5.19471
G01 X-38.91054 Y5.28046
G01 X-38.90797 Y5.47045
G01 X-38.82956 Y5.77642
G01 X-38.68029 Y6.39641
G01 X-38.73581 Y6.95404
G01 X-38.68029 Y6.39641
G01 X-38.55095 Y6.04939
G01 X-38.44110 Y5.78467
G01 X-38.34003 Y5.50680
G01 X-38.26121 Y5.27251
G01 X-38.19596 Y5.11797
G01 X-38.14188 Y5.00794
G01 X-38.16025 Y4.96052
G01 X-38.17003 Y4.92150
G01 X-38.17440 Y4.87411
G01 X-38.17501 Y3.26062
G01 X-38.18372 Y3.20462
G01 X-38.19487 Y3.16959
G01 X-38.21717 Y3.12323
G01 X-38.24067 Y3.08717
G01 X-38.24000 Y2.79723
G01 X-38.21455 Y2.75646
G01 X-38.14503 Y2.61513
G01 X-38.12433 Y2.55425
G01 X-38.11664 Y2.51778
G01 X-38.11001 Y2.45788
G01 X-38.10843 Y2.39418
G01 X-38.10828 Y2.00810
G01 X-37.97333 Y1.96299
G01 X-37.97582 Y1.77828
G01 X-37.96871 Y1.62621
G01 X-37.94811 Y1.50495
G01 X-37.91755 Y1.37292
G01 X-37.90808 Y1.28481
G01 X-37.90874 Y1.11658
G01 X-37.92517 Y1.00658
G01 X-37.91090 Y0.92852
G01 X-37.90785 Y0.83787
G01 X-37.93612 Y0.78141
G01 X-37.99611 Y0.61206
G01 X-38.02037 Y0.53025
G01 X-38.03764 Y0.43000
G01 X-38.04161 Y0.31034
G01 X-38.04115 Y-0.25400
G01 X-40.37772 Y-0.25400
G01 X-40.37272 Y0.15387
G01 X-40.37404 Y0.37793
G01 X-40.37698 Y0.47633
G01 X-40.38478 Y0.52901
G01 X-40.39613 Y0.57399
G01 X-40.41267 Y0.61778
G01 X-40.46322 Y0.71885
G01 X-40.58036 Y1.00109
G01 X-40.52667 Y1.05921
G01 X-40.49385 Y1.10531
G01 X-40.46507 Y1.15999
G01 X-40.44630 Y1.21895
G01 X-40.43990 Y1.30439
G01 X-40.44089 Y1.97800
G01 X-40.24137 Y2.02232
G01 X-40.24084 Y2.39166
G01 X-40.24414 Y2.47660
G01 X-40.25171 Y2.52915
G01 X-40.26284 Y2.57399
G01 X-40.27919 Y2.61777
G01 X-40.33149 Y2.72161
G01 X-40.44739 Y3.00126
G01 X-40.38473 Y3.07155
G01 X-40.35621 Y3.11323
G01 X-40.33248 Y3.15793
G01 X-40.31313 Y3.21889
G01 X-40.30637 Y3.29194
G01 X-40.30797 Y4.26253
G01 X-40.30162 Y4.43926
G01 X-40.28354 Y4.54033
G01 X-40.26553 Y4.60108
G01 X-40.21044 Y4.76245
G01 X-40.17378 Y4.85140
G01 X-40.17378 Y4.91119
G01 X-40.21818 Y5.00774
G01 X-40.27998 Y5.19491
G01 X-40.29347 Y5.25244
G01 X-40.30627 Y5.38472
G01 X-40.30919 Y5.54312
G01 X-40.58371 Y6.92450
G01 X-40.84015 Y6.92450
G01 X-41.03723 Y6.91873
G01 X-41.24386 Y6.92419
G01 X-41.40718 Y6.92351
G01 X-41.87350 Y6.91639
G01 X-41.40718 Y6.92351
G01 X-41.24386 Y6.92419
G01 X-41.03723 Y6.91873
G01 X-40.84015 Y6.92450
G01 X-40.58371 Y6.92450
G01 X-40.34394 Y6.96283
G01 X-40.04605 Y6.98835
G01 X-39.74816 Y6.98647
G01 X-39.57485 Y6.97474
G01 X-39.08166 Y6.98647
G01 X-38.73581 Y6.95404
G01 X-38.46619 Y7.01015
G01 X-38.20036 Y7.04492
G01 X-37.93452 Y7.05691
G01 X-37.51496 Y7.05787
G01 X-37.18235 Y7.04078
G01 X-36.84407 Y6.99110
G01 X-36.54735 Y6.91746
G01 X-36.34801 Y6.85396
G01 X-35.99251 Y6.90590
G01 X-35.63249 Y6.92450
G01 X-35.30549 Y6.91891
G01 X-35.10620 Y6.92417
G01 X-34.80608 Y6.92323
G01 X-34.57095 Y6.91429
G01 X-34.47745 Y6.91977
G01 X-33.78469 Y6.92241
G01 X-33.71317 Y6.94200
G01 X-33.29008 Y7.02655
G01 X-32.85007 Y7.05762
G01 X-32.57339 Y7.04705
G01 X-32.19442 Y7.05493
G01 X-31.85663 Y7.02721
G01 X-31.56105 Y6.97306
G01 X-31.34035 Y6.91639
G01 X-31.67700 Y5.40791
G01 X-31.69770 Y5.28343
G01 X-31.70641 Y5.15155
G01 X-31.69359 Y4.96753
G01 X-31.66057 Y4.80941
G01 X-31.60972 Y4.66037
G01 X-31.50677 Y4.42478
G01 X-31.50677 Y4.09232
G01 X-31.50677 Y4.42478
G01 X-31.60972 Y4.66037
G01 X-31.66057 Y4.80941
G01 X-31.69359 Y4.96753
G01 X-31.70641 Y5.15155
G01 X-31.69770 Y5.28343
G01 X-31.67700 Y5.40791
G01 X-31.34035 Y6.91639
G01 X-31.09976 Y6.92450
G01 X-30.50705 Y6.91855
G01 X-30.30703 Y6.92450
G01 X-30.04055 Y6.92450
G01 X-29.84149 Y6.91860
G01 X-29.71785 Y6.92310
G01 X-29.37380 Y6.91446
G01 X-29.18445 Y6.92310
G01 X-28.90454 Y6.91873
G01 X-28.90383 Y6.39983
G01 X-28.90911 Y5.81980
G01 X-28.90609 Y5.48005
G01 X-28.91036 Y5.28043
G01 X-28.92422 Y5.19473
G01 X-28.96022 Y5.09638
G01 X-28.97078 Y5.05348
G01 X-28.97482 Y5.00774
G01 X-28.97416 Y4.74147
G01 X-28.97830 Y4.69577
G01 X-28.98892 Y4.65320
G01 X-29.02161 Y4.56349
G01 X-29.03311 Y4.51094
G01 X-29.04007 Y4.42671
G01 X-29.04160 Y4.34282
G01 X-28.80660 Y3.87076
G01 X-28.90733 Y3.81556
G01 X-28.90606 Y3.41516
G01 X-28.90782 Y3.32862
G01 X-28.91594 Y3.23548
G01 X-28.93954 Y3.14792
G01 X-28.97632 Y3.06921
G01 X-28.99565 Y3.01752
G01 X-29.03609 Y2.83853
G01 X-29.03987 Y2.74775
G01 X-29.03357 Y2.69179
G01 X-29.01932 Y2.61899
G01 X-29.03456 Y2.53644
G01 X-29.04073 Y2.44122
G01 X-29.04114 Y1.91077
G01 X-28.90990 Y1.87510
G01 X-28.90637 Y1.56573
G01 X-28.90784 Y0.87528
G01 X-28.73893 Y0.74808
G01 X-28.71379 Y0.70642
G01 X-28.70759 Y0.60797
G01 X-28.70807 Y-0.25400
G01 X-27.90876 Y-0.25397
G01 X-27.90817 Y0.44026
G01 X-28.01211 Y0.59751
G01 X-28.05814 Y0.67666
G01 X-28.15562 Y0.90706
G01 X-28.16799 Y0.94869
G01 X-28.17393 Y0.98956
G01 X-28.17447 Y1.15156
G01 X-28.18684 Y1.22207
G01 X-28.23190 Y1.32448
G01 X-28.44180 Y1.73446
G01 X-28.48463 Y1.87284
G01 X-28.24152 Y1.97749
G01 X-28.24277 Y2.24739
G01 X-28.23992 Y2.43835
G01 X-28.23421 Y2.50477
G01 X-28.21889 Y2.57348
G01 X-28.20726 Y2.60617
G01 X-28.14203 Y2.74142
G01 X-28.11447 Y2.80812
G01 X-28.16037 Y2.92174
G01 X-28.17226 Y2.97343
G01 X-28.18120 Y3.06654
G01 X-28.19430 Y3.11018
G01 X-28.26941 Y3.29354
G01 X-28.37729 Y3.61826
G01 X-28.47777 Y3.87561
G01 X-28.24086 Y3.97838
G01 X-28.24005 Y4.44307
G01 X-28.23578 Y4.49120
G01 X-28.22324 Y4.55856
G01 X-28.19278 Y4.63842
G01 X-28.05179 Y4.91922
G01 X-27.98549 Y5.06898
G01 X-27.97620 Y5.07690
G01 X-27.97414 Y5.15155
G01 X-27.98445 Y5.27980
G01 X-28.00454 Y5.38112
G01 X-28.44561 Y6.92450
G01 X-28.70759 Y6.92450
G01 X-28.90454 Y6.91873
G01 X-28.70759 Y6.92450
G01 X-28.44561 Y6.92450
G01 X-28.28430 Y6.96595
G01 X-27.86535 Y7.03826
G01 X-27.40647 Y7.05574
G01 X-26.87973 Y6.99750
G01 X-26.44775 Y6.88731
G01 X-26.13716 Y6.77311
G01 X-25.80589 Y6.61764
G01 X-25.33195 Y6.34048
G01 X-24.85801 Y5.99222
G01 X-24.51219 Y5.69770
G01 X-24.20793 Y5.40791
G01 X-23.40800 Y4.60794
G01 X-22.84722 Y4.00787
G01 X-22.20785 Y3.40779
G01 X-21.40801 Y2.60795
G01 X-20.83514 Y2.00777
G01 X-20.20286 Y1.40282
G01 X-19.39282 Y0.59225
G01 X-18.63969 Y-0.19680
G01 X-18.58957 Y-0.25400
G01 X-34.90554 Y-0.25400
G01 X-34.90587 Y0.53825
G01 X-34.90371 Y0.64493
G01 X-34.89909 Y0.67920
G01 X-34.93394 Y0.73236
G01 X-35.00592 Y0.87495
G01 X-34.93394 Y0.73236
G01 X-34.89909 Y0.67920
G01 X-34.90371 Y0.64493
G01 X-34.90587 Y0.53825
G01 X-34.90554 Y-0.25400
G01 X-41.77307 Y-0.25400
G01 X-41.77378 Y0.24910
G01 X-41.78742 Y0.40198
G01 X-41.79588 Y0.45103
G01 X-41.83012 Y0.57602
G01 X-41.84637 Y0.61725
G01 X-41.88811 Y0.69845
G01 X-41.91089 Y0.73320
G01 X-41.95902 Y0.79258
G01 X-42.11429 Y0.94828
G01 X-42.14904 Y0.98849
G01 X-41.83690 Y1.61135
G01 X-41.76072 Y1.75275
G01 X-41.63972 Y1.96230
G01 X-41.63967 Y2.00884
G01 X-40.70815 Y2.00790
G01 X-40.58945 Y2.00147
G01 X-40.44089 Y1.97800
G01 X-40.24137 Y2.02232
G01 X-40.12507 Y2.01127
G01 X-39.89489 Y2.00746
G01 X-39.78311 Y2.00109
G01 X-39.44130 Y1.96383
G01 X-39.29510 Y1.87157
G01 X-39.21491 Y1.84932
G01 X-38.97645 Y1.94013
G01 X-38.77513 Y2.00777
G01 X-38.10828 Y2.00810
G01 X-37.97333 Y1.96299
G01 X-37.79749 Y1.99771
G01 X-37.63117 Y2.00868
G01 X-36.32680 Y2.00797
G01 X-35.73686 Y2.83975
G01 X-35.51349 Y2.86327
G01 X-35.30229 Y3.09154
G01 X-35.10275 Y3.27142
G01 X-34.91281 Y3.43080
G01 X-34.63879 Y3.63238
G01 X-34.30572 Y3.78313
G01 X-34.03981 Y3.85623
G01 X-33.77049 Y3.88094
G01 X-33.44136 Y3.86116
G01 X-33.03971 Y3.88760
G01 X-32.91995 Y3.87749
G01 X-32.70804 Y3.87406
G01 X-32.63600 Y3.87507
G01 X-32.57596 Y3.89209
G01 X-32.43961 Y3.88074
G01 X-32.29605 Y3.87482
G01 X-32.17314 Y3.88076
G01 X-31.83931 Y3.91084
G01 X-31.84139 Y3.62722
G01 X-31.83877 Y3.47421
G01 X-31.82981 Y3.32331
G01 X-31.77868 Y3.07952
G01 X-31.77324 Y3.00777
G01 X-31.77324 Y2.83782
G01 X-31.80880 Y2.76466
G01 X-31.82577 Y2.71864
G01 X-31.87304 Y2.57457
G01 X-31.89666 Y2.47086
G01 X-31.90570 Y2.36441
G01 X-31.90657 Y2.02964
G01 X-31.90570 Y2.36441
G01 X-31.89666 Y2.47086
G01 X-31.87304 Y2.57457
G01 X-31.82577 Y2.71864
G01 X-31.80880 Y2.76466
G01 X-31.77324 Y2.83782
G01 X-31.77324 Y3.00777
G01 X-31.77868 Y3.07952
G01 X-31.82981 Y3.32331
G01 X-31.83877 Y3.47421
G01 X-31.84139 Y3.62722
G01 X-31.83931 Y3.91084
G01 X-31.50677 Y4.09232
G01 X-31.24078 Y3.96497
G01 X-31.08945 Y3.92463
G01 X-30.91584 Y3.88993
G01 X-30.70708 Y3.87485
G01 X-30.50492 Y3.87447
G01 X-30.37418 Y3.83797
G01 X-30.25206 Y3.85882
G01 X-30.08066 Y3.87497
G01 X-30.00469 Y3.84399
G01 X-29.77904 Y3.76392
G01 X-29.49494 Y3.73187
G01 X-29.37419 Y3.71244
G01 X-28.90733 Y3.81556
G01 X-28.80660 Y3.87076
G01 X-28.70759 Y3.87492
G01 X-28.47777 Y3.87561
G01 X-28.24086 Y3.97838
G01 X-28.06388 Y3.99880
G01 X-27.93291 Y4.00746
G01 X-22.84722 Y4.00787
G01 X-22.20785 Y3.40779
G01 X-21.40801 Y2.60795
G01 X-20.83514 Y2.00777
G01 X-23.60983 Y2.00777
G01 X-24.79977 Y2.00398
G01 X-26.29789 Y2.00894
G01 X-27.40185 Y2.00698
G01 X-27.59151 Y2.01135
G01 X-27.77477 Y2.03708
G01 X-27.93291 Y2.01158
G01 X-28.24152 Y1.97749
G01 X-28.48463 Y1.87284
G01 X-28.90990 Y1.87510
G01 X-29.04114 Y1.91077
G01 X-29.20340 Y1.88483
G01 X-29.50510 Y1.85595
G01 X-29.64226 Y1.89283
G01 X-29.77678 Y1.88049
G01 X-29.89677 Y1.87455
G01 X-30.27345 Y1.87447
G01 X-30.37185 Y1.91376
G01 X-30.65808 Y1.93939
G01 X-30.86699 Y1.93109
G01 X-30.97352 Y1.91458
G01 X-31.17563 Y1.87432
G01 X-31.32767 Y1.79748
G01 X-31.52689 Y1.89741
G01 X-31.65046 Y1.94493
G01 X-31.90657 Y2.02964
G01 X-32.06031 Y2.01389
G01 X-32.17314 Y2.00762
G01 X-32.63961 Y2.00777
G01 X-33.01180 Y1.88465
G01 X-33.10631 Y1.89941
G01 X-33.23946 Y1.88062
G01 X-33.33849 Y1.87168
G01 X-33.50600 Y1.92128
G01 X-33.62879 Y1.93345
G01 X-33.78304 Y1.94122
G01 X-34.25264 Y1.94163
G01 X-34.41197 Y2.01267
G01 X-34.54090 Y2.07592
G01 X-34.71085 Y2.17419
G01 X-34.90570 Y2.29944
G01 X-35.09056 Y2.46670
G01 X-35.39681 Y2.75770
G01 X-35.51349 Y2.86327
G01 X-35.73686 Y2.83975
G01 X-36.32680 Y2.00797
G01 X-36.37633 Y1.15560
G01 X-36.39703 Y0.93975
G01 X-36.38580 Y0.87747
G01 X-36.37369 Y0.61199
G01 X-36.37277 Y-0.25397
G01 X-36.37369 Y0.61199
G01 X-36.38580 Y0.87747
G01 X-35.00592 Y0.87495
G01 X-34.97915 Y0.94684
G01 X-34.96808 Y1.05474
G01 X-34.95832 Y1.09375
G01 X-34.92744 Y1.17716
G01 X-34.91614 Y1.22456
G01 X-34.90844 Y1.28054
G01 X-34.90496 Y1.39322
G01 X-34.90570 Y2.29944
G01 X-34.71085 Y2.17419
G01 X-34.54090 Y2.07592
G01 X-34.41197 Y2.01267
G01 X-34.25264 Y1.94163
G01 X-34.17283 Y1.54137
G01 X-34.17202 Y1.38509
G01 X-34.15881 Y1.25242
G01 X-34.14514 Y1.19487
G01 X-34.08670 Y1.01674
G01 X-34.06488 Y0.96004
G01 X-34.03976 Y0.91084
G01 X-34.03996 Y0.85171
G01 X-34.07674 Y0.76337
G01 X-34.13920 Y0.57440
G01 X-34.16209 Y0.47821
G01 X-34.16717 Y0.43917
G01 X-34.17316 Y0.27396
G01 X-34.17496 Y-0.25400
G01 X-33.64118 Y-0.25397
G01 X-33.63730 Y0.40312
G01 X-33.62391 Y0.50757
G01 X-33.59097 Y0.62179
G01 X-33.57679 Y0.68517
G01 X-33.57301 Y0.72995
G01 X-33.57278 Y0.95258
G01 X-33.52655 Y1.03152
G01 X-33.48520 Y1.11603
G01 X-33.45609 Y1.19474
G01 X-33.44222 Y1.28044
G01 X-33.43801 Y1.47267
G01 X-33.40016 Y1.63779
G01 X-33.33849 Y1.87168
G01 X-33.50600 Y1.92128
G01 X-33.50908 Y2.14046
G01 X-33.50468 Y2.33779
G01 X-33.50621 Y2.75176
G01 X-33.51761 Y2.81965
G01 X-33.54009 Y2.87533
G01 X-33.52272 Y2.91348
G01 X-33.51345 Y2.94475
G01 X-33.49937 Y3.06654
G01 X-33.45472 Y3.20157
G01 X-33.44487 Y3.25658
G01 X-33.43905 Y3.35742
G01 X-33.43681 Y3.60223
G01 X-33.44136 Y3.86116
G01 X-33.77049 Y3.88094
G01 X-34.03981 Y3.85623
G01 X-34.30572 Y3.78313
G01 X-34.37877 Y3.75105
G01 X-34.63879 Y3.63238
G01 X-34.91281 Y3.43080
G01 X-35.10275 Y3.27142
G01 X-35.30229 Y3.09154
G01 X-35.51349 Y2.86327
G01 X-35.73686 Y2.83975
G01 X-36.03511 Y3.19070
G01 X-36.57229 Y3.94035
G01 X-36.57303 Y4.75501
G01 X-36.56828 Y4.87794
G01 X-36.57331 Y5.01099
G01 X-36.57303 Y5.15480
G01 X-36.55852 Y5.37167
G01 X-36.34801 Y6.85396
G01 X-35.99251 Y6.90590
G01 X-35.63249 Y6.92450
G01 X-35.30549 Y6.91891
G01 X-35.10620 Y6.92417
G01 X-34.80608 Y6.92323
G01 X-34.57095 Y6.91429
G01 X-34.57222 Y4.74137
G01 X-34.57664 Y4.69453
G01 X-34.58642 Y4.65554
G01 X-34.62360 Y4.54744
G01 X-34.63326 Y4.49263
G01 X-34.63750 Y4.43822
G01 X-34.64093 Y3.98137
G01 X-34.63879 Y3.63238
G01 X-34.30572 Y3.78313
G01 X-34.03981 Y3.85623
G01 X-33.77049 Y3.88094
G01 X-33.44136 Y3.86116
G01 X-33.03971 Y3.88760
G01 X-32.91995 Y3.87749
G01 X-32.70804 Y3.87406
G01 X-32.63600 Y3.87507
G01 X-32.57596 Y3.89209
G01 X-32.43961 Y3.88074
G01 X-32.29605 Y3.87482
G01 X-32.02884 Y3.89316
G01 X-31.83931 Y3.91084
G01 X-31.50677 Y4.09232
G01 X-31.24078 Y3.96497
G01 X-31.24327 Y3.65328
G01 X-31.23867 Y2.94477
G01 X-31.26402 Y2.92478
G01 X-31.29247 Y2.84757
G01 X-31.30222 Y2.79946
G01 X-31.20253 Y2.59677
G01 X-31.18381 Y2.52898
G01 X-31.17792 Y2.49088
G01 X-31.17245 Y2.28267
G01 X-31.17563 Y1.87432
G01 X-31.32767 Y1.79748
G01 X-31.33120 Y1.76428
G01 X-31.40992 Y1.40754
G01 X-31.43441 Y1.25123
G01 X-31.43687 Y1.06220
G01 X-31.41010 Y0.87551
G01 X-31.42686 Y0.78174
G01 X-31.43905 Y0.64910
G01 X-31.44007 Y-0.25400
G01 X-29.57302 Y-0.25400
G01 X-29.57363 Y0.61321
G01 X-29.56458 Y0.69177
G01 X-29.55392 Y0.73343
G01 X-29.54287 Y0.76467
G01 X-29.50731 Y0.83782
G01 X-29.50830 Y1.62784
G01 X-29.50510 Y1.85595
G01 X-29.64226 Y1.89283
G01 X-29.63880 Y2.13858
G01 X-29.64096 Y2.48986
G01 X-29.64536 Y2.55074
G01 X-29.66159 Y2.63096
G01 X-29.68803 Y2.70208
G01 X-29.72516 Y2.76789
G01 X-29.77916 Y2.83472
G01 X-29.80088 Y2.92669
G01 X-29.78361 Y2.98864
G01 X-29.77411 Y3.07012
G01 X-29.77355 Y3.46520
G01 X-29.77904 Y3.76392
G01 X-30.00469 Y3.84399
G01 X-30.08066 Y3.87497
G01 X-29.97487 Y4.14050
G01 X-29.86885 Y4.45516
G01 X-29.79212 Y4.64099
G01 X-29.77716 Y4.69560
G01 X-29.77297 Y4.74137
G01 X-29.77391 Y5.02783
G01 X-29.78320 Y5.08145
G01 X-29.82387 Y5.19473
G01 X-29.83801 Y5.28061
G01 X-29.84030 Y5.32267
G01 X-29.83913 Y5.70055
G01 X-29.84444 Y6.39991
G01 X-29.84149 Y6.91860
G01 X-30.04055 Y6.92450
G01 X-30.30703 Y6.92450
G01 X-30.50705 Y6.91855
G01 X-30.50553 Y5.41523
G01 X-30.50959 Y5.29097
G01 X-30.51774 Y5.22450
G01 X-30.52912 Y5.17710
G01 X-30.56377 Y5.08102
G01 X-30.57299 Y5.02763
G01 X-30.57370 Y4.86420
G01 X-30.56692 Y4.81366
G01 X-30.55587 Y4.77744
G01 X-30.52425 Y4.71195
G01 X-30.50037 Y4.67637
G01 X-30.50703 Y4.61843
G01 X-30.50781 Y4.53794
G01 X-30.50492 Y3.87447
G01 X-30.37418 Y3.83797
G01 X-30.37302 Y3.47924
G01 X-30.36392 Y3.32344
G01 X-30.31233 Y3.07927
G01 X-30.30825 Y2.98663
G01 X-30.31152 Y2.94505
G01 X-30.33075 Y2.85067
G01 X-30.37451 Y2.80739
G01 X-30.37185 Y1.91376
G01 X-30.27345 Y1.87447
G01 X-30.37375 Y1.47142
G01 X-30.37650 Y1.28059
G01 X-30.39057 Y1.19474
G01 X-30.41820 Y1.11895
G01 X-30.48030 Y0.99471
G01 X-30.50685 Y0.95347
G01 X-30.50725 Y0.72995
G01 X-30.51109 Y0.68514
G01 X-30.52526 Y0.62189
G01 X-30.55148 Y0.53467
G01 X-30.56727 Y0.44468
G01 X-30.57144 Y0.39030
G01 X-30.57370 Y-0.25400
G01 X-32.70529 Y-0.25400
G01 X-32.70466 Y0.60635
G01 X-32.70994 Y0.78489
G01 X-32.72112 Y0.82974
G01 X-32.79412 Y1.00947
G01 X-32.77855 Y1.07279
G01 X-32.77255 Y1.13066
G01 X-32.77829 Y1.20952
G01 X-32.78955 Y1.25908
G01 X-32.91243 Y1.62469
G01 X-33.01180 Y1.88465
G01 X-32.63961 Y2.00777
G01 X-32.63811 Y2.33385
G01 X-32.64197 Y2.46106
G01 X-32.65518 Y2.54752
G01 X-32.70212 Y2.69573
G01 X-32.70631 Y2.74132
G01 X-32.70631 Y3.00777
G01 X-32.69884 Y3.07050
G01 X-32.65208 Y3.21320
G01 X-32.64218 Y3.29098
G01 X-32.63600 Y3.87507
G01 X-32.87771 Y3.87589
G01 X-33.03971 Y3.88760
G01 X-33.03720 Y4.45450
G01 X-33.02737 Y4.53459
G01 X-32.98241 Y4.67078
G01 X-32.97296 Y4.74480
G01 X-32.97829 Y4.79468
G01 X-32.98782 Y4.82951
G01 X-33.06125 Y5.00941
G01 X-33.04568 Y5.07296
G01 X-33.03981 Y5.13065
G01 X-33.04156 Y5.17799
G01 X-33.05134 Y5.23763
G01 X-33.07077 Y5.29735
G01 X-33.08929 Y5.33890
G01 X-33.11718 Y5.38988
G01 X-33.28858 Y5.65417
G01 X-33.46503 Y6.01114
G01 X-33.70265 Y6.59282
G01 X-33.78469 Y6.92241
G01 X-33.70265 Y6.59282
G01 X-33.70801 Y5.93923
G01 X-33.70445 Y5.51101
G01 X-33.70829 Y5.29112
G01 X-33.71827 Y5.21325
G01 X-33.76376 Y5.07550
G01 X-33.77227 Y5.01901
G01 X-33.77049 Y3.88094
G01 X-33.44136 Y3.86116
G01 X-33.43681 Y3.60223
G01 X-33.43905 Y3.35742
G01 X-33.44487 Y3.25658
G01 X-33.45472 Y3.20157
G01 X-33.49937 Y3.06654
G01 X-33.51345 Y2.94475
G01 X-33.52272 Y2.91348
G01 X-33.54009 Y2.87533
G01 X-34.20892 Y2.87454
G01 X-34.47931 Y2.87843
G01 X-35.49957 Y2.87622
G01 X-35.51349 Y2.86327
G01 X-35.30229 Y3.09154
G01 X-35.30156 Y3.58841
G01 X-35.30775 Y4.06740
G01 X-35.30519 Y4.60789
G01 X-35.29919 Y4.67919
G01 X-35.33409 Y4.73222
G01 X-35.40587 Y4.87495
G01 X-35.37905 Y4.94690
G01 X-35.37006 Y5.04205
G01 X-35.35825 Y5.09367
G01 X-35.33554 Y5.15155
G01 X-35.31603 Y5.22450
G01 X-35.30620 Y5.32237
G01 X-35.30549 Y6.91891
G01 X-35.30620 Y5.32237
G01 X-35.31603 Y5.22450
G01 X-35.32736 Y5.17713
G01 X-35.35342 Y5.10824
G01 X-35.36803 Y5.05468
G01 X-35.37702 Y4.95717
G01 X-35.39002 Y4.91073
G01 X-35.40587 Y4.87495
G01 X-35.41319 Y4.87436
G01 X-36.56828 Y4.87794
G01 X-36.57303 Y4.75501
G01 X-36.57229 Y3.94035
G01 X-36.84394 Y3.94218
G01 X-37.11148 Y3.95635
G01 X-37.51727 Y4.00149
G01 X-37.62896 Y4.00776
G01 X-38.44112 Y4.00774
G01 X-38.59662 Y3.99725
G01 X-38.70757 Y3.97825
G01 X-38.83642 Y3.95013
G01 X-39.04125 Y3.90360
G01 X-39.09708 Y3.85976
G01 X-39.28476 Y3.91196
G01 X-39.70749 Y4.05242
G01 X-39.86642 Y4.02090
G01 X-39.99870 Y4.00881
G01 X-41.04015 Y4.00789
G01 X-41.37434 Y3.89664
G01 X-41.52415 Y3.82816
G01 X-41.63997 Y3.78076
G01 X-42.30586 Y3.38209
G01 X-42.39875 Y3.25303
G01 X-42.57944 Y3.01874
G01 X-42.83974 Y2.99657
G01 X-42.83865 Y1.12131
G01 X-42.83253 Y1.08036
G01 X-42.81975 Y1.03871
G01 X-42.73774 Y0.83990
G01 X-42.78241 Y0.78153
G01 X-42.81178 Y0.73094
G01 X-42.86623 Y0.62075
G01 X-42.89092 Y0.54742
G01 X-42.89887 Y0.50884
G01 X-42.90532 Y0.43104
G01 X-42.90637 Y0.34968
G01 X-42.90484 Y-0.25397
G01 X-43.57248 Y-0.25397
G01 X-43.57484 Y0.45791
G01 X-43.58150 Y0.51780
G01 X-43.59768 Y0.58318
G01 X-43.63763 Y0.67381
G01 X-43.67944 Y0.75629
G01 X-43.70494 Y0.79715
G01 X-43.70560 Y1.08730
G01 X-43.68008 Y1.12748
G01 X-43.66034 Y1.16914
G01 X-43.64294 Y1.23193
G01 X-43.63959 Y1.26411
G01 X-43.63750 Y1.87140
G01 X-43.64114 Y2.30916
G01 X-43.63519 Y2.99977
G01 X-43.57332 Y3.00754
G01 X-43.57162 Y4.44317
G01 X-43.56133 Y4.52946
G01 X-43.54083 Y4.60108
G01 X-43.38348 Y4.91874
G01 X-43.31693 Y5.06898
G01 X-43.30779 Y5.07677
G01 X-43.30570 Y5.15155
G01 X-43.31602 Y5.27975
G01 X-43.33608 Y5.38104
G01 X-43.77731 Y6.92450
G01 X-44.03928 Y6.92450
G01 X-44.23623 Y6.91873
G01 X-44.51614 Y6.92310
G01 X-44.70537 Y6.91446
G01 X-45.04929 Y6.92310
G01 X-45.16984 Y6.91878
G01 X-45.37362 Y6.92424
G01 X-45.67240 Y6.92323
G01 X-45.83554 Y6.91873
G01 X-46.43145 Y6.92450
G01 X-46.73417 Y6.91167
G01 X-47.00659 Y6.87926
G01 X-47.31024 Y6.81736
G01 X-47.60501 Y6.73377
G01 X-47.93107 Y6.61152
G01 X-48.20915 Y6.48500
G01 X-48.48725 Y6.33578
G01 X-48.83305 Y6.12071
G01 X-49.18923 Y5.86288
G01 X-49.59177 Y5.53067
G01 X-49.99434 Y5.15155
G01 X-50.54318 Y4.56263
G01 X-51.07114 Y3.91444
G01 X-51.47790 Y3.36403
G01 X-51.85339 Y2.81419
G01 X-52.22893 Y2.22415
G01 X-52.62532 Y1.55776
G01 X-53.24632 Y0.42756
G01 X-53.87492 Y-0.25400
G01 X-44.30580 Y-0.25400
G04 P0 ( dwell for no time -- G64 should not smooth over this point )
G00 Z10.00000 ( retract )

G00 X-55.50743 Y39.08793 ( rapid move to begin. )
G01 F30.00000
( Mill infeed pass 1/1 )
G01 Z-0.10000
G04 P0 ( dwell for no time -- G64 should not smooth over this point )
G01 F360.00000
G01 X-55.50743 Y39.08793
G01 X-55.51741 Y39.19383
G01 X-55.53700 Y39.31440
G01 X-55.57390 Y39.41407
G01 X-55.62567 Y39.52789
G01 X-55.67027 Y39.59245
G01 X-55.76557 Y39.71033
G01 X-55.87622 Y39.80028
G01 X-55.94797 Y39.85034
G01 X-56.06382 Y39.90277
G01 X-56.16006 Y39.93848
G01 X-56.27047 Y39.95694
G01 X-56.38800 Y39.96845
G01 X-56.48688 Y39.95936
G01 X-56.67746 Y39.93088
G01 X-56.73397 Y39.97409
G01 X-63.09718 Y46.33730
G01 X-63.12306 Y46.36734
G01 X-63.13094 Y46.43056
G01 X-63.13094 Y47.45797
G01 X-63.15271 Y47.56320
G01 X-63.25791 Y47.58499
G01 X-64.75806 Y47.58499
G01 X-64.86327 Y47.56320
G01 X-64.88504 Y47.45797
G01 X-64.88504 Y45.95787
G01 X-64.86327 Y45.85264
G01 X-64.75806 Y45.83085
G01 X-63.73063 Y45.83085
G01 X-63.66741 Y45.82300
G01 X-63.63736 Y45.79711
G01 X-57.27416 Y39.43391
G01 X-57.23039 Y39.37640
G01 X-57.25485 Y39.22072
G01 X-57.26859 Y39.08793
G01 X-57.25767 Y38.97506
G01 X-57.23824 Y38.86007
G01 X-57.19105 Y38.73525
G01 X-57.15079 Y38.64767
G01 X-57.10265 Y38.57922
G01 X-57.01055 Y38.46535
G01 X-56.92196 Y38.39225
G01 X-56.82800 Y38.32550
G01 X-56.70504 Y38.27013
G01 X-56.61597 Y38.23719
G01 X-56.45142 Y38.21250
G01 X-56.38797 Y38.20747
G01 X-56.35501 Y38.20963
G01 X-56.27218 Y38.21862
G01 X-56.16014 Y38.23764
G01 X-56.03258 Y38.28603
G01 X-55.94772 Y38.32507
G01 X-55.87693 Y38.37501
G01 X-55.76545 Y38.46538
G01 X-55.69054 Y38.55629
G01 X-55.62554 Y38.64788
G01 X-55.56910 Y38.77358
G01 X-55.53720 Y38.85992
G01 X-55.52237 Y38.94579
G01 X-55.50743 Y39.08793
G04 P0 ( dwell for no time -- G64 should not smooth over this point )
G00 Z10.00000 ( retract )

G00 X-27.56743 Y41.62793 ( rapid move to begin. )
G01 F30.00000
( Mill infeed pass 1/1 )
G01 Z-0.10000
G04 P0 ( dwell for no time -- G64 should not smooth over this point )
G01 F360.00000
G01 X-27.56743 Y41.62793
G01 X-27.57907 Y41.74663
G01 X-27.59768 Y41.85580
G01 X-27.64729 Y41.98605
G01 X-27.68511 Y42.06822
G01 X-27.73680 Y42.14132
G01 X-27.82547 Y42.25044
G01 X-27.90914 Y42.31980
G01 X-28.00784 Y42.39054
G01 X-28.13639 Y42.44790
G01 X-28.21998 Y42.47871
G01 X-28.30876 Y42.49395
G01 X-28.44797 Y42.50825
G01 X-28.55770 Y42.49801
G01 X-28.67589 Y42.47833
G01 X-28.79794 Y42.43212
G01 X-28.88826 Y42.39077
G01 X-28.96314 Y42.33781
G01 X-29.07043 Y42.25036
G01 X-29.14170 Y42.16438
G01 X-29.21051 Y42.06801
G01 X-29.26464 Y41.94774
G01 X-29.29875 Y41.85590
G01 X-29.31444 Y41.76415
G01 X-29.32847 Y41.62793
G01 X-29.31767 Y41.51506
G01 X-29.29824 Y41.40007
G01 X-29.25105 Y41.27525
G01 X-29.21079 Y41.18767
G01 X-29.16265 Y41.11922
G01 X-29.07055 Y41.00535
G01 X-28.98196 Y40.93225
G01 X-28.88800 Y40.86550
G01 X-28.76504 Y40.81013
G01 X-28.67597 Y40.77719
G01 X-28.59214 Y40.76263
G01 X-28.44797 Y40.74747
G01 X-28.33218 Y40.75862
G01 X-28.22014 Y40.77764
G01 X-28.09258 Y40.82603
G01 X-28.00772 Y40.86507
G01 X-27.93693 Y40.91501
G01 X-27.82545 Y41.00538
G01 X-27.75054 Y41.09629
G01 X-27.68554 Y41.18788
G01 X-27.62910 Y41.31358
G01 X-27.59720 Y41.39992
G01 X-27.58237 Y41.48579
G01 X-27.56743 Y41.62793
G04 P0 ( dwell for no time -- G64 should not smooth over this point )
G00 Z10.00000 ( retract )

G00 X-7.25091 Y43.41785 ( rapid move to begin. )
G01 F30.00000
( Mill infeed pass 1/1 )
G01 Z-0.10000
G04 P0 ( dwell for no time -- G64 should not smooth over this point )
G01 F360.00000
G01 X-7.25091 Y43.41785
G01 X-7.25091 Y44.91799
G01 X-7.27271 Y45.02318
G01 X-7.37794 Y45.04497
G01 X-8.87806 Y45.04497
G01 X-8.98327 Y45.02320
G01 X-9.00506 Y44.91799
G01 X-9.00506 Y43.41785
G01 X-8.98327 Y43.31264
G01 X-8.87806 Y43.29087
G01 X-7.37794 Y43.29087
G01 X-7.27271 Y43.31266
G01 X-7.25091 Y43.41785
G04 P0 ( dwell for no time -- G64 should not smooth over this point )
G00 Z10.00000 ( retract )

G00 X-7.24743 Y41.62793 ( rapid move to begin. )
G01 F30.00000
( Mill infeed pass 1/1 )
G01 Z-0.10000
G04 P0 ( dwell for no time -- G64 should not smooth over this point )
G01 F360.00000
G01 X-7.24743 Y41.62793
G01 X-7.25907 Y41.74663
G01 X-7.27768 Y41.85577
G01 X-7.32729 Y41.98605
G01 X-7.36511 Y42.06822
G01 X-7.41680 Y42.14132
G01 X-7.50547 Y42.25044
G01 X-7.58914 Y42.31980
G01 X-7.68784 Y42.39054
G01 X-7.81639 Y42.44790
G01 X-7.89998 Y42.47871
G01 X-7.98876 Y42.49395
G01 X-8.12800 Y42.50825
G01 X-8.23770 Y42.49801
G01 X-8.35589 Y42.47833
G01 X-8.47794 Y42.43212
G01 X-8.56826 Y42.39077
G01 X-8.64314 Y42.33781
G01 X-8.75043 Y42.25036
G01 X-8.82170 Y42.16438
G01 X-8.89051 Y42.06801
G01 X-8.94464 Y41.94774
G01 X-8.97875 Y41.85590
G01 X-8.99444 Y41.76415
G01 X-9.00847 Y41.62791
G01 X-8.99767 Y41.51506
G01 X-8.97824 Y41.40007
G01 X-8.93105 Y41.27525
G01 X-8.89079 Y41.18767
G01 X-8.84265 Y41.11922
G01 X-8.75055 Y41.00535
G01 X-8.66196 Y40.93225
G01 X-8.56800 Y40.86550
G01 X-8.44504 Y40.81013
G01 X-8.35596 Y40.77719
G01 X-8.27215 Y40.76263
G01 X-8.12800 Y40.74747
G01 X-8.01218 Y40.75862
G01 X-7.90014 Y40.77764
G01 X-7.77258 Y40.82603
G01 X-7.68772 Y40.86507
G01 X-7.61693 Y40.91501
G01 X-7.50545 Y41.00538
G01 X-7.43054 Y41.09629
G01 X-7.36554 Y41.18788
G01 X-7.30910 Y41.31358
G01 X-7.27720 Y41.39994
G01 X-7.26237 Y41.48579
G01 X-7.24743 Y41.62793

G04 P0 ( dwell for no time -- G64 should not smooth over this point )
G00 Z50.000000 ( retract )

M5 ( Spindle off. )
G04 P1.000000
M9 ( Coolant off. )
M2 ( Program end. )

