( pcb2gcode 1.3.2 )
( Software-independent Gcode )

G94 ( Millimeters per minute feed rate. )
G21 ( Units == Millimeters. )

G90 ( Absolute coordinates. )
G00 S10000 ( RPM spindle speed. )
G01 F360.00000 ( Feedrate. )


G00 Z50.00000 (Retract to tool change height)
T0
M5      (Spindle stop.)
G04 P1.00000 (Wait for spindle to stop)
(MSG, Change tool bit to mill diameter 0.50800mm)
M6      (Tool change.)
M0      (Temporary machine stop.)
M3 ( Spindle on clockwise. )
G04 P1.00000 (Wait for spindle to get up to speed)
G04 P0 ( dwell for no time -- G64 should not smooth over this point )
G00 Z10.00000 ( retract )

G00 X-19.07367 Y0.25400 ( rapid move to begin. )
G01 F30.00000
G01 Z-0.10000
G04 P0 ( dwell for no time -- G64 should not smooth over this point )
G01 F360.00000
G01 X-19.07367 Y0.25400
G01 X-0.25400 Y0.25400
G01 X-0.25400 Y49.50193
G01 X-71.88200 Y49.50193
G01 X-71.88200 Y0.25400
G01 X-19.07367 Y0.25400
G01 X-20.20761 Y1.40754
G01 X-20.83514 Y2.00774
G01 X-21.40801 Y2.60795
G01 X-22.20785 Y3.40779
G01 X-22.84451 Y4.00550
G01 X-23.40800 Y4.60794
G01 X-24.20788 Y5.40781
G01 X-24.51214 Y5.69765
G01 X-24.81643 Y5.95854
G01 X-25.33193 Y6.34045
G01 X-25.84742 Y6.63880
G01 X-26.22573 Y6.80877
G01 X-26.64564 Y6.94411
G01 X-27.15049 Y7.03824
G01 X-27.65996 Y7.05333
G01 X-28.03586 Y7.01563
G01 X-28.44668 Y6.92343
G01 X-27.98318 Y5.26816
G01 X-27.97716 Y5.07655
G01 X-28.20566 Y4.61157
G01 X-28.23129 Y4.52219
G01 X-28.24107 Y3.97807
G01 X-27.90546 Y4.00787
G01 X-22.84451 Y4.00550
G04 P0 ( dwell for no time -- G64 should not smooth over this point )
G00 Z10.00000 ( retract )

G00 X-20.83514 Y2.00774 ( rapid move to begin. )
G01 F30.00000
G01 Z-0.10000
G04 P0 ( dwell for no time -- G64 should not smooth over this point )
G01 F360.00000
G01 X-20.83514 Y2.00774
G01 X-27.51839 Y2.00716
G01 X-27.77432 Y2.03726
G01 X-28.23967 Y1.97861
G01 X-28.23652 Y2.49319
G01 X-28.20093 Y2.62034
G01 X-28.11419 Y2.80726
G01 X-28.16715 Y2.94688
G01 X-28.19316 Y3.10779
G01 X-28.47858 Y3.87535
G01 X-28.24107 Y3.97807
G04 P0 ( dwell for no time -- G64 should not smooth over this point )
G00 Z10.00000 ( retract )

G00 X-28.47858 Y3.87535 ( rapid move to begin. )
G01 F30.00000
G01 Z-0.10000
G04 P0 ( dwell for no time -- G64 should not smooth over this point )
G01 F360.00000
G01 X-28.47858 Y3.87535
G01 X-28.80644 Y3.87076
G01 X-29.04180 Y4.34256
G01 X-29.03309 Y4.50723
G01 X-28.97830 Y4.69577
G01 X-28.97256 Y5.04119
G01 X-28.92260 Y5.20068
G01 X-28.90832 Y5.30603
G01 X-28.91569 Y6.91827
G01 X-28.44668 Y6.92343
G04 P0 ( dwell for no time -- G64 should not smooth over this point )
G00 Z10.00000 ( retract )

G00 X-28.91569 Y6.91827 ( rapid move to begin. )
G01 F30.00000
G01 Z-0.10000
G04 P0 ( dwell for no time -- G64 should not smooth over this point )
G01 F360.00000
G01 X-28.91569 Y6.91827
G01 X-29.83418 Y6.91817
G01 X-29.84160 Y5.33578
G01 X-29.82557 Y5.20169
G01 X-29.77617 Y5.04093
G01 X-29.77444 Y4.71843
G01 X-30.07929 Y3.87441
G01 X-29.77063 Y3.76232
G04 P0 ( dwell for no time -- G64 should not smooth over this point )
G00 Z10.00000 ( retract )

G00 X-28.44912 Y4.74129 ( rapid move to begin. )
G01 F30.00000
G01 Z-0.10000
G04 P0 ( dwell for no time -- G64 should not smooth over this point )
G01 F360.00000
G01 X-28.44912 Y4.74129
G01 X-28.48252 Y4.70792
G01 X-28.74096 Y4.70789
G01 X-28.74096 Y4.77469
G01 X-28.48252 Y4.77472
G01 X-28.44912 Y4.74129
G04 P0 ( dwell for no time -- G64 should not smooth over this point )
G00 Z10.00000 ( retract )

G00 X-30.01541 Y4.97459 ( rapid move to begin. )
G01 F30.00000
G01 Z-0.10000
G04 P0 ( dwell for no time -- G64 should not smooth over this point )
G01 F360.00000
G01 X-30.01541 Y4.97459
G01 X-30.08196 Y5.04116
G01 X-30.26562 Y5.04116
G01 X-30.33217 Y4.97459
G01 X-30.01541 Y4.97459
G04 P0 ( dwell for no time -- G64 should not smooth over this point )
G00 Z10.00000 ( retract )

G00 X-30.07929 Y3.87441 ( rapid move to begin. )
G01 F30.00000
G01 Z-0.10000
G04 P0 ( dwell for no time -- G64 should not smooth over this point )
G01 F360.00000
G01 X-30.07929 Y3.87441
G01 X-30.37380 Y3.83804
G01 X-30.50695 Y3.87447
G01 X-30.50078 Y4.67832
G01 X-30.56362 Y4.80248
G01 X-30.57370 Y5.00733
G01 X-30.52196 Y5.20169
G01 X-30.50720 Y5.33893
G01 X-30.50532 Y6.91881
G01 X-29.83418 Y6.91817
G04 P0 ( dwell for no time -- G64 should not smooth over this point )
G00 Z10.00000 ( retract )

G00 X-30.50532 Y6.91881 ( rapid move to begin. )
G01 F30.00000
G01 Z-0.10000
G04 P0 ( dwell for no time -- G64 should not smooth over this point )
G01 F360.00000
G01 X-30.50532 Y6.91881
G01 X-31.34360 Y6.91650
G01 X-31.67654 Y5.40781
G01 X-31.70088 Y5.25676
G01 X-31.70502 Y5.09915
G01 X-31.65709 Y4.79966
G01 X-31.50677 Y4.42285
G01 X-31.50677 Y4.09214
G01 X-31.24007 Y3.96532
G04 P0 ( dwell for no time -- G64 should not smooth over this point )
G00 Z10.00000 ( retract )

G00 X-31.50677 Y4.09214 ( rapid move to begin. )
G01 F30.00000
G01 Z-0.10000
G04 P0 ( dwell for no time -- G64 should not smooth over this point )
G01 F360.00000
G01 X-31.50677 Y4.09214
G01 X-31.83989 Y3.91051
G01 X-31.83832 Y3.40060
G01 X-31.78002 Y3.09428
G01 X-31.77327 Y2.83850
G01 X-31.89473 Y2.48498
G01 X-31.90832 Y2.03058
G01 X-31.56227 Y1.91265
G01 X-31.32793 Y1.79738
G01 X-31.17426 Y1.87437
G04 P0 ( dwell for no time -- G64 should not smooth over this point )
G00 Z10.00000 ( retract )

G00 X-30.37533 Y1.91526 ( rapid move to begin. )
G01 F30.00000
G01 Z-0.10000
G04 P0 ( dwell for no time -- G64 should not smooth over this point )
G01 F360.00000
G01 X-30.37533 Y1.91526
G01 X-30.75602 Y1.93939
G01 X-31.17426 Y1.87437
G01 X-31.18241 Y2.52181
G01 X-31.20575 Y2.60467
G01 X-31.30212 Y2.79933
G01 X-31.26415 Y2.92478
G01 X-31.24007 Y2.94477
G01 X-31.24007 Y3.96532
G01 X-30.91856 Y3.89031
G01 X-30.50695 Y3.87447
G04 P0 ( dwell for no time -- G64 should not smooth over this point )
G00 Z10.00000 ( retract )

G00 X-30.37380 Y3.83804 ( rapid move to begin. )
G01 F30.00000
G01 Z-0.10000
G04 P0 ( dwell for no time -- G64 should not smooth over this point )
G01 F360.00000
G01 X-30.37380 Y3.83804
G01 X-30.37134 Y3.39989
G01 X-30.30741 Y3.02712
G01 X-30.33004 Y2.85039
G01 X-30.37380 Y2.80906
G01 X-30.37533 Y1.91526
G01 X-30.27423 Y1.87460
G04 P0 ( dwell for no time -- G64 should not smooth over this point )
G00 Z10.00000 ( retract )

G00 X-29.57492 Y0.25400 ( rapid move to begin. )
G01 F30.00000
G01 Z-0.10000
G04 P0 ( dwell for no time -- G64 should not smooth over this point )
G01 F360.00000
G01 X-29.57492 Y0.25400
G01 X-29.57038 Y0.66037
G01 X-29.50700 Y0.83833
G01 X-29.50533 Y1.85595
G04 P0 ( dwell for no time -- G64 should not smooth over this point )
G00 Z10.00000 ( retract )

G00 X-29.03875 Y1.91092 ( rapid move to begin. )
G01 F30.00000
G01 Z-0.10000
G04 P0 ( dwell for no time -- G64 should not smooth over this point )
G01 F360.00000
G01 X-29.03875 Y1.91092
G01 X-29.50533 Y1.85595
G01 X-29.63913 Y1.89202
G01 X-29.64716 Y2.56334
G01 X-29.69163 Y2.70838
G01 X-29.77947 Y2.83484
G01 X-29.80116 Y2.92666
G01 X-29.77297 Y3.10190
G01 X-29.77063 Y3.76232
G01 X-29.37406 Y3.71246
G01 X-28.90685 Y3.81551
G04 P0 ( dwell for no time -- G64 should not smooth over this point )
G00 Z10.00000 ( retract )

G00 X-28.80644 Y3.87076 ( rapid move to begin. )
G01 F30.00000
G01 Z-0.10000
G04 P0 ( dwell for no time -- G64 should not smooth over this point )
G01 F360.00000
G01 X-28.80644 Y3.87076
G01 X-28.90685 Y3.81551
G01 X-28.91506 Y3.24322
G01 X-28.99821 Y3.00774
G01 X-29.04061 Y2.77904
G01 X-29.01950 Y2.61828
G01 X-29.04002 Y2.47134
G01 X-29.03875 Y1.91092
G01 X-28.90517 Y1.87391
G04 P0 ( dwell for no time -- G64 should not smooth over this point )
G00 Z10.00000 ( retract )

G00 X-27.60789 Y0.97460 ( rapid move to begin. )
G01 F30.00000
G01 Z-0.10000
G04 P0 ( dwell for no time -- G64 should not smooth over this point )
G01 F360.00000
G01 X-27.60789 Y0.97460
G01 X-27.60789 Y1.30759
G01 X-27.86639 Y1.30762
G01 X-27.94114 Y1.23299
G01 X-27.94114 Y1.04922
G01 X-27.86639 Y0.97460
G01 X-27.60789 Y0.97460
G04 P0 ( dwell for no time -- G64 should not smooth over this point )
G00 Z10.00000 ( retract )

G00 X-28.48506 Y1.87183 ( rapid move to begin. )
G01 F30.00000
G01 Z-0.10000
G04 P0 ( dwell for no time -- G64 should not smooth over this point )
G01 F360.00000
G01 X-28.48506 Y1.87183
G01 X-28.90517 Y1.87391
G01 X-28.90919 Y0.87798
G01 X-28.73990 Y0.74953
G01 X-28.71379 Y0.70642
G01 X-28.70705 Y0.25400
G04 P0 ( dwell for no time -- G64 should not smooth over this point )
G00 Z10.00000 ( retract )

G00 X-27.90797 Y0.25400 ( rapid move to begin. )
G01 F30.00000
G01 Z-0.10000
G04 P0 ( dwell for no time -- G64 should not smooth over this point )
G01 F360.00000
G01 X-27.90797 Y0.25400
G01 X-27.90673 Y0.43972
G01 X-28.04020 Y0.64107
G01 X-28.15237 Y0.89624
G01 X-28.17132 Y0.96190
G01 X-28.17551 Y1.16190
G01 X-28.19248 Y1.23810
G01 X-28.43990 Y1.73043
G01 X-28.48506 Y1.87183
G01 X-28.23967 Y1.97861
G04 P0 ( dwell for no time -- G64 should not smooth over this point )
G00 Z10.00000 ( retract )

G00 X-27.60789 Y2.97459 ( rapid move to begin. )
G01 F30.00000
G01 Z-0.10000
G04 P0 ( dwell for no time -- G64 should not smooth over this point )
G01 F360.00000
G01 X-27.60789 Y2.97459
G01 X-27.86639 Y2.97459
G01 X-27.94114 Y3.04922
G01 X-27.94114 Y3.23306
G01 X-27.86634 Y3.30784
G01 X-27.60789 Y3.30784
G01 X-27.60789 Y2.97459
G04 P0 ( dwell for no time -- G64 should not smooth over this point )
G00 Z10.00000 ( retract )

G00 X-28.41597 Y2.97459 ( rapid move to begin. )
G01 F30.00000
G01 Z-0.10000
G04 P0 ( dwell for no time -- G64 should not smooth over this point )
G01 F360.00000
G01 X-28.41597 Y2.97459
G01 X-28.73273 Y2.97459
G01 X-28.66619 Y3.04117
G01 X-28.48252 Y3.04117
G01 X-28.41597 Y2.97459
G04 P0 ( dwell for no time -- G64 should not smooth over this point )
G00 Z10.00000 ( retract )

G00 X-29.63913 Y1.89202 ( rapid move to begin. )
G01 F30.00000
G01 Z-0.10000
G04 P0 ( dwell for no time -- G64 should not smooth over this point )
G01 F360.00000
G01 X-29.63913 Y1.89202
G01 X-29.91203 Y1.87424
G01 X-30.27423 Y1.87460
G01 X-30.37294 Y1.47523
G01 X-30.37634 Y1.29088
G01 X-30.39582 Y1.17709
G01 X-30.50703 Y0.95423
G01 X-30.50799 Y0.72166
G01 X-30.56573 Y0.47069
G01 X-30.57342 Y0.25400
G04 P0 ( dwell for no time -- G64 should not smooth over this point )
G00 Z10.00000 ( retract )

G00 X-31.43923 Y0.25400 ( rapid move to begin. )
G01 F30.00000
G01 Z-0.10000
G04 P0 ( dwell for no time -- G64 should not smooth over this point )
G01 F360.00000
G01 X-31.43923 Y0.25400
G01 X-31.43928 Y0.59718
G01 X-31.41000 Y0.87432
G01 X-31.43428 Y1.02545
G01 X-31.43621 Y1.22466
G01 X-31.32793 Y1.79738
G04 P0 ( dwell for no time -- G64 should not smooth over this point )
G00 Z10.00000 ( retract )

G00 X-32.13974 Y0.70790 ( rapid move to begin. )
G01 F30.00000
G01 Z-0.10000
G04 P0 ( dwell for no time -- G64 should not smooth over this point )
G01 F360.00000
G01 X-32.13974 Y0.70790
G01 X-32.39821 Y0.70792
G01 X-32.47299 Y0.78270
G01 X-32.47299 Y1.23299
G01 X-32.39826 Y1.30762
G01 X-32.13974 Y1.30759
G01 X-32.13974 Y0.70790
G04 P0 ( dwell for no time -- G64 should not smooth over this point )
G00 Z10.00000 ( retract )

G00 X-32.70540 Y0.25400 ( rapid move to begin. )
G01 F30.00000
G01 Z-0.10000
G04 P0 ( dwell for no time -- G64 should not smooth over this point )
G01 F360.00000
G01 X-32.70540 Y0.25400
G01 X-32.70730 Y0.76418
G01 X-32.79478 Y1.00879
G01 X-32.77507 Y1.09944
G01 X-32.78152 Y1.22522
G01 X-32.90717 Y1.60934
G01 X-33.01698 Y1.88435
G01 X-32.63913 Y2.00777
G04 P0 ( dwell for no time -- G64 should not smooth over this point )
G00 Z10.00000 ( retract )

G00 X-33.01698 Y1.88435 ( rapid move to begin. )
G01 F30.00000
G01 Z-0.10000
G04 P0 ( dwell for no time -- G64 should not smooth over this point )
G01 F360.00000
G01 X-33.01698 Y1.88435
G01 X-33.10829 Y1.89817
G01 X-33.34060 Y1.87142
G01 X-33.43847 Y1.47523
G01 X-33.44164 Y1.29108
G01 X-33.46064 Y1.17732
G01 X-33.57268 Y0.95433
G01 X-33.57387 Y0.71199
G01 X-33.63333 Y0.45758
G01 X-33.63943 Y0.25400
G04 P0 ( dwell for no time -- G64 should not smooth over this point )
G00 Z10.00000 ( retract )

G00 X-32.98099 Y0.74132 ( rapid move to begin. )
G01 F30.00000
G01 Z-0.10000
G04 P0 ( dwell for no time -- G64 should not smooth over this point )
G01 F360.00000
G01 X-32.98099 Y0.74132
G01 X-33.01439 Y0.70792
G01 X-33.27286 Y0.70792
G01 X-33.27286 Y0.77473
G01 X-33.01439 Y0.77473
G01 X-32.98099 Y0.74132
G04 P0 ( dwell for no time -- G64 should not smooth over this point )
G00 Z10.00000 ( retract )

G00 X-34.17260 Y0.25400 ( rapid move to begin. )
G01 F30.00000
G01 Z-0.10000
G04 P0 ( dwell for no time -- G64 should not smooth over this point )
G01 F360.00000
G01 X-34.17260 Y0.25400
G01 X-34.15871 Y0.49992
G01 X-34.03915 Y0.85174
G01 X-34.03915 Y0.91120
G01 X-34.15678 Y1.24140
G01 X-34.17247 Y1.53477
G01 X-34.25368 Y1.94089
G01 X-33.79701 Y1.94137
G01 X-33.50600 Y1.92115
G04 P0 ( dwell for no time -- G64 should not smooth over this point )
G00 Z10.00000 ( retract )

G00 X-33.34060 Y1.87142 ( rapid move to begin. )
G01 F30.00000
G01 Z-0.10000
G04 P0 ( dwell for no time -- G64 should not smooth over this point )
G01 F360.00000
G01 X-33.34060 Y1.87142
G01 X-33.50600 Y1.92115
G01 X-33.50611 Y2.74455
G01 X-33.53946 Y2.87434
G01 X-33.44705 Y3.24185
G01 X-33.43933 Y3.86121
G01 X-33.03951 Y3.88785
G04 P0 ( dwell for no time -- G64 should not smooth over this point )
G00 Z10.00000 ( retract )

G00 X-33.24743 Y4.74129 ( rapid move to begin. )
G01 F30.00000
G01 Z-0.10000
G04 P0 ( dwell for no time -- G64 should not smooth over this point )
G01 F360.00000
G01 X-33.24743 Y4.74129
G01 X-33.28083 Y4.70792
G01 X-33.53930 Y4.70792
G01 X-33.53930 Y4.77472
G01 X-33.28083 Y4.77472
G01 X-33.24743 Y4.74129
G04 P0 ( dwell for no time -- G64 should not smooth over this point )
G00 Z10.00000 ( retract )

G00 X-31.34360 Y6.91650 ( rapid move to begin. )
G01 F30.00000
G01 Z-0.10000
G04 P0 ( dwell for no time -- G64 should not smooth over this point )
G01 F360.00000
G01 X-31.34360 Y6.91650
G01 X-31.65368 Y6.99328
G01 X-31.96377 Y7.03915
G01 X-32.28609 Y7.05777
G01 X-33.03323 Y7.05114
G01 X-33.36757 Y7.01563
G01 X-33.78263 Y6.92224
G01 X-33.70890 Y6.61647
G01 X-33.45165 Y5.97200
G01 X-33.31464 Y5.69407
G01 X-33.11093 Y5.37848
G01 X-33.04891 Y5.22491
G01 X-33.04228 Y5.09951
G01 X-33.06188 Y5.00870
G01 X-32.98845 Y4.83138
G01 X-32.97296 Y4.74454
G01 X-33.03473 Y4.49255
G01 X-33.03951 Y3.88785
G01 X-32.63961 Y3.87487
G01 X-32.57301 Y3.89273
G01 X-32.36252 Y3.87594
G01 X-31.83989 Y3.91051
G04 P0 ( dwell for no time -- G64 should not smooth over this point )
G00 Z10.00000 ( retract )

G00 X-32.13974 Y2.78270 ( rapid move to begin. )
G01 F30.00000
G01 Z-0.10000
G04 P0 ( dwell for no time -- G64 should not smooth over this point )
G01 F360.00000
G01 X-32.13974 Y2.78270
G01 X-32.13974 Y2.96636
G01 X-32.21454 Y3.04117
G01 X-32.39821 Y3.04117
G01 X-32.47299 Y2.96636
G01 X-32.47299 Y2.78270
G01 X-32.39821 Y2.70792
G01 X-32.21454 Y2.70792
G01 X-32.13974 Y2.78270
G04 P0 ( dwell for no time -- G64 should not smooth over this point )
G00 Z10.00000 ( retract )

G00 X-31.90832 Y2.03058 ( rapid move to begin. )
G01 F30.00000
G01 Z-0.10000
G04 P0 ( dwell for no time -- G64 should not smooth over this point )
G01 F360.00000
G01 X-31.90832 Y2.03058
G01 X-32.15025 Y2.00807
G01 X-32.63913 Y2.00777
G01 X-32.63958 Y2.44211
G01 X-32.70397 Y2.70815
G01 X-32.70628 Y3.00754
G01 X-32.64083 Y3.31236
G01 X-32.63961 Y3.87487
G04 P0 ( dwell for no time -- G64 should not smooth over this point )
G00 Z10.00000 ( retract )

G00 X-33.53946 Y2.87434 ( rapid move to begin. )
G01 F30.00000
G01 Z-0.10000
G04 P0 ( dwell for no time -- G64 should not smooth over this point )
G01 F360.00000
G01 X-33.53946 Y2.87434
G01 X-35.50178 Y2.87454
G01 X-35.30597 Y3.08747
G01 X-35.09320 Y3.28160
G01 X-34.63770 Y3.63301
G01 X-34.30572 Y3.78346
G01 X-34.04159 Y3.85552
G01 X-33.77555 Y3.88005
G04 P0 ( dwell for no time -- G64 should not smooth over this point )
G00 Z10.00000 ( retract )

G00 X-33.43933 Y3.86121 ( rapid move to begin. )
G01 F30.00000
G01 Z-0.10000
G04 P0 ( dwell for no time -- G64 should not smooth over this point )
G01 F360.00000
G01 X-33.43933 Y3.86121
G01 X-33.77555 Y3.88005
G01 X-33.77260 Y5.00774
G01 X-33.70725 Y5.31223
G01 X-33.70890 Y6.61647
G04 P0 ( dwell for no time -- G64 should not smooth over this point )
G00 Z10.00000 ( retract )

G00 X-33.78263 Y6.92224 ( rapid move to begin. )
G01 F30.00000
G01 Z-0.10000
G04 P0 ( dwell for no time -- G64 should not smooth over this point )
G01 F360.00000
G01 X-33.78263 Y6.92224
G01 X-34.57585 Y6.91421
G01 X-34.57232 Y4.74152
G01 X-34.63760 Y4.43814
G01 X-34.63770 Y3.63301
G04 P0 ( dwell for no time -- G64 should not smooth over this point )
G00 Z10.00000 ( retract )

G00 X-35.50178 Y2.87454 ( rapid move to begin. )
G01 F30.00000
G01 Z-0.10000
G04 P0 ( dwell for no time -- G64 should not smooth over this point )
G01 F360.00000
G01 X-35.50178 Y2.87454
G01 X-35.51248 Y2.86456
G01 X-34.90107 Y2.29461
G04 P0 ( dwell for no time -- G64 should not smooth over this point )
G00 Z10.00000 ( retract )

G00 X-34.25368 Y1.94089 ( rapid move to begin. )
G01 F30.00000
G01 Z-0.10000
G04 P0 ( dwell for no time -- G64 should not smooth over this point )
G01 F360.00000
G01 X-34.25368 Y1.94089
G01 X-34.43910 Y2.02651
G01 X-34.90107 Y2.29461
G01 X-34.90689 Y1.31224
G01 X-34.92241 Y1.19588
G01 X-35.00562 Y0.87432
G01 X-34.89848 Y0.67727
G01 X-34.90554 Y0.25400
G04 P0 ( dwell for no time -- G64 should not smooth over this point )
G00 Z10.00000 ( retract )

G00 X-34.41393 Y0.97460 ( rapid move to begin. )
G01 F30.00000
G01 Z-0.10000
G04 P0 ( dwell for no time -- G64 should not smooth over this point )
G01 F360.00000
G01 X-34.41393 Y0.97460
G01 X-34.48047 Y1.04117
G01 X-34.66414 Y1.04117
G01 X-34.73069 Y0.97460
G01 X-34.41393 Y0.97460
G04 P0 ( dwell for no time -- G64 should not smooth over this point )
G00 Z10.00000 ( retract )

G00 X-35.00562 Y0.87432 ( rapid move to begin. )
G01 F30.00000
G01 Z-0.10000
G04 P0 ( dwell for no time -- G64 should not smooth over this point )
G01 F360.00000
G01 X-35.00562 Y0.87432
G01 X-36.38517 Y0.87455
G01 X-36.37310 Y0.25400
G04 P0 ( dwell for no time -- G64 should not smooth over this point )
G00 Z10.00000 ( retract )

G00 X-36.38517 Y0.87455 ( rapid move to begin. )
G01 F30.00000
G01 Z-0.10000
G04 P0 ( dwell for no time -- G64 should not smooth over this point )
G01 F360.00000
G01 X-36.38517 Y0.87455
G01 X-36.39739 Y0.94430
G01 X-36.32606 Y2.00950
G01 X-35.73671 Y2.84051
G01 X-35.51248 Y2.86456
G04 P0 ( dwell for no time -- G64 should not smooth over this point )
G00 Z10.00000 ( retract )

G00 X-35.30597 Y3.08747 ( rapid move to begin. )
G01 F30.00000
G01 Z-0.10000
G04 P0 ( dwell for no time -- G64 should not smooth over this point )
G01 F360.00000
G01 X-35.30597 Y3.08747
G01 X-35.29968 Y4.67832
G01 X-35.40455 Y4.87429
G01 X-35.32162 Y5.19613
G01 X-35.30669 Y5.31223
G01 X-35.30547 Y6.91871
G01 X-34.57585 Y6.91421
G04 P0 ( dwell for no time -- G64 should not smooth over this point )
G00 Z10.00000 ( retract )

G00 X-35.30547 Y6.91871 ( rapid move to begin. )
G01 F30.00000
G01 Z-0.10000
G04 P0 ( dwell for no time -- G64 should not smooth over this point )
G01 F360.00000
G01 X-35.30547 Y6.91871
G01 X-35.82253 Y6.91954
G01 X-36.34654 Y6.85328
G01 X-36.55416 Y5.40725
G01 X-36.57239 Y5.17116
G01 X-36.56866 Y4.87454
G01 X-35.40455 Y4.87429
G04 P0 ( dwell for no time -- G64 should not smooth over this point )
G00 Z10.00000 ( retract )

G00 X-34.81372 Y4.97459 ( rapid move to begin. )
G01 F30.00000
G01 Z-0.10000
G04 P0 ( dwell for no time -- G64 should not smooth over this point )
G01 F360.00000
G01 X-34.81372 Y4.97459
G01 X-35.13074 Y4.97459
G01 X-35.06419 Y5.04116
G01 X-34.88027 Y5.04116
G01 X-34.81372 Y4.97459
G04 P0 ( dwell for no time -- G64 should not smooth over this point )
G00 Z10.00000 ( retract )

G00 X-36.34654 Y6.85328 ( rapid move to begin. )
G01 F30.00000
G01 Z-0.10000
G04 P0 ( dwell for no time -- G64 should not smooth over this point )
G01 F360.00000
G01 X-36.34654 Y6.85328
G01 X-36.87115 Y6.99549
G01 X-37.17625 Y7.04118
G01 X-37.48136 Y7.05688
G01 X-38.21354 Y7.04279
G01 X-38.73505 Y6.95394
G01 X-38.67937 Y6.38637
G01 X-38.44478 Y5.79354
G01 X-38.27056 Y5.29560
G01 X-38.14280 Y5.00705
G01 X-38.17396 Y4.89461
G01 X-38.17242 Y4.00789
G01 X-37.61842 Y4.00779
G01 X-36.99259 Y3.94604
G01 X-36.57371 Y3.94178
G04 P0 ( dwell for no time -- G64 should not smooth over this point )
G00 Z10.00000 ( retract )

G00 X-37.60785 Y2.78270 ( rapid move to begin. )
G01 F30.00000
G01 Z-0.10000
G04 P0 ( dwell for no time -- G64 should not smooth over this point )
G01 F360.00000
G01 X-37.60785 Y2.78270
G01 X-37.60785 Y3.23306
G01 X-37.68265 Y3.30784
G01 X-37.86650 Y3.30784
G01 X-37.94110 Y3.23312
G01 X-37.94110 Y2.78265
G01 X-37.86650 Y2.70792
G01 X-37.68265 Y2.70792
G01 X-37.60785 Y2.78270
G04 P0 ( dwell for no time -- G64 should not smooth over this point )
G00 Z10.00000 ( retract )

G00 X-38.40772 Y4.78269 ( rapid move to begin. )
G01 F30.00000
G01 Z-0.10000
G04 P0 ( dwell for no time -- G64 should not smooth over this point )
G01 F360.00000
G01 X-38.40772 Y4.78269
G01 X-38.40772 Y4.96636
G01 X-38.48250 Y5.04116
G01 X-38.66617 Y5.04116
G01 X-38.74097 Y4.96636
G01 X-38.74097 Y4.78269
G01 X-38.66617 Y4.70792
G01 X-38.48250 Y4.70792
G01 X-38.40772 Y4.78269
G04 P0 ( dwell for no time -- G64 should not smooth over this point )
G00 Z10.00000 ( retract )

G00 X-37.60785 Y4.70789 ( rapid move to begin. )
G01 F30.00000
G01 Z-0.10000
G04 P0 ( dwell for no time -- G64 should not smooth over this point )
G01 F360.00000
G01 X-37.60785 Y4.70789
G01 X-37.60785 Y4.90779
G01 X-37.86657 Y4.90779
G01 X-37.94112 Y4.83326
G01 X-37.94112 Y4.78264
G01 X-37.86650 Y4.70792
G01 X-37.60785 Y4.70789
G04 P0 ( dwell for no time -- G64 should not smooth over this point )
G00 Z10.00000 ( retract )

G00 X-37.60785 Y5.10769 ( rapid move to begin. )
G01 F30.00000
G01 Z-0.10000
G04 P0 ( dwell for no time -- G64 should not smooth over this point )
G01 F360.00000
G01 X-37.60785 Y5.10769
G01 X-37.60785 Y5.30786
G01 X-37.86650 Y5.30784
G01 X-37.94112 Y5.23311
G01 X-37.94112 Y5.18244
G01 X-37.86650 Y5.10771
G01 X-37.60785 Y5.10769
G04 P0 ( dwell for no time -- G64 should not smooth over this point )
G00 Z10.00000 ( retract )

G00 X-36.56866 Y4.87454 ( rapid move to begin. )
G01 F30.00000
G01 Z-0.10000
G04 P0 ( dwell for no time -- G64 should not smooth over this point )
G01 F360.00000
G01 X-36.56866 Y4.87454
G01 X-36.57371 Y3.94178
G01 X-36.09691 Y3.27444
G01 X-35.93026 Y3.05747
G01 X-35.73671 Y2.84051
G04 P0 ( dwell for no time -- G64 should not smooth over this point )
G00 Z10.00000 ( retract )

G00 X-36.32606 Y2.00950 ( rapid move to begin. )
G01 F30.00000
G01 Z-0.10000
G04 P0 ( dwell for no time -- G64 should not smooth over this point )
G01 F360.00000
G01 X-36.32606 Y2.00950
G01 X-37.69076 Y2.00652
G01 X-37.97557 Y1.96337
G01 X-37.97201 Y1.66627
G01 X-37.90800 Y1.29609
G01 X-37.92444 Y1.00785
G01 X-37.90861 Y0.83866
G01 X-37.95446 Y0.73579
G01 X-38.02903 Y0.48517
G01 X-38.04221 Y0.25400
G04 P0 ( dwell for no time -- G64 should not smooth over this point )
G00 Z10.00000 ( retract )

G00 X-38.27437 Y0.78270 ( rapid move to begin. )
G01 F30.00000
G01 Z-0.10000
G04 P0 ( dwell for no time -- G64 should not smooth over this point )
G01 F360.00000
G01 X-38.27437 Y0.78270
G01 X-38.27437 Y0.83320
G01 X-38.34910 Y0.90780
G01 X-38.53287 Y0.90780
G01 X-38.60762 Y0.83320
G01 X-38.60762 Y0.78270
G01 X-38.53282 Y0.70792
G01 X-38.34915 Y0.70792
G01 X-38.27437 Y0.78270
G04 P0 ( dwell for no time -- G64 should not smooth over this point )
G00 Z10.00000 ( retract )

G00 X-38.27437 Y1.18250 ( rapid move to begin. )
G01 F30.00000
G01 Z-0.10000
G04 P0 ( dwell for no time -- G64 should not smooth over this point )
G01 F360.00000
G01 X-38.27437 Y1.18250
G01 X-38.27437 Y1.23299
G01 X-38.34910 Y1.30762
G01 X-38.53287 Y1.30762
G01 X-38.60762 Y1.23299
G01 X-38.60762 Y1.18250
G01 X-38.53282 Y1.10769
G01 X-38.34915 Y1.10769
G01 X-38.27437 Y1.18250
G04 P0 ( dwell for no time -- G64 should not smooth over this point )
G00 Z10.00000 ( retract )

G00 X-38.77338 Y0.25400 ( rapid move to begin. )
G01 F30.00000
G01 Z-0.10000
G04 P0 ( dwell for no time -- G64 should not smooth over this point )
G01 F360.00000
G01 X-38.77338 Y0.25400
G01 X-38.77681 Y0.46731
G01 X-38.79972 Y0.58275
G01 X-38.92809 Y0.87315
G01 X-38.96484 Y1.00833
G01 X-39.02913 Y1.11879
G01 X-39.11712 Y1.33627
G01 X-39.21755 Y1.84907
G04 P0 ( dwell for no time -- G64 should not smooth over this point )
G00 Z10.00000 ( retract )

G00 X-38.77338 Y2.00790 ( rapid move to begin. )
G01 F30.00000
G01 Z-0.10000
G04 P0 ( dwell for no time -- G64 should not smooth over this point )
G01 F360.00000
G01 X-38.77338 Y2.00790
G01 X-39.21755 Y1.84907
G01 X-39.29586 Y1.87099
G01 X-39.44036 Y1.96332
G01 X-39.42613 Y2.45486
G01 X-39.37851 Y2.67437
G01 X-39.35882 Y2.86652
G01 X-39.26769 Y3.07673
G01 X-39.04224 Y3.34338
G01 X-38.83993 Y3.11648
G01 X-38.76197 Y2.98115
G01 X-38.72281 Y2.86662
G01 X-38.77285 Y2.63954
G01 X-38.77338 Y2.00790
G01 X-38.10828 Y2.00792
G04 P0 ( dwell for no time -- G64 should not smooth over this point )
G00 Z10.00000 ( retract )

G00 X-37.97557 Y1.96337 ( rapid move to begin. )
G01 F30.00000
G01 Z-0.10000
G04 P0 ( dwell for no time -- G64 should not smooth over this point )
G01 F360.00000
G01 X-37.97557 Y1.96337
G01 X-38.10828 Y2.00792
G01 X-38.11758 Y2.52225
G01 X-38.14036 Y2.60467
G01 X-38.24097 Y2.79611
G01 X-38.24046 Y3.08618
G01 X-38.19256 Y3.17406
G01 X-38.17526 Y3.24670
G01 X-38.17242 Y4.00789
G01 X-38.60942 Y3.99621
G01 X-39.04183 Y3.90388
G01 X-39.04061 Y4.95430
G01 X-38.92786 Y5.18089
G01 X-38.90317 Y5.49384
G01 X-38.67937 Y6.38637
G04 P0 ( dwell for no time -- G64 should not smooth over this point )
G00 Z10.00000 ( retract )

G00 X-38.73505 Y6.95394 ( rapid move to begin. )
G01 F30.00000
G01 Z-0.10000
G04 P0 ( dwell for no time -- G64 should not smooth over this point )
G01 F360.00000
G01 X-38.73505 Y6.95394
G01 X-39.08166 Y6.98647
G01 X-39.57394 Y6.97479
G01 X-39.57394 Y4.87680
G01 X-39.62364 Y4.74129
G01 X-39.69065 Y4.47010
G01 X-39.70708 Y4.05211
G01 X-39.11051 Y3.86283
G01 X-39.04183 Y3.90388
G04 P0 ( dwell for no time -- G64 should not smooth over this point )
G00 Z10.00000 ( retract )

G00 X-39.09913 Y3.86037 ( rapid move to begin. )
G01 F30.00000
G01 Z-0.10000
G04 P0 ( dwell for no time -- G64 should not smooth over this point )
G01 F360.00000
G01 X-39.09913 Y3.86037
G01 X-39.04224 Y3.34338
G04 P0 ( dwell for no time -- G64 should not smooth over this point )
G00 Z10.00000 ( retract )

G00 X-39.74069 Y2.78265 ( rapid move to begin. )
G01 F30.00000
G01 Z-0.10000
G04 P0 ( dwell for no time -- G64 should not smooth over this point )
G01 F360.00000
G01 X-39.74069 Y2.78265
G01 X-39.74069 Y3.23312
G01 X-39.81531 Y3.30784
G01 X-39.99916 Y3.30784
G01 X-40.07396 Y3.23306
G01 X-40.07396 Y2.78270
G01 X-39.99916 Y2.70792
G01 X-39.81531 Y2.70792
G01 X-39.74069 Y2.78265
G04 P0 ( dwell for no time -- G64 should not smooth over this point )
G00 Z10.00000 ( retract )

G00 X-40.24165 Y2.02260 ( rapid move to begin. )
G01 F30.00000
G01 Z-0.10000
G04 P0 ( dwell for no time -- G64 should not smooth over this point )
G01 F360.00000
G01 X-40.24165 Y2.02260
G01 X-40.43893 Y1.97777
G01 X-40.44323 Y1.23149
G01 X-40.48084 Y1.12702
G01 X-40.58031 Y1.00081
G01 X-40.38986 Y0.55293
G01 X-40.37317 Y0.25400
G04 P0 ( dwell for no time -- G64 should not smooth over this point )
G00 Z10.00000 ( retract )

G00 X-39.87381 Y0.78270 ( rapid move to begin. )
G01 F30.00000
G01 Z-0.10000
G04 P0 ( dwell for no time -- G64 should not smooth over this point )
G01 F360.00000
G01 X-39.87381 Y0.78270
G01 X-39.87381 Y1.23299
G01 X-39.94854 Y1.30762
G01 X-40.13251 Y1.30762
G01 X-40.20706 Y1.23307
G01 X-40.20706 Y0.78265
G01 X-40.13243 Y0.70792
G01 X-39.94859 Y0.70792
G01 X-39.87381 Y0.78270
G04 P0 ( dwell for no time -- G64 should not smooth over this point )
G00 Z10.00000 ( retract )

G00 X-39.43962 Y0.25400 ( rapid move to begin. )
G01 F30.00000
G01 Z-0.10000
G04 P0 ( dwell for no time -- G64 should not smooth over this point )
G01 F360.00000
G01 X-39.43962 Y0.25400
G01 X-39.44602 Y0.52146
G01 X-39.47244 Y0.66698
G01 X-39.62176 Y1.04206
G01 X-39.63868 Y1.17251
G01 X-39.59987 Y1.28918
G01 X-39.29586 Y1.87099
G04 P0 ( dwell for no time -- G64 should not smooth over this point )
G00 Z10.00000 ( retract )

G00 X-39.44036 Y1.96332 ( rapid move to begin. )
G01 F30.00000
G01 Z-0.10000
G04 P0 ( dwell for no time -- G64 should not smooth over this point )
G01 F360.00000
G01 X-39.44036 Y1.96332
G01 X-39.77386 Y2.00033
G01 X-40.24165 Y2.02260
G01 X-40.24165 Y2.43685
G01 X-40.25659 Y2.55295
G01 X-40.44666 Y3.00131
G01 X-40.34765 Y3.12699
G01 X-40.31003 Y3.23141
G01 X-40.30711 Y4.00789
G01 X-40.03721 Y4.00858
G01 X-39.70708 Y4.05211
G04 P0 ( dwell for no time -- G64 should not smooth over this point )
G00 Z10.00000 ( retract )

G00 X-40.30543 Y4.00865 ( rapid move to begin. )
G01 F30.00000
G01 Z-0.10000
G04 P0 ( dwell for no time -- G64 should not smooth over this point )
G01 F360.00000
G01 X-40.30543 Y4.00865
G01 X-40.29324 Y4.49994
G01 X-40.17414 Y4.85188
G01 X-40.17432 Y4.91086
G01 X-40.29177 Y5.24464
G01 X-40.30701 Y5.54093
G01 X-40.58315 Y6.92447
G01 X-40.06621 Y6.98647
G01 X-39.57394 Y6.97479
G04 P0 ( dwell for no time -- G64 should not smooth over this point )
G00 Z10.00000 ( retract )

G00 X-40.58315 Y6.92447 ( rapid move to begin. )
G01 F30.00000
G01 Z-0.10000
G04 P0 ( dwell for no time -- G64 should not smooth over this point )
G01 F360.00000
G01 X-40.58315 Y6.92447
G01 X-41.04150 Y6.91863
G01 X-41.04137 Y5.31236
G01 X-41.10683 Y5.00753
G01 X-41.10452 Y4.70814
G01 X-41.04013 Y4.44210
G01 X-41.03967 Y4.00789
G01 X-40.30711 Y4.00789
G04 P0 ( dwell for no time -- G64 should not smooth over this point )
G00 Z10.00000 ( retract )

G00 X-40.54030 Y4.78269 ( rapid move to begin. )
G01 F30.00000
G01 Z-0.10000
G04 P0 ( dwell for no time -- G64 should not smooth over this point )
G01 F360.00000
G01 X-40.54030 Y4.78269
G01 X-40.54030 Y4.96636
G01 X-40.61508 Y5.04116
G01 X-40.79875 Y5.04116
G01 X-40.87355 Y4.96636
G01 X-40.87355 Y4.78269
G01 X-40.79875 Y4.70792
G01 X-40.61508 Y4.70792
G01 X-40.54030 Y4.78269
G04 P0 ( dwell for no time -- G64 should not smooth over this point )
G00 Z10.00000 ( retract )

G00 X-41.03967 Y4.00789 ( rapid move to begin. )
G01 F30.00000
G01 Z-0.10000
G04 P0 ( dwell for no time -- G64 should not smooth over this point )
G01 F360.00000
G01 X-41.03967 Y4.00789
G01 X-41.37503 Y3.89677
G01 X-41.63997 Y3.78130
G01 X-42.30804 Y3.38079
G01 X-42.30446 Y5.07012
G01 X-42.28056 Y5.23905
G01 X-42.15661 Y5.64960
G01 X-41.87655 Y6.91655
G01 X-41.04150 Y6.91863
G04 P0 ( dwell for no time -- G64 should not smooth over this point )
G00 Z10.00000 ( retract )

G00 X-41.87655 Y6.91655 ( rapid move to begin. )
G01 F30.00000
G01 Z-0.10000
G04 P0 ( dwell for no time -- G64 should not smooth over this point )
G01 F360.00000
G01 X-41.87655 Y6.91655
G01 X-42.48219 Y7.03824
G01 X-42.99166 Y7.05333
G01 X-43.36755 Y7.01563
G01 X-43.77837 Y6.92343
G01 X-43.31475 Y5.26811
G01 X-43.30873 Y5.07644
G01 X-43.53725 Y4.61157
G01 X-43.56946 Y4.47045
G01 X-43.57053 Y3.00802
G01 X-42.83527 Y2.99629
G01 X-42.57888 Y3.01841
G04 P0 ( dwell for no time -- G64 should not smooth over this point )
G00 Z10.00000 ( retract )

G00 X-42.30804 Y3.38079 ( rapid move to begin. )
G01 F30.00000
G01 Z-0.10000
G04 P0 ( dwell for no time -- G64 should not smooth over this point )
G01 F360.00000
G01 X-42.30804 Y3.38079
G01 X-42.57888 Y3.01841
G01 X-42.41500 Y2.87368
G01 X-41.63997 Y2.00868
G04 P0 ( dwell for no time -- G64 should not smooth over this point )
G00 Z10.00000 ( retract )

G00 X-40.43893 Y1.97777 ( rapid move to begin. )
G01 F30.00000
G01 Z-0.10000
G04 P0 ( dwell for no time -- G64 should not smooth over this point )
G01 F360.00000
G01 X-40.43893 Y1.97777
G01 X-40.70706 Y2.00828
G01 X-41.63997 Y2.00868
G01 X-41.55938 Y1.51945
G01 X-41.49428 Y1.27447
G01 X-41.38897 Y1.04534
G01 X-41.22875 Y0.86398
G01 X-41.24107 Y0.25400
G04 P0 ( dwell for no time -- G64 should not smooth over this point )
G00 Z10.00000 ( retract )

G00 X-41.77492 Y0.25400 ( rapid move to begin. )
G01 F30.00000
G01 Z-0.10000
G04 P0 ( dwell for no time -- G64 should not smooth over this point )
G01 F360.00000
G01 X-41.77492 Y0.25400
G01 X-41.80017 Y0.47455
G01 X-41.85046 Y0.62746
G01 X-41.95958 Y0.79329
G01 X-42.14772 Y0.98788
G01 X-41.83891 Y1.60934
G01 X-41.63997 Y1.95666
G04 P0 ( dwell for no time -- G64 should not smooth over this point )
G00 Z10.00000 ( retract )

G00 X-43.07291 Y0.78265 ( rapid move to begin. )
G01 F30.00000
G01 Z-0.10000
G04 P0 ( dwell for no time -- G64 should not smooth over this point )
G01 F360.00000
G01 X-43.07291 Y0.78265
G01 X-43.14754 Y0.70792
G01 X-43.33138 Y0.70792
G01 X-43.40619 Y0.78270
G01 X-43.40616 Y1.23299
G01 X-43.33143 Y1.30762
G01 X-43.14746 Y1.30762
G01 X-43.07294 Y1.23307
G01 X-43.07291 Y0.78265
G04 P0 ( dwell for no time -- G64 should not smooth over this point )
G00 Z10.00000 ( retract )

G00 X-42.90652 Y0.25400 ( rapid move to begin. )
G01 F30.00000
G01 Z-0.10000
G04 P0 ( dwell for no time -- G64 should not smooth over this point )
G01 F360.00000
G01 X-42.90652 Y0.25400
G01 X-42.90284 Y0.47054
G01 X-42.88556 Y0.56825
G01 X-42.81564 Y0.72321
G01 X-42.73718 Y0.84021
G01 X-42.82410 Y1.05110
G01 X-42.83954 Y1.13782
G01 X-42.83527 Y2.99629
G04 P0 ( dwell for no time -- G64 should not smooth over this point )
G00 Z10.00000 ( retract )

G00 X-43.57053 Y3.00802 ( rapid move to begin. )
G01 F30.00000
G01 Z-0.10000
G04 P0 ( dwell for no time -- G64 should not smooth over this point )
G01 F360.00000
G01 X-43.57053 Y3.00802
G01 X-43.64358 Y2.99926
G01 X-43.63852 Y1.27117
G01 X-43.66367 Y1.15974
G01 X-43.70542 Y1.08623
G01 X-43.70591 Y0.79601
G01 X-43.58983 Y0.55844
G01 X-43.57230 Y0.25400
G04 P0 ( dwell for no time -- G64 should not smooth over this point )
G00 Z10.00000 ( retract )

G00 X-44.53903 Y1.18250 ( rapid move to begin. )
G01 F30.00000
G01 Z-0.10000
G04 P0 ( dwell for no time -- G64 should not smooth over this point )
G01 F360.00000
G01 X-44.53903 Y1.18250
G01 X-44.61380 Y1.10769
G01 X-44.79747 Y1.10769
G01 X-44.87225 Y1.18250
G01 X-44.87225 Y1.23299
G01 X-44.79752 Y1.30762
G01 X-44.61375 Y1.30762
G01 X-44.53903 Y1.23299
G01 X-44.53903 Y1.18250
G04 P0 ( dwell for no time -- G64 should not smooth over this point )
G00 Z10.00000 ( retract )

G00 X-44.53903 Y0.78270 ( rapid move to begin. )
G01 F30.00000
G01 Z-0.10000
G04 P0 ( dwell for no time -- G64 should not smooth over this point )
G01 F360.00000
G01 X-44.53903 Y0.78270
G01 X-44.61380 Y0.70792
G01 X-44.79747 Y0.70792
G01 X-44.87225 Y0.78270
G01 X-44.87225 Y0.83320
G01 X-44.79752 Y0.90780
G01 X-44.61375 Y0.90780
G01 X-44.53903 Y0.83320
G01 X-44.53903 Y0.78270
G04 P0 ( dwell for no time -- G64 should not smooth over this point )
G00 Z10.00000 ( retract )

G00 X-44.30519 Y0.25400 ( rapid move to begin. )
G01 F30.00000
G01 Z-0.10000
G04 P0 ( dwell for no time -- G64 should not smooth over this point )
G01 F360.00000
G01 X-44.30519 Y0.25400
G01 X-44.29369 Y0.48517
G01 X-44.21911 Y0.73579
G01 X-44.17327 Y0.83866
G01 X-44.18909 Y1.00785
G01 X-44.17266 Y1.29609
G01 X-44.22991 Y1.60048
G01 X-44.23915 Y1.74147
G01 X-44.24269 Y2.89187
G01 X-43.82089 Y3.00736
G04 P0 ( dwell for no time -- G64 should not smooth over this point )
G00 Z10.00000 ( retract )

G00 X-43.64358 Y2.99926 ( rapid move to begin. )
G01 F30.00000
G01 Z-0.10000
G04 P0 ( dwell for no time -- G64 should not smooth over this point )
G01 F360.00000
G01 X-43.64358 Y2.99926
G01 X-43.82089 Y3.00736
G01 X-44.03910 Y3.64246
G01 X-44.37337 Y4.34249
G01 X-44.36466 Y4.50718
G01 X-44.30987 Y4.69575
G01 X-44.30235 Y5.05346
G01 X-44.25653 Y5.18952
G01 X-44.24053 Y5.31094
G01 X-44.24741 Y6.91827
G01 X-43.77837 Y6.92343
G04 P0 ( dwell for no time -- G64 should not smooth over this point )
G00 Z10.00000 ( retract )

G00 X-44.24741 Y6.91827 ( rapid move to begin. )
G01 F30.00000
G01 Z-0.10000
G04 P0 ( dwell for no time -- G64 should not smooth over this point )
G01 F360.00000
G01 X-44.24741 Y6.91827
G01 X-45.16562 Y6.91817
G01 X-45.17304 Y5.33578
G01 X-45.15709 Y5.20169
G01 X-45.10712 Y5.03743
G01 X-45.10908 Y4.69567
G01 X-45.30842 Y4.13344
G01 X-45.51055 Y3.63052
G01 X-45.77456 Y2.87348
G01 X-44.66577 Y2.87556
G01 X-44.24269 Y2.89187
G04 P0 ( dwell for no time -- G64 should not smooth over this point )
G00 Z10.00000 ( retract )

G00 X-43.78056 Y4.74129 ( rapid move to begin. )
G01 F30.00000
G01 Z-0.10000
G04 P0 ( dwell for no time -- G64 should not smooth over this point )
G01 F360.00000
G01 X-43.78056 Y4.74129
G01 X-43.81396 Y4.77472
G01 X-44.07243 Y4.77472
G01 X-44.07243 Y4.70792
G01 X-43.81396 Y4.70792
G01 X-43.78056 Y4.74129
G04 P0 ( dwell for no time -- G64 should not smooth over this point )
G00 Z10.00000 ( retract )

G00 X-45.34705 Y4.97459 ( rapid move to begin. )
G01 F30.00000
G01 Z-0.10000
G04 P0 ( dwell for no time -- G64 should not smooth over this point )
G01 F360.00000
G01 X-45.34705 Y4.97459
G01 X-45.41347 Y5.04116
G01 X-45.59732 Y5.04116
G01 X-45.66387 Y4.97459
G01 X-45.34705 Y4.97459
G04 P0 ( dwell for no time -- G64 should not smooth over this point )
G00 Z10.00000 ( retract )

G00 X-45.16562 Y6.91817 ( rapid move to begin. )
G01 F30.00000
G01 Z-0.10000
G04 P0 ( dwell for no time -- G64 should not smooth over this point )
G01 F360.00000
G01 X-45.16562 Y6.91817
G01 X-45.83689 Y6.91881
G01 X-45.83877 Y5.33880
G01 X-45.85350 Y5.20167
G01 X-45.90296 Y5.04088
G01 X-45.90430 Y4.85473
G01 X-45.88970 Y4.78457
G01 X-45.83232 Y4.67853
G01 X-45.84624 Y2.85529
G01 X-45.77456 Y2.87348
G04 P0 ( dwell for no time -- G64 should not smooth over this point )
G00 Z10.00000 ( retract )

G00 X-53.24544 Y0.42743 ( rapid move to begin. )
G01 F30.00000
G01 Z-0.10000
G04 P0 ( dwell for no time -- G64 should not smooth over this point )
G01 F360.00000
G01 X-53.24544 Y0.42743
G01 X-53.40667 Y0.25400
G04 P0 ( dwell for no time -- G64 should not smooth over this point )
G00 Z10.00000 ( retract )

G00 X-45.84624 Y2.85529 ( rapid move to begin. )
G01 F30.00000
G01 Z-0.10000
G04 P0 ( dwell for no time -- G64 should not smooth over this point )
G01 F360.00000
G01 X-45.84624 Y2.85529
G01 X-46.36229 Y2.66723
G01 X-51.22479 Y1.11557
G01 X-53.24544 Y0.42743
G01 X-52.58928 Y1.61691
G01 X-52.04651 Y2.51450
G01 X-51.50373 Y3.32788
G01 X-50.96096 Y4.05704
G01 X-50.41819 Y4.70197
G01 X-49.85657 Y5.28658
G01 X-49.33650 Y5.74678
G01 X-48.91689 Y6.06339
G01 X-48.47661 Y6.34086
G01 X-48.04664 Y6.56201
G01 X-47.61664 Y6.72879
G01 X-47.29538 Y6.82150
G01 X-47.01565 Y6.87756
G01 X-46.72828 Y6.91269
G01 X-45.83689 Y6.91881
G04 P0 ( dwell for no time -- G64 should not smooth over this point )
G00 Z10.00000 ( retract )

G00 X-55.50718 Y39.08793 ( rapid move to begin. )
G01 F30.00000
G01 Z-0.10000
G04 P0 ( dwell for no time -- G64 should not smooth over this point )
G01 F360.00000
G01 X-55.50718 Y39.08793
G01 X-55.53860 Y38.86030
G01 X-55.62691 Y38.64867
G01 X-55.76621 Y38.46614
G01 X-55.95998 Y38.31941
G01 X-56.16037 Y38.23853
G01 X-56.38800 Y38.20917
G01 X-56.49285 Y38.21742
G01 X-56.64662 Y38.24818
G01 X-56.81596 Y38.31938
G01 X-56.98587 Y38.44404
G01 X-57.14906 Y38.64867
G01 X-57.23735 Y38.86030
G01 X-57.26880 Y39.08793
G01 X-57.22902 Y39.37399
G01 X-57.27416 Y39.43391
G01 X-63.63736 Y45.79711
G01 X-63.66744 Y45.82300
G01 X-63.73063 Y45.83087
G01 X-64.75806 Y45.83087
G01 X-64.86327 Y45.85264
G01 X-64.88506 Y45.95787
G01 X-64.88506 Y47.45800
G01 X-64.86327 Y47.56320
G01 X-64.75806 Y47.58499
G01 X-63.25794 Y47.58499
G01 X-63.15271 Y47.56320
G01 X-63.13094 Y47.45800
G01 X-63.13094 Y46.43056
G01 X-63.12306 Y46.36734
G01 X-63.09718 Y46.33730
G01 X-56.73397 Y39.97409
G01 X-56.67700 Y39.93063
G01 X-56.38800 Y39.96667
G01 X-56.16037 Y39.93728
G01 X-55.94772 Y39.85077
G01 X-55.76621 Y39.70970
G01 X-55.62691 Y39.52718
G01 X-55.58170 Y39.43233
G01 X-55.53144 Y39.28379
G01 X-55.50718 Y39.08793
G04 P0 ( dwell for no time -- G64 should not smooth over this point )
G00 Z10.00000 ( retract )

G00 X-48.89497 Y40.03591 ( rapid move to begin. )
G01 F30.00000
G01 Z-0.10000
G04 P0 ( dwell for no time -- G64 should not smooth over this point )
G01 F360.00000
G01 X-48.89497 Y40.03591
G01 X-48.89500 Y40.29748
G01 X-48.99101 Y40.28504
G01 X-49.19878 Y40.19893
G01 X-49.37709 Y40.06202
G01 X-49.51400 Y39.88372
G01 X-49.60010 Y39.67594
G01 X-49.61255 Y39.57993
G01 X-49.35408 Y39.57991
G01 X-49.31606 Y39.69695
G01 X-49.25334 Y39.80556
G01 X-49.16942 Y39.89878
G01 X-49.06795 Y39.97249
G01 X-48.89497 Y40.03591
G04 P0 ( dwell for no time -- G64 should not smooth over this point )
G00 Z10.00000 ( retract )

G00 X-43.81497 Y40.89230 ( rapid move to begin. )
G01 F30.00000
G01 Z-0.10000
G04 P0 ( dwell for no time -- G64 should not smooth over this point )
G01 F360.00000
G01 X-43.81497 Y40.89230
G01 X-43.81500 Y40.63200
G01 X-43.95013 Y40.64978
G01 X-44.19422 Y40.75087
G01 X-44.40403 Y40.91191
G01 X-44.56506 Y41.12171
G01 X-44.66615 Y41.36581
G01 X-44.68393 Y41.50093
G01 X-44.42470 Y41.50091
G01 X-44.37319 Y41.32285
G01 X-44.29481 Y41.18704
G01 X-44.18988 Y41.07050
G01 X-44.06301 Y40.97835
G01 X-43.91978 Y40.91457
G01 X-43.81497 Y40.89230
G04 P0 ( dwell for no time -- G64 should not smooth over this point )
G00 Z10.00000 ( retract )

G00 X-42.69207 Y41.50093 ( rapid move to begin. )
G01 F30.00000
G01 Z-0.10000
G04 P0 ( dwell for no time -- G64 should not smooth over this point )
G01 F360.00000
G01 X-42.69207 Y41.50093
G01 X-42.70985 Y41.36581
G01 X-42.81094 Y41.12171
G01 X-42.97197 Y40.91191
G01 X-43.18178 Y40.75087
G01 X-43.42587 Y40.64978
G01 X-43.56100 Y40.63200
G01 X-43.56100 Y40.89230
G01 X-43.45620 Y40.91457
G01 X-43.31297 Y40.97835
G01 X-43.18610 Y41.07050
G01 X-43.08117 Y41.18704
G01 X-43.00278 Y41.32285
G01 X-42.95127 Y41.50091
G01 X-42.69207 Y41.50093
G04 P0 ( dwell for no time -- G64 should not smooth over this point )
G00 Z10.00000 ( retract )

G00 X-27.56718 Y41.62793 ( rapid move to begin. )
G01 F30.00000
G01 Z-0.10000
G04 P0 ( dwell for no time -- G64 should not smooth over this point )
G01 F360.00000
G01 X-27.56718 Y41.62793
G01 X-27.59144 Y41.43202
G01 X-27.64170 Y41.28348
G01 X-27.68691 Y41.18867
G01 X-27.82621 Y41.00614
G01 X-28.00769 Y40.86504
G01 X-28.16405 Y40.79751
G01 X-28.44800 Y40.74917
G01 X-28.73190 Y40.79748
G01 X-28.88828 Y40.86504
G01 X-29.06977 Y41.00614
G01 X-29.20906 Y41.18867
G01 X-29.25425 Y41.28348
G01 X-29.30454 Y41.43202
G01 X-29.32880 Y41.62793
G01 X-29.30454 Y41.82379
G01 X-29.25427 Y41.97233
G01 X-29.20906 Y42.06718
G01 X-29.06977 Y42.24970
G01 X-28.88826 Y42.39077
G01 X-28.73190 Y42.45834
G01 X-28.44800 Y42.50667
G01 X-28.16405 Y42.45834
G01 X-28.00772 Y42.39077
G01 X-27.82621 Y42.24970
G01 X-27.68691 Y42.06718
G01 X-27.64170 Y41.97233
G01 X-27.59144 Y41.82379
G01 X-27.56718 Y41.62793
G04 P0 ( dwell for no time -- G64 should not smooth over this point )
G00 Z10.00000 ( retract )

G00 X-23.49497 Y40.89230 ( rapid move to begin. )
G01 F30.00000
G01 Z-0.10000
G04 P0 ( dwell for no time -- G64 should not smooth over this point )
G01 F360.00000
G01 X-23.49497 Y40.89230
G01 X-23.49500 Y40.63200
G01 X-23.63013 Y40.64978
G01 X-23.87422 Y40.75087
G01 X-24.08403 Y40.91191
G01 X-24.24506 Y41.12171
G01 X-24.34615 Y41.36581
G01 X-24.36393 Y41.50093
G01 X-24.10470 Y41.50091
G01 X-24.05319 Y41.32285
G01 X-23.97481 Y41.18704
G01 X-23.86988 Y41.07050
G01 X-23.74303 Y40.97835
G01 X-23.59977 Y40.91457
G01 X-23.49497 Y40.89230
G04 P0 ( dwell for no time -- G64 should not smooth over this point )
G00 Z10.00000 ( retract )

G00 X-22.37207 Y41.50093 ( rapid move to begin. )
G01 F30.00000
G01 Z-0.10000
G04 P0 ( dwell for no time -- G64 should not smooth over this point )
G01 F360.00000
G01 X-22.37207 Y41.50093
G01 X-22.38985 Y41.36581
G01 X-22.49094 Y41.12171
G01 X-22.65197 Y40.91191
G01 X-22.86178 Y40.75087
G01 X-23.10587 Y40.64978
G01 X-23.24100 Y40.63200
G01 X-23.24100 Y40.89230
G01 X-23.13620 Y40.91457
G01 X-22.99297 Y40.97835
G01 X-22.86610 Y41.07050
G01 X-22.76117 Y41.18704
G01 X-22.68278 Y41.32285
G01 X-22.63127 Y41.50091
G01 X-22.37207 Y41.50093
G04 P0 ( dwell for no time -- G64 should not smooth over this point )
G00 Z10.00000 ( retract )

G00 X-22.37207 Y41.75493 ( rapid move to begin. )
G01 F30.00000
G01 Z-0.10000
G04 P0 ( dwell for no time -- G64 should not smooth over this point )
G01 F360.00000
G01 X-22.37207 Y41.75493
G01 X-22.38985 Y41.89006
G01 X-22.49094 Y42.13415
G01 X-22.65197 Y42.34396
G01 X-22.86178 Y42.50499
G01 X-23.10587 Y42.60609
G01 X-23.24100 Y42.62387
G01 X-23.24100 Y42.36354
G01 X-23.13620 Y42.34127
G01 X-22.99297 Y42.27749
G01 X-22.86610 Y42.18534
G01 X-22.76117 Y42.06880
G01 X-22.68278 Y41.93299
G01 X-22.63127 Y41.75493
G01 X-22.37207 Y41.75493
G04 P0 ( dwell for no time -- G64 should not smooth over this point )
G00 Z10.00000 ( retract )

G00 X-7.25091 Y43.41785 ( rapid move to begin. )
G01 F30.00000
G01 Z-0.10000
G04 P0 ( dwell for no time -- G64 should not smooth over this point )
G01 F360.00000
G01 X-7.25091 Y43.41785
G01 X-7.25091 Y44.91799
G01 X-7.27271 Y45.02318
G01 X-7.37794 Y45.04500
G01 X-8.87806 Y45.04500
G01 X-8.98327 Y45.02320
G01 X-9.00506 Y44.91799
G01 X-9.00506 Y43.41785
G01 X-8.98327 Y43.31264
G01 X-8.87806 Y43.29085
G01 X-7.37794 Y43.29085
G01 X-7.27268 Y43.31264
G01 X-7.25091 Y43.41785
G04 P0 ( dwell for no time -- G64 should not smooth over this point )
G00 Z10.00000 ( retract )

G00 X-7.24715 Y41.62793 ( rapid move to begin. )
G01 F30.00000
G01 Z-0.10000
G04 P0 ( dwell for no time -- G64 should not smooth over this point )
G01 F360.00000
G01 X-7.24715 Y41.62793
G01 X-7.27144 Y41.43202
G01 X-7.32170 Y41.28348
G01 X-7.36691 Y41.18867
G01 X-7.50621 Y41.00614
G01 X-7.68769 Y40.86504
G01 X-7.84405 Y40.79751
G01 X-8.12800 Y40.74917
G01 X-8.41190 Y40.79748
G01 X-8.56828 Y40.86504
G01 X-8.74977 Y41.00614
G01 X-8.88906 Y41.18867
G01 X-8.93425 Y41.28348
G01 X-8.98454 Y41.43202
G01 X-9.00880 Y41.62793
G01 X-8.98454 Y41.82379
G01 X-8.93427 Y41.97233
G01 X-8.88906 Y42.06718
G01 X-8.74977 Y42.24970
G01 X-8.56826 Y42.39077
G01 X-8.41190 Y42.45834
G01 X-8.12800 Y42.50667
G01 X-7.84405 Y42.45834
G01 X-7.68772 Y42.39077
G01 X-7.50621 Y42.24970
G01 X-7.36691 Y42.06718
G01 X-7.32170 Y41.97233
G01 X-7.27144 Y41.82379
G01 X-7.24715 Y41.62793

G04 P0 ( dwell for no time -- G64 should not smooth over this point )
G00 Z50.000 ( retract )

M5 ( Spindle off. )
G04 P1.000000
M9 ( Coolant off. )
M2 ( Program end. )

