( pcb2gcode 2.2.3 )
( Software-independent Gcode )

G94 ( Millimeters per minute feed rate. )
G21 ( Units == Millimeters. )

G90 ( Absolute coordinates. )
G00 S10000 ( RPM spindle speed. )
G01 F360.00000 ( Feedrate. )


G00 Z50.00000 (Retract to tool change height)
T0
M5      (Spindle stop.)
G04 P1.00000 (Wait for spindle to stop)
(MSG, Change tool bit to mill diameter 0.50800mm)
M6      (Tool change.)
M0      (Temporary machine stop.)
M3 ( Spindle on clockwise. )
G04 P1.00000 (Wait for spindle to get up to speed)
G04 P0 ( dwell for no time -- G64 should not smooth over this point )
G00 Z10.00000 ( retract )

G00 X-18.59064 Y-0.25400 ( rapid move to begin. )
G01 F30.00000
( Mill infeed pass 1/1 )
G01 Z-0.10000
G04 P0 ( dwell for no time -- G64 should not smooth over this point )
G01 F360.00000
G01 X-18.59064 Y-0.25400
G01 X0.25400 Y-0.25400
G01 X0.25400 Y50.00993
G01 X-72.38997 Y50.00993
G01 X-72.38997 Y-0.25400
G01 X-53.87764 Y-0.25400
G01 X-53.24325 Y0.42972
G01 X-53.08727 Y0.72339
G01 X-52.62987 Y1.54910
G01 X-52.17251 Y2.31516
G01 X-51.71511 Y3.02151
G01 X-51.23812 Y3.69458
G01 X-50.63051 Y4.46105
G01 X-50.02291 Y5.12161
G01 X-49.53838 Y5.57733
G01 X-49.09287 Y5.93649
G01 X-48.71855 Y6.19572
G01 X-48.32482 Y6.42455
G01 X-47.93198 Y6.61185
G01 X-47.53917 Y6.75368
G01 X-47.15444 Y6.85267
G01 X-46.76976 Y6.90822
G01 X-46.41759 Y6.92442
G01 X-45.83862 Y6.91855
G01 X-45.83859 Y5.34101
G01 X-45.84563 Y5.24650
G01 X-45.85505 Y5.19745
G01 X-45.89818 Y5.06857
G01 X-45.90374 Y5.03748
G01 X-45.90481 Y4.85518
G01 X-45.90118 Y4.82526
G01 X-45.88680 Y4.77454
G01 X-45.85663 Y4.71297
G01 X-45.83321 Y4.67787
G01 X-45.83852 Y4.62747
G01 X-45.83735 Y4.27548
G01 X-45.84075 Y4.07982
G01 X-45.83859 Y2.85712
G01 X-45.77420 Y2.87348
G01 X-45.66704 Y3.19860
G01 X-45.50771 Y3.63342
G01 X-45.37575 Y3.95310
G01 X-45.26732 Y4.25402
G01 X-45.20110 Y4.45475
G01 X-45.12391 Y4.64119
G01 X-45.10908 Y4.69567
G01 X-45.10499 Y4.74129
G01 X-45.10537 Y5.00774
G01 X-45.10959 Y5.05330
G01 X-45.11650 Y5.08422
G01 X-45.15637 Y5.19765
G01 X-45.16557 Y5.24683
G01 X-45.17210 Y5.33824
G01 X-45.17210 Y6.91871
G01 X-45.34126 Y6.92353
G01 X-45.62749 Y6.92447
G01 X-45.83862 Y6.91855
G01 X-45.62749 Y6.92447
G01 X-45.34126 Y6.92353
G01 X-45.17210 Y6.91871
G01 X-44.95272 Y6.92353
G01 X-44.70563 Y6.91449
G01 X-44.45856 Y6.92353
G01 X-44.23783 Y6.91866
G01 X-44.02806 Y6.92447
G01 X-43.78071 Y6.92366
G01 X-43.47637 Y6.99554
G01 X-43.16773 Y7.04157
G01 X-42.85910 Y7.05691
G01 X-42.82013 Y7.05691
G01 X-42.35971 Y7.02274
G01 X-41.87678 Y6.91655
G01 X-42.15501 Y5.65615
G01 X-42.19351 Y5.51637
G01 X-42.26248 Y5.31106
G01 X-42.29595 Y5.15612
G01 X-42.30550 Y5.02925
G01 X-42.30647 Y3.38125
G01 X-41.63997 Y3.78125
G01 X-41.48714 Y3.84317
G01 X-41.37340 Y3.89707
G01 X-41.04015 Y4.00789
G01 X-41.04122 Y4.45160
G01 X-41.05618 Y4.55153
G01 X-41.08778 Y4.64149
G01 X-41.10512 Y4.71162
G01 X-41.10683 Y5.00753
G01 X-41.09578 Y5.08427
G01 X-41.05598 Y5.19760
G01 X-41.04673 Y5.24688
G01 X-41.04015 Y5.33880
G01 X-41.04015 Y6.91871
G01 X-40.87084 Y6.92353
G01 X-40.58394 Y6.92447
G01 X-40.40688 Y6.95460
G01 X-39.92669 Y6.99021
G01 X-39.57394 Y6.97502
G01 X-39.57394 Y4.87764
G01 X-39.60932 Y4.78859
G01 X-39.63319 Y4.70672
G01 X-39.68427 Y4.50360
G01 X-39.69944 Y4.41404
G01 X-39.70835 Y4.24823
G01 X-39.70729 Y4.05211
G01 X-39.26644 Y3.90624
G01 X-39.09781 Y3.85884
G01 X-39.04247 Y3.34361
G01 X-38.94963 Y3.24935
G01 X-38.83993 Y3.11645
G01 X-38.81389 Y3.07739
G01 X-38.76197 Y2.98115
G01 X-38.74587 Y2.94213
G01 X-38.71712 Y2.84254
G01 X-38.76103 Y2.70934
G01 X-38.77396 Y2.62748
G01 X-38.77422 Y2.00777
G01 X-38.98146 Y1.93815
G01 X-39.21585 Y1.84965
G01 X-39.15476 Y1.49235
G01 X-39.11625 Y1.33609
G01 X-39.09286 Y1.27086
G01 X-39.02898 Y1.11879
G01 X-38.98976 Y1.04531
G01 X-38.96510 Y1.00835
G01 X-38.95143 Y0.94323
G01 X-38.92873 Y0.87313
G01 X-38.86482 Y0.72108
G01 X-38.81882 Y0.63005
G01 X-38.79108 Y0.55321
G01 X-38.78194 Y0.50719
G01 X-38.77556 Y0.43685
G01 X-38.77297 Y0.27531
G01 X-38.77638 Y0.07953
G01 X-38.77084 Y-0.25400
G01 X-39.44071 Y-0.25400
G01 X-39.44038 Y0.40787
G01 X-39.44938 Y0.54803
G01 X-39.47102 Y0.66126
G01 X-39.48379 Y0.70353
G01 X-39.63053 Y1.06898
G01 X-39.63967 Y1.12161
G01 X-39.63891 Y1.17079
G01 X-39.62156 Y1.24087
G01 X-39.59296 Y1.30432
G01 X-39.43066 Y1.62758
G01 X-39.29619 Y1.87119
G01 X-39.21585 Y1.84965
G01 X-39.29619 Y1.87119
G01 X-39.44036 Y1.96332
G01 X-39.43937 Y2.30375
G01 X-39.43114 Y2.42392
G01 X-39.37922 Y2.66959
G01 X-39.36657 Y2.82750
G01 X-39.35882 Y2.86652
G01 X-39.33571 Y2.94188
G01 X-39.31956 Y2.98084
G01 X-39.27236 Y3.07040
G01 X-39.21023 Y3.15788
G01 X-39.04247 Y3.34361
G01 X-39.09781 Y3.85884
G01 X-39.04079 Y3.90411
G01 X-39.04061 Y4.95285
G01 X-39.00147 Y5.01983
G01 X-38.95009 Y5.12161
G01 X-38.92598 Y5.18597
G01 X-38.91415 Y5.24688
G01 X-38.90945 Y5.29694
G01 X-38.90726 Y5.47522
G01 X-38.67876 Y6.38442
G01 X-38.73569 Y6.95378
G01 X-38.67876 Y6.38442
G01 X-38.55270 Y6.05114
G01 X-38.44478 Y5.79349
G01 X-38.33609 Y5.49466
G01 X-38.26218 Y5.27291
G01 X-38.19187 Y5.10863
G01 X-38.14280 Y5.00870
G01 X-38.16777 Y4.93588
G01 X-38.17485 Y4.87423
G01 X-38.17447 Y3.25496
G01 X-38.17821 Y3.22494
G01 X-38.19276 Y3.17419
G01 X-38.24049 Y3.08572
G01 X-38.24100 Y2.79634
G01 X-38.20163 Y2.72926
G01 X-38.14681 Y2.62006
G01 X-38.12360 Y2.55148
G01 X-38.11438 Y2.50226
G01 X-38.10785 Y2.41084
G01 X-38.10782 Y2.00777
G01 X-37.97450 Y1.96299
G01 X-37.97450 Y1.74147
G01 X-37.96525 Y1.60048
G01 X-37.95011 Y1.51153
G01 X-37.91461 Y1.36108
G01 X-37.90800 Y1.29609
G01 X-37.90892 Y1.10823
G01 X-37.92444 Y1.00785
G01 X-37.91511 Y0.96109
G01 X-37.90853 Y0.89418
G01 X-37.90861 Y0.83807
G01 X-37.95019 Y0.74874
G01 X-38.00770 Y0.57462
G01 X-38.02225 Y0.52261
G01 X-38.03802 Y0.40856
G01 X-38.04117 Y0.34140
G01 X-38.04128 Y-0.25400
G01 X-40.37376 Y-0.25397
G01 X-40.37378 Y0.41085
G01 X-40.38201 Y0.51664
G01 X-40.38953 Y0.55148
G01 X-40.41275 Y0.62006
G01 X-40.47383 Y0.74155
G01 X-40.58018 Y1.00051
G01 X-40.54079 Y1.04221
G01 X-40.48689 Y1.11638
G01 X-40.45524 Y1.18379
G01 X-40.44363 Y1.22885
G01 X-40.43975 Y1.26784
G01 X-40.44033 Y1.97813
G01 X-40.24043 Y2.02232
G01 X-40.24043 Y2.41043
G01 X-40.24871 Y2.51666
G01 X-40.25623 Y2.55151
G01 X-40.27947 Y2.62006
G01 X-40.34064 Y2.74155
G01 X-40.44754 Y3.00185
G01 X-40.37983 Y3.07744
G01 X-40.35372 Y3.11638
G01 X-40.32547 Y3.17429
G01 X-40.31043 Y3.22877
G01 X-40.30652 Y3.26774
G01 X-40.30850 Y4.17589
G01 X-40.30396 Y4.40855
G01 X-40.29901 Y4.45877
G01 X-40.28262 Y4.54475
G01 X-40.22885 Y4.71033
G01 X-40.17414 Y4.85188
G01 X-40.17434 Y4.91155
G01 X-40.21605 Y5.00042
G01 X-40.27411 Y5.17576
G01 X-40.29624 Y5.26816
G01 X-40.30685 Y5.37987
G01 X-40.30711 Y5.54789
G01 X-40.58394 Y6.92447
G01 X-40.87084 Y6.92353
G01 X-41.04015 Y6.91871
G01 X-41.19969 Y6.92348
G01 X-41.65948 Y6.92353
G01 X-41.87678 Y6.91655
G01 X-41.65948 Y6.92353
G01 X-41.19969 Y6.92348
G01 X-41.04015 Y6.91871
G01 X-40.87084 Y6.92353
G01 X-40.58394 Y6.92447
G01 X-40.40688 Y6.95460
G01 X-39.92669 Y6.99021
G01 X-39.57394 Y6.97502
G01 X-39.22121 Y6.99021
G01 X-38.73569 Y6.95378
G01 X-38.38923 Y7.02254
G01 X-37.93452 Y7.05691
G01 X-37.51496 Y7.05787
G01 X-37.16414 Y7.03905
G01 X-36.84567 Y6.99143
G01 X-36.52718 Y6.91116
G01 X-36.34854 Y6.85386
G01 X-35.96993 Y6.90822
G01 X-35.61776 Y6.92442
G01 X-35.30415 Y6.91866
G01 X-35.09437 Y6.92447
G01 X-34.80816 Y6.92353
G01 X-34.57230 Y6.91449
G01 X-34.32520 Y6.92353
G01 X-33.78396 Y6.92198
G01 X-33.31954 Y7.02274
G01 X-32.85912 Y7.05691
G01 X-32.57301 Y7.04708
G01 X-32.45957 Y7.05409
G01 X-32.00278 Y7.04299
G01 X-31.65373 Y6.99333
G01 X-31.34368 Y6.91655
G01 X-31.67695 Y5.40791
G01 X-31.69468 Y5.30929
G01 X-31.70573 Y5.16062
G01 X-31.69468 Y4.97294
G01 X-31.65655 Y4.79737
G01 X-31.58810 Y4.60797
G01 X-31.50756 Y4.42529
G01 X-31.50570 Y4.09209
G01 X-31.50756 Y4.42529
G01 X-31.58810 Y4.60797
G01 X-31.65655 Y4.79737
G01 X-31.69468 Y4.97294
G01 X-31.70573 Y5.16062
G01 X-31.69468 Y5.30929
G01 X-31.67695 Y5.40791
G01 X-31.34368 Y6.91655
G01 X-31.12635 Y6.92353
G01 X-30.68757 Y6.92353
G01 X-30.50568 Y6.91863
G01 X-30.29580 Y6.92447
G01 X-30.00985 Y6.92353
G01 X-29.84066 Y6.91871
G01 X-29.62125 Y6.92353
G01 X-29.37406 Y6.91446
G01 X-29.12687 Y6.92353
G01 X-28.90614 Y6.91866
G01 X-28.90263 Y6.22290
G01 X-28.90954 Y5.29671
G01 X-28.91450 Y5.24650
G01 X-28.92659 Y5.18571
G01 X-28.95585 Y5.10802
G01 X-28.97068 Y5.05346
G01 X-28.97475 Y5.00774
G01 X-28.97416 Y4.74144
G01 X-28.97830 Y4.69577
G01 X-29.02438 Y4.55155
G01 X-29.03377 Y4.50258
G01 X-29.04081 Y4.40807
G01 X-29.04081 Y4.34073
G01 X-28.80543 Y3.87160
G01 X-28.90634 Y3.81561
G01 X-28.90647 Y3.47398
G01 X-28.91132 Y3.26786
G01 X-28.91803 Y3.22478
G01 X-28.93919 Y3.14869
G01 X-28.99258 Y3.02725
G01 X-29.03797 Y2.82512
G01 X-29.03725 Y2.72006
G01 X-29.01851 Y2.61938
G01 X-29.03690 Y2.51828
G01 X-29.04061 Y2.44117
G01 X-29.04084 Y1.91074
G01 X-28.90746 Y1.87422
G01 X-28.90746 Y0.87620
G01 X-28.73967 Y0.74933
G01 X-28.71371 Y0.70505
G01 X-28.70700 Y0.58611
G01 X-28.70756 Y-0.25400
G01 X-27.90934 Y-0.25400
G01 X-27.90632 Y-0.02355
G01 X-27.90889 Y0.43990
G01 X-28.04003 Y0.64132
G01 X-28.06080 Y0.68031
G01 X-28.15930 Y0.91760
G01 X-28.16857 Y0.95067
G01 X-28.17434 Y1.00112
G01 X-28.17444 Y1.14099
G01 X-28.17858 Y1.18666
G01 X-28.19347 Y1.24092
G01 X-28.34081 Y1.54315
G01 X-28.43710 Y1.72573
G01 X-28.48417 Y1.87175
G01 X-28.24112 Y1.97825
G01 X-28.24084 Y2.43561
G01 X-28.23411 Y2.50673
G01 X-28.22473 Y2.55285
G01 X-28.20952 Y2.60124
G01 X-28.14208 Y2.74132
G01 X-28.11450 Y2.80797
G01 X-28.16433 Y2.93550
G01 X-28.17211 Y2.97457
G01 X-28.17785 Y3.05346
G01 X-28.18935 Y3.09799
G01 X-28.26184 Y3.27363
G01 X-28.35641 Y3.55801
G01 X-28.41836 Y3.72765
G01 X-28.47914 Y3.87386
G01 X-28.24109 Y3.97789
G01 X-28.24109 Y4.41030
G01 X-28.22811 Y4.54099
G01 X-28.19857 Y4.62745
G01 X-28.06136 Y4.89819
G01 X-27.98249 Y5.07167
G01 X-27.97688 Y5.07634
G01 X-27.97741 Y5.21332
G01 X-27.98120 Y5.25234
G01 X-28.01155 Y5.40461
G01 X-28.22303 Y6.15053
G01 X-28.44902 Y6.92366
G01 X-28.69636 Y6.92447
G01 X-28.90614 Y6.91866
G01 X-28.69636 Y6.92447
G01 X-28.44902 Y6.92366
G01 X-28.14467 Y6.99554
G01 X-27.83604 Y7.04157
G01 X-27.48844 Y7.05691
G01 X-27.00840 Y7.01987
G01 X-26.52720 Y6.91116
G01 X-26.12621 Y6.76862
G01 X-25.72525 Y6.57520
G01 X-25.27267 Y6.30085
G01 X-24.78113 Y5.92976
G01 X-24.20793 Y5.40791
G01 X-23.40800 Y4.60794
G01 X-22.84722 Y4.00787
G01 X-22.20785 Y3.40779
G01 X-21.35022 Y2.54813
G01 X-20.83608 Y2.00861
G01 X-20.20761 Y1.40754
G01 X-19.40801 Y0.60797
G01 X-18.59064 Y-0.25400
G01 X-34.90892 Y-0.25397
G01 X-34.90529 Y0.62746
G01 X-34.89970 Y0.67805
G01 X-34.94499 Y0.75334
G01 X-35.00491 Y0.87533
G01 X-34.94499 Y0.75334
G01 X-34.89970 Y0.67805
G01 X-34.90529 Y0.62746
G01 X-34.90892 Y-0.25397
G01 X-44.30593 Y-0.25400
G01 X-44.30583 Y0.34140
G01 X-44.29773 Y0.45877
G01 X-44.28134 Y0.54475
G01 X-44.25531 Y0.62746
G01 X-44.21485 Y0.74874
G01 X-44.17327 Y0.83807
G01 X-44.17319 Y0.89418
G01 X-44.17977 Y0.96109
G01 X-44.18909 Y1.00785
G01 X-44.17357 Y1.10823
G01 X-44.17266 Y1.29609
G01 X-44.17926 Y1.36108
G01 X-44.21477 Y1.51153
G01 X-44.22991 Y1.60048
G01 X-44.23915 Y1.74147
G01 X-44.24269 Y2.89179
G01 X-43.82381 Y3.00627
G01 X-43.63517 Y2.99944
G01 X-43.57268 Y3.00777
G01 X-43.07657 Y3.00678
G01 X-42.83949 Y2.99664
G01 X-42.58074 Y3.01803
G01 X-42.42067 Y2.87922
G01 X-42.07279 Y2.48714
G01 X-41.63969 Y2.00851
G01 X-41.63946 Y1.96195
G01 X-41.59240 Y1.72593
G01 X-41.55404 Y1.49235
G01 X-41.52831 Y1.37846
G01 X-41.49367 Y1.27445
G01 X-41.41874 Y1.09885
G01 X-41.36791 Y1.01267
G01 X-41.32085 Y0.95560
G01 X-41.22986 Y0.86408
G01 X-41.23992 Y0.77211
G01 X-41.24109 Y0.65895
G01 X-41.24211 Y0.23988
G01 X-41.23705 Y0.05413
G01 X-41.23639 Y-0.25400
G01 X-41.77332 Y-0.25400
G01 X-41.77596 Y0.29477
G01 X-41.78851 Y0.41351
G01 X-41.82384 Y0.55842
G01 X-41.86123 Y0.65004
G01 X-41.92389 Y0.75232
G01 X-41.95930 Y0.79355
G01 X-42.14988 Y0.98887
G01 X-41.90733 Y1.47602
G01 X-41.76855 Y1.73652
G01 X-41.63946 Y1.96195
G01 X-41.63969 Y2.00851
G01 X-40.71038 Y2.00774
G01 X-40.56997 Y1.99913
G01 X-40.44033 Y1.97813
G01 X-40.24043 Y2.02232
G01 X-40.04056 Y2.00731
G01 X-39.88438 Y2.00683
G01 X-39.77383 Y2.00035
G01 X-39.44036 Y1.96332
G01 X-39.29619 Y1.87119
G01 X-39.21585 Y1.84965
G01 X-38.98146 Y1.93815
G01 X-38.77422 Y2.00777
G01 X-38.10782 Y2.00777
G01 X-37.97450 Y1.96299
G01 X-37.80958 Y1.99575
G01 X-37.66111 Y2.00678
G01 X-36.32611 Y2.00917
G01 X-35.73661 Y2.84043
G01 X-35.51235 Y2.86309
G01 X-35.30801 Y3.08531
G01 X-35.13361 Y3.24422
G01 X-34.84580 Y3.48143
G01 X-34.64375 Y3.62989
G01 X-34.30572 Y3.78341
G01 X-34.03915 Y3.85633
G01 X-33.77258 Y3.88061
G01 X-33.61182 Y3.87441
G01 X-33.43831 Y3.86108
G01 X-33.61182 Y3.87441
G01 X-33.77258 Y3.88061
G01 X-33.61182 Y3.87441
G01 X-33.43831 Y3.86108
G01 X-33.36414 Y3.86867
G01 X-33.11444 Y3.88041
G01 X-33.04052 Y3.88800
G01 X-32.85866 Y3.87464
G01 X-32.63961 Y3.87454
G01 X-32.57304 Y3.89273
G01 X-32.46336 Y3.88196
G01 X-32.28701 Y3.87513
G01 X-32.17741 Y3.88023
G01 X-31.83989 Y3.91198
G01 X-31.84083 Y3.50614
G01 X-31.83644 Y3.38488
G01 X-31.81566 Y3.24513
G01 X-31.77710 Y3.07724
G01 X-31.77350 Y3.02839
G01 X-31.77327 Y2.83792
G01 X-31.81474 Y2.74815
G01 X-31.85604 Y2.62745
G01 X-31.88208 Y2.54475
G01 X-31.89846 Y2.45877
G01 X-31.90657 Y2.34140
G01 X-31.90657 Y2.03002
G01 X-31.90657 Y2.34140
G01 X-31.89846 Y2.45877
G01 X-31.88208 Y2.54475
G01 X-31.85604 Y2.62745
G01 X-31.81474 Y2.74815
G01 X-31.77327 Y2.83792
G01 X-31.77350 Y3.02839
G01 X-31.77710 Y3.07724
G01 X-31.81566 Y3.24513
G01 X-31.83644 Y3.38488
G01 X-31.84083 Y3.50614
G01 X-31.83989 Y3.91198
G01 X-31.50570 Y4.09209
G01 X-31.38315 Y4.03052
G01 X-31.24009 Y3.96479
G01 X-31.10687 Y3.92963
G01 X-30.87108 Y3.88455
G01 X-30.70708 Y3.87452
G01 X-30.50827 Y3.87454
G01 X-30.37380 Y3.83847
G01 X-30.24858 Y3.86029
G01 X-30.07713 Y3.87358
G01 X-29.91432 Y3.81028
G01 X-29.77822 Y3.76387
G01 X-29.50101 Y3.73273
G01 X-29.37406 Y3.71221
G01 X-28.90634 Y3.81561
G01 X-28.80543 Y3.87160
G01 X-28.70335 Y3.87513
G01 X-28.47914 Y3.87386
G01 X-28.24109 Y3.97789
G01 X-28.04109 Y4.00045
G01 X-27.92948 Y4.00693
G01 X-22.84722 Y4.00787
G01 X-22.20785 Y3.40779
G01 X-21.35022 Y2.54813
G01 X-20.83608 Y2.00861
G01 X-24.40958 Y2.00284
G01 X-25.56411 Y2.00777
G01 X-27.51021 Y2.00777
G01 X-27.64572 Y2.01618
G01 X-27.77602 Y2.03713
G01 X-27.92948 Y2.01198
G01 X-28.24112 Y1.97825
G01 X-28.48417 Y1.87175
G01 X-28.90746 Y1.87422
G01 X-29.04084 Y1.91074
G01 X-29.11556 Y1.89735
G01 X-29.26817 Y1.87810
G01 X-29.50728 Y1.85649
G01 X-29.63893 Y1.89291
G01 X-29.78208 Y1.87983
G01 X-29.91150 Y1.87394
G01 X-30.27248 Y1.87414
G01 X-30.37380 Y1.91442
G01 X-30.55422 Y1.93340
G01 X-30.72653 Y1.94122
G01 X-30.91495 Y1.92578
G01 X-31.17464 Y1.87409
G01 X-31.32800 Y1.79725
G01 X-31.41845 Y1.84607
G01 X-31.65625 Y1.94663
G01 X-31.90657 Y2.03002
G01 X-32.01797 Y2.01694
G01 X-32.15025 Y2.00810
G01 X-32.63961 Y2.00777
G01 X-33.01614 Y1.88445
G01 X-33.10621 Y1.89835
G01 X-33.23519 Y1.88100
G01 X-33.33862 Y1.87170
G01 X-33.51091 Y1.92171
G01 X-33.64647 Y1.93528
G01 X-33.75307 Y1.94094
G01 X-34.25063 Y1.94033
G01 X-34.41441 Y2.01468
G01 X-34.64192 Y2.13220
G01 X-34.90107 Y2.29502
G01 X-35.07100 Y2.44813
G01 X-35.42048 Y2.78039
G01 X-35.51235 Y2.86309
G01 X-35.73661 Y2.84043
G01 X-36.32611 Y2.00917
G01 X-36.37488 Y1.17373
G01 X-36.39711 Y0.94122
G01 X-36.38578 Y0.87610
G01 X-36.37341 Y0.62103
G01 X-36.37389 Y-0.25400
G01 X-36.37341 Y0.62103
G01 X-36.38578 Y0.87610
G01 X-35.98360 Y0.87925
G01 X-35.60671 Y0.87262
G01 X-35.00491 Y0.87533
G01 X-34.97857 Y0.94638
G01 X-34.97301 Y0.97780
G01 X-34.96810 Y1.05720
G01 X-34.92203 Y1.19746
G01 X-34.91075 Y1.25636
G01 X-34.90468 Y1.40414
G01 X-34.90770 Y1.66957
G01 X-34.90107 Y2.29502
G01 X-34.64192 Y2.13220
G01 X-34.41441 Y2.01468
G01 X-34.25063 Y1.94033
G01 X-34.17420 Y1.54963
G01 X-34.17128 Y1.37892
G01 X-34.16178 Y1.26825
G01 X-34.15287 Y1.22232
G01 X-34.08065 Y1.00094
G01 X-34.03915 Y0.91186
G01 X-34.03918 Y0.85174
G01 X-34.07153 Y0.77358
G01 X-34.13950 Y0.57333
G01 X-34.15386 Y0.52250
G01 X-34.16503 Y0.45834
G01 X-34.17334 Y0.31077
G01 X-34.17250 Y-0.25397
G01 X-33.63946 Y-0.25400
G01 X-33.63752 Y0.40767
G01 X-33.63260 Y0.45786
G01 X-33.61690 Y0.53947
G01 X-33.58792 Y0.63149
G01 X-33.57750 Y0.68268
G01 X-33.57270 Y0.74130
G01 X-33.57270 Y0.95291
G01 X-33.49821 Y1.08811
G01 X-33.45845 Y1.18572
G01 X-33.44636 Y1.24651
G01 X-33.44141 Y1.29672
G01 X-33.43933 Y1.47437
G01 X-33.33862 Y1.87170
G01 X-33.51091 Y1.92171
G01 X-33.50600 Y2.20271
G01 X-33.50572 Y2.74089
G01 X-33.51660 Y2.81798
G01 X-33.53918 Y2.87536
G01 X-33.51251 Y2.94658
G01 X-33.50689 Y2.97787
G01 X-33.50189 Y3.05717
G01 X-33.45579 Y3.19745
G01 X-33.44454 Y3.25631
G01 X-33.43847 Y3.40393
G01 X-33.44149 Y3.66926
G01 X-33.43831 Y3.86108
G01 X-33.36414 Y3.86867
G01 X-33.11444 Y3.88041
G01 X-33.04052 Y3.88800
G01 X-32.85866 Y3.87464
G01 X-32.63961 Y3.87454
G01 X-32.57304 Y3.89273
G01 X-32.46336 Y3.88196
G01 X-32.28701 Y3.87513
G01 X-32.17741 Y3.88023
G01 X-31.83989 Y3.91198
G01 X-31.50570 Y4.09209
G01 X-31.38315 Y4.03052
G01 X-31.24009 Y3.96479
G01 X-31.24007 Y2.94427
G01 X-31.26387 Y2.92494
G01 X-31.29404 Y2.84000
G01 X-31.30207 Y2.79961
G01 X-31.20268 Y2.59392
G01 X-31.18043 Y2.50259
G01 X-31.17339 Y2.40807
G01 X-31.17464 Y1.87409
G01 X-31.32800 Y1.79725
G01 X-31.33065 Y1.76649
G01 X-31.41919 Y1.35994
G01 X-31.43903 Y1.16063
G01 X-31.42798 Y0.97295
G01 X-31.40994 Y0.87307
G01 X-31.41927 Y0.82639
G01 X-31.43882 Y0.65593
G01 X-31.44147 Y-0.25400
G01 X-29.57396 Y-0.25400
G01 X-29.57299 Y0.62746
G01 X-29.56789 Y0.67701
G01 X-29.54879 Y0.74816
G01 X-29.50703 Y0.83777
G01 X-29.50728 Y1.85649
G01 X-29.63893 Y1.89291
G01 X-29.64086 Y2.47452
G01 X-29.64975 Y2.57665
G01 X-29.66372 Y2.63647
G01 X-29.69918 Y2.72349
G01 X-29.75270 Y2.80413
G01 X-29.77937 Y2.83439
G01 X-29.80124 Y2.92694
G01 X-29.78381 Y2.99151
G01 X-29.77403 Y3.07957
G01 X-29.77236 Y3.44769
G01 X-29.77822 Y3.76387
G01 X-29.91432 Y3.81028
G01 X-30.07713 Y3.87358
G01 X-29.97845 Y4.13195
G01 X-29.86964 Y4.45475
G01 X-29.79240 Y4.64116
G01 X-29.78061 Y4.68020
G01 X-29.77375 Y4.73464
G01 X-29.77380 Y5.00774
G01 X-29.77802 Y5.05330
G01 X-29.78495 Y5.08422
G01 X-29.82486 Y5.19763
G01 X-29.83408 Y5.24680
G01 X-29.84066 Y5.33865
G01 X-29.84066 Y6.91871
G01 X-30.00985 Y6.92353
G01 X-30.29580 Y6.92447
G01 X-30.50568 Y6.91863
G01 X-30.50220 Y6.22356
G01 X-30.50703 Y5.34114
G01 X-30.51406 Y5.24657
G01 X-30.52061 Y5.20791
G01 X-30.53418 Y5.16110
G01 X-30.55536 Y5.10804
G01 X-30.57253 Y5.03761
G01 X-30.57276 Y4.85516
G01 X-30.56649 Y4.81386
G01 X-30.55465 Y4.77484
G01 X-30.52448 Y4.71361
G01 X-30.50075 Y4.67830
G01 X-30.50774 Y4.55729
G01 X-30.50827 Y3.87454
G01 X-30.37380 Y3.83847
G01 X-30.37380 Y3.46956
G01 X-30.36999 Y3.38463
G01 X-30.35059 Y3.24543
G01 X-30.32158 Y3.13319
G01 X-30.30779 Y3.04363
G01 X-30.31213 Y2.93576
G01 X-30.32638 Y2.86568
G01 X-30.33095 Y2.85069
G01 X-30.37380 Y2.80787
G01 X-30.37380 Y1.91442
G01 X-30.27248 Y1.87414
G01 X-30.37380 Y1.47437
G01 X-30.37586 Y1.29675
G01 X-30.38079 Y1.24653
G01 X-30.39285 Y1.18575
G01 X-30.42072 Y1.11356
G01 X-30.46804 Y1.01808
G01 X-30.50619 Y0.95232
G01 X-30.50672 Y0.74130
G01 X-30.51165 Y0.68270
G01 X-30.52219 Y0.63149
G01 X-30.55122 Y0.53947
G01 X-30.56687 Y0.45784
G01 X-30.57180 Y0.40764
G01 X-30.57368 Y-0.25400
G01 X-32.70628 Y-0.25397
G01 X-32.70529 Y0.65839
G01 X-32.71037 Y0.78689
G01 X-32.72158 Y0.83119
G01 X-32.79463 Y1.01079
G01 X-32.77718 Y1.08232
G01 X-32.77329 Y1.12128
G01 X-32.77697 Y1.19995
G01 X-32.78553 Y1.24290
G01 X-32.90700 Y1.60919
G01 X-33.01614 Y1.88445
G01 X-32.63961 Y2.00777
G01 X-32.64068 Y2.45161
G01 X-32.65564 Y2.55153
G01 X-32.68723 Y2.64150
G01 X-32.70458 Y2.71163
G01 X-32.70628 Y3.00754
G01 X-32.69524 Y3.08427
G01 X-32.65543 Y3.19761
G01 X-32.64149 Y3.29695
G01 X-32.63961 Y3.87454
G01 X-32.85866 Y3.87464
G01 X-33.04052 Y3.88800
G01 X-33.03768 Y4.45209
G01 X-33.02376 Y4.55143
G01 X-32.97900 Y4.68450
G01 X-32.97319 Y4.74784
G01 X-32.97900 Y4.79814
G01 X-32.98825 Y4.83095
G01 X-33.06176 Y5.01071
G01 X-33.04436 Y5.08246
G01 X-33.04052 Y5.12143
G01 X-33.04433 Y5.19976
G01 X-33.05289 Y5.24228
G01 X-33.06470 Y5.28130
G01 X-33.10778 Y5.37332
G01 X-33.29602 Y5.66293
G01 X-33.41362 Y5.89150
G01 X-33.50047 Y6.09300
G01 X-33.70311 Y6.60138
G01 X-33.78396 Y6.92198
G01 X-33.70311 Y6.60138
G01 X-33.70120 Y6.22089
G01 X-33.70809 Y5.29674
G01 X-33.72244 Y5.19745
G01 X-33.76536 Y5.06852
G01 X-33.77258 Y5.00774
G01 X-33.77258 Y3.88061
G01 X-34.03915 Y3.85633
G01 X-34.30572 Y3.78341
G01 X-34.64375 Y3.62989
G01 X-34.84580 Y3.48143
G01 X-35.13361 Y3.24422
G01 X-35.30801 Y3.08531
G01 X-35.51235 Y2.86309
G01 X-35.73661 Y2.84043
G01 X-35.93020 Y3.05745
G01 X-36.09691 Y3.27444
G01 X-36.57420 Y3.94246
G01 X-36.57232 Y4.77136
G01 X-36.56825 Y4.87779
G01 X-36.57333 Y5.00774
G01 X-36.57270 Y5.17116
G01 X-36.55141 Y5.43126
G01 X-36.34854 Y6.85386
G01 X-35.96993 Y6.90822
G01 X-35.61776 Y6.92442
G01 X-35.30415 Y6.91866
G01 X-35.09437 Y6.92447
G01 X-34.80816 Y6.92353
G01 X-34.57230 Y6.91449
G01 X-34.57199 Y4.74129
G01 X-34.57936 Y4.68048
G01 X-34.62297 Y4.55148
G01 X-34.63790 Y4.45168
G01 X-34.64375 Y3.62989
G01 X-34.30572 Y3.78341
G01 X-34.03915 Y3.85633
G01 X-33.77258 Y3.88061
G01 X-33.61182 Y3.87441
G01 X-33.43831 Y3.86108
G01 X-33.44149 Y3.66926
G01 X-33.43847 Y3.40393
G01 X-33.44454 Y3.25631
G01 X-33.45579 Y3.19745
G01 X-33.50189 Y3.05717
G01 X-33.50689 Y2.97787
G01 X-33.51251 Y2.94658
G01 X-33.53918 Y2.87536
G01 X-34.14037 Y2.87261
G01 X-34.51725 Y2.87924
G01 X-35.50333 Y2.87152
G01 X-35.51235 Y2.86309
G01 X-35.30801 Y3.08531
G01 X-35.31024 Y3.52844
G01 X-35.30547 Y3.98302
G01 X-35.30547 Y4.58848
G01 X-35.29962 Y4.67812
G01 X-35.34486 Y4.75333
G01 X-35.40488 Y4.87533
G01 X-35.39030 Y4.90746
G01 X-35.37582 Y4.95823
G01 X-35.37107 Y5.03761
G01 X-35.36533 Y5.06877
G01 X-35.32193 Y5.19745
G01 X-35.31067 Y5.25630
G01 X-35.30681 Y5.31211
G01 X-35.30422 Y5.47360
G01 X-35.30763 Y5.66925
G01 X-35.30064 Y6.22290
G01 X-35.30415 Y6.91866
G01 X-35.30064 Y6.22290
G01 X-35.30763 Y5.66925
G01 X-35.30422 Y5.47360
G01 X-35.30681 Y5.31211
G01 X-35.31425 Y5.23215
G01 X-35.33478 Y5.15513
G01 X-35.36533 Y5.06877
G01 X-35.37107 Y5.03761
G01 X-35.37582 Y4.95823
G01 X-35.39978 Y4.88483
G01 X-35.40488 Y4.87533
G01 X-35.43948 Y4.87401
G01 X-36.00651 Y4.87261
G01 X-36.19193 Y4.87766
G01 X-36.56825 Y4.87779
G01 X-36.57232 Y4.77136
G01 X-36.57420 Y3.94246
G01 X-36.80333 Y3.94010
G01 X-37.04532 Y3.95059
G01 X-37.50793 Y4.00045
G01 X-37.61842 Y4.00693
G01 X-38.46060 Y4.00776
G01 X-38.62901 Y3.99324
G01 X-39.04079 Y3.90411
G01 X-39.09781 Y3.85884
G01 X-39.26644 Y3.90624
G01 X-39.70729 Y4.05211
G01 X-39.90279 Y4.01615
G01 X-40.03721 Y4.00787
G01 X-41.04015 Y4.00789
G01 X-41.37340 Y3.89707
G01 X-41.48714 Y3.84317
G01 X-41.63997 Y3.78125
G01 X-42.30647 Y3.38125
G01 X-42.38318 Y3.27444
G01 X-42.58074 Y3.01803
G01 X-42.83949 Y2.99664
G01 X-42.83931 Y1.13452
G01 X-42.83349 Y1.08425
G01 X-42.82410 Y1.05110
G01 X-42.73720 Y0.84026
G01 X-42.79039 Y0.76904
G01 X-42.84739 Y0.66101
G01 X-42.87891 Y0.58847
G01 X-42.89918 Y0.50256
G01 X-42.90703 Y0.34564
G01 X-42.90619 Y-0.25397
G01 X-43.57266 Y-0.25397
G01 X-43.57266 Y0.41044
G01 X-43.57924 Y0.50229
G01 X-43.58846 Y0.55151
G01 X-43.61170 Y0.62006
G01 X-43.66659 Y0.72926
G01 X-43.70593 Y0.79624
G01 X-43.70542 Y1.08732
G01 X-43.67334 Y1.13840
G01 X-43.65765 Y1.17445
G01 X-43.64264 Y1.22888
G01 X-43.63875 Y1.26787
G01 X-43.64164 Y2.09852
G01 X-43.63517 Y2.99944
G01 X-43.57268 Y3.00777
G01 X-43.57078 Y4.45224
G01 X-43.55970 Y4.54101
G01 X-43.53016 Y4.62745
G01 X-43.39306 Y4.89773
G01 X-43.31393 Y5.07167
G01 X-43.30847 Y5.07624
G01 X-43.30898 Y5.21330
G01 X-43.31274 Y5.25231
G01 X-43.34312 Y5.40454
G01 X-43.55462 Y6.15043
G01 X-43.78071 Y6.92366
G01 X-44.02806 Y6.92447
G01 X-44.23783 Y6.91866
G01 X-44.23433 Y6.22089
G01 X-44.24121 Y5.29674
G01 X-44.24614 Y5.24652
G01 X-44.25820 Y5.18574
G01 X-44.28747 Y5.10797
G01 X-44.30225 Y5.05343
G01 X-44.30631 Y5.00776
G01 X-44.30573 Y4.74144
G01 X-44.30987 Y4.69575
G01 X-44.35592 Y4.55155
G01 X-44.36534 Y4.50251
G01 X-44.37238 Y4.40794
G01 X-44.37238 Y4.34068
G01 X-44.18741 Y3.97157
G01 X-44.01899 Y3.59423
G01 X-43.85109 Y3.09690
G01 X-43.82381 Y3.00627
G01 X-44.24269 Y2.89179
G01 X-44.66895 Y2.87543
G01 X-45.77420 Y2.87348
G01 X-45.83859 Y2.85712
G01 X-46.36221 Y2.66715
G01 X-47.62777 Y2.26383
G01 X-48.54359 Y1.96736
G01 X-51.22296 Y1.11676
G01 X-51.41090 Y1.04762
G01 X-52.17795 Y0.78491
G01 X-53.24325 Y0.42972
G01 X-53.87764 Y-0.25400
G01 X-44.30593 Y-0.25400
G04 P0 ( dwell for no time -- G64 should not smooth over this point )
G00 Z10.00000 ( retract )

G00 X-55.50718 Y39.08793 ( rapid move to begin. )
G01 F30.00000
( Mill infeed pass 1/1 )
G01 Z-0.10000
G04 P0 ( dwell for no time -- G64 should not smooth over this point )
G01 F360.00000
G01 X-55.50718 Y39.08793
G01 X-55.52686 Y38.91857
G01 X-55.53860 Y38.86030
G01 X-55.58170 Y38.74348
G01 X-55.62691 Y38.64867
G01 X-55.68658 Y38.56187
G01 X-55.76621 Y38.46614
G01 X-55.81078 Y38.42685
G01 X-55.93644 Y38.33299
G01 X-55.95998 Y38.31941
G01 X-56.10405 Y38.25751
G01 X-56.16037 Y38.23853
G01 X-56.28310 Y38.21745
G01 X-56.38797 Y38.20917
G01 X-56.49285 Y38.21742
G01 X-56.61561 Y38.23853
G01 X-56.64662 Y38.24818
G01 X-56.81596 Y38.31938
G01 X-56.83954 Y38.33302
G01 X-56.98587 Y38.44404
G01 X-57.00977 Y38.46614
G01 X-57.08937 Y38.56187
G01 X-57.14906 Y38.64867
G01 X-57.19425 Y38.74348
G01 X-57.23735 Y38.86030
G01 X-57.24909 Y38.91857
G01 X-57.26880 Y39.08793
G01 X-57.24911 Y39.25727
G01 X-57.22902 Y39.37399
G01 X-57.27416 Y39.43391
G01 X-63.63736 Y45.79711
G01 X-63.66741 Y45.82300
G01 X-63.73063 Y45.83085
G01 X-64.75806 Y45.83085
G01 X-64.86327 Y45.85264
G01 X-64.88504 Y45.95787
G01 X-64.88504 Y47.45797
G01 X-64.86327 Y47.56320
G01 X-64.75806 Y47.58499
G01 X-63.25791 Y47.58499
G01 X-63.15271 Y47.56320
G01 X-63.13094 Y47.45797
G01 X-63.13094 Y46.43056
G01 X-63.12306 Y46.36734
G01 X-63.09718 Y46.33730
G01 X-56.73397 Y39.97409
G01 X-56.67700 Y39.93063
G01 X-56.62341 Y39.93596
G01 X-56.49285 Y39.95839
G01 X-56.38800 Y39.96667
G01 X-56.28310 Y39.95839
G01 X-56.16037 Y39.93728
G01 X-56.10405 Y39.91834
G01 X-55.94772 Y39.85077
G01 X-55.81078 Y39.74899
G01 X-55.76621 Y39.70970
G01 X-55.68658 Y39.61394
G01 X-55.62691 Y39.52718
G01 X-55.58170 Y39.43233
G01 X-55.53862 Y39.31554
G01 X-55.53144 Y39.28379
G01 X-55.50718 Y39.08793
G04 P0 ( dwell for no time -- G64 should not smooth over this point )
G00 Z10.00000 ( retract )

G00 X-27.56718 Y41.62793 ( rapid move to begin. )
G01 F30.00000
( Mill infeed pass 1/1 )
G01 Z-0.10000
G04 P0 ( dwell for no time -- G64 should not smooth over this point )
G01 F360.00000
G01 X-27.56718 Y41.62793
G01 X-27.59144 Y41.43202
G01 X-27.59860 Y41.40030
G01 X-27.64170 Y41.28348
G01 X-27.68691 Y41.18867
G01 X-27.74658 Y41.10187
G01 X-27.82621 Y41.00614
G01 X-27.87078 Y40.96685
G01 X-28.00769 Y40.86504
G01 X-28.16405 Y40.79751
G01 X-28.22037 Y40.77853
G01 X-28.34310 Y40.75745
G01 X-28.44797 Y40.74917
G01 X-28.55285 Y40.75742
G01 X-28.67561 Y40.77853
G01 X-28.73190 Y40.79748
G01 X-28.88828 Y40.86504
G01 X-29.02516 Y40.96685
G01 X-29.06977 Y41.00614
G01 X-29.14937 Y41.10187
G01 X-29.20906 Y41.18867
G01 X-29.25425 Y41.28348
G01 X-29.29735 Y41.40030
G01 X-29.30454 Y41.43202
G01 X-29.32880 Y41.62793
G01 X-29.30454 Y41.82379
G01 X-29.29735 Y41.85554
G01 X-29.25427 Y41.97233
G01 X-29.20906 Y42.06718
G01 X-29.14940 Y42.15397
G01 X-29.06977 Y42.24970
G01 X-29.02516 Y42.28899
G01 X-28.88826 Y42.39077
G01 X-28.73190 Y42.45834
G01 X-28.67561 Y42.47728
G01 X-28.55285 Y42.49839
G01 X-28.44797 Y42.50667
G01 X-28.34310 Y42.49839
G01 X-28.22037 Y42.47728
G01 X-28.16405 Y42.45834
G01 X-28.00772 Y42.39077
G01 X-27.87078 Y42.28899
G01 X-27.82621 Y42.24970
G01 X-27.74658 Y42.15394
G01 X-27.68691 Y42.06718
G01 X-27.64170 Y41.97233
G01 X-27.59862 Y41.85554
G01 X-27.59144 Y41.82379
G01 X-27.56718 Y41.62793
G04 P0 ( dwell for no time -- G64 should not smooth over this point )
G00 Z10.00000 ( retract )

G00 X-7.25091 Y43.41785 ( rapid move to begin. )
G01 F30.00000
( Mill infeed pass 1/1 )
G01 Z-0.10000
G04 P0 ( dwell for no time -- G64 should not smooth over this point )
G01 F360.00000
G01 X-7.25091 Y43.41785
G01 X-7.25091 Y44.91799
G01 X-7.27271 Y45.02318
G01 X-7.37794 Y45.04497
G01 X-8.87806 Y45.04497
G01 X-8.98327 Y45.02320
G01 X-9.00506 Y44.91799
G01 X-9.00506 Y43.41785
G01 X-8.98327 Y43.31264
G01 X-8.87806 Y43.29087
G01 X-7.37794 Y43.29087
G01 X-7.27271 Y43.31266
G01 X-7.25091 Y43.41785
G04 P0 ( dwell for no time -- G64 should not smooth over this point )
G00 Z10.00000 ( retract )

G00 X-7.24715 Y41.62793 ( rapid move to begin. )
G01 F30.00000
( Mill infeed pass 1/1 )
G01 Z-0.10000
G04 P0 ( dwell for no time -- G64 should not smooth over this point )
G01 F360.00000
G01 X-7.24715 Y41.62793
G01 X-7.27144 Y41.43202
G01 X-7.27860 Y41.40030
G01 X-7.32170 Y41.28348
G01 X-7.36691 Y41.18867
G01 X-7.42658 Y41.10187
G01 X-7.50621 Y41.00614
G01 X-7.55079 Y40.96685
G01 X-7.68769 Y40.86504
G01 X-7.84405 Y40.79751
G01 X-7.90037 Y40.77853
G01 X-8.02310 Y40.75745
G01 X-8.12800 Y40.74917
G01 X-8.23285 Y40.75742
G01 X-8.35561 Y40.77853
G01 X-8.41190 Y40.79748
G01 X-8.56828 Y40.86504
G01 X-8.70516 Y40.96685
G01 X-8.74977 Y41.00614
G01 X-8.82937 Y41.10187
G01 X-8.88906 Y41.18867
G01 X-8.93425 Y41.28348
G01 X-8.97735 Y41.40030
G01 X-8.98454 Y41.43202
G01 X-9.00880 Y41.62793
G01 X-8.98454 Y41.82379
G01 X-8.97735 Y41.85554
G01 X-8.93427 Y41.97233
G01 X-8.88906 Y42.06718
G01 X-8.82940 Y42.15397
G01 X-8.74977 Y42.24970
G01 X-8.70516 Y42.28899
G01 X-8.56826 Y42.39077
G01 X-8.41190 Y42.45834
G01 X-8.35561 Y42.47728
G01 X-8.23285 Y42.49839
G01 X-8.12800 Y42.50667
G01 X-8.02310 Y42.49839
G01 X-7.90037 Y42.47728
G01 X-7.84405 Y42.45834
G01 X-7.68772 Y42.39077
G01 X-7.55079 Y42.28899
G01 X-7.50621 Y42.24970
G01 X-7.42658 Y42.15394
G01 X-7.36691 Y42.06718
G01 X-7.32170 Y41.97233
G01 X-7.27862 Y41.85554
G01 X-7.27144 Y41.82379
G01 X-7.24715 Y41.62793

G04 P0 ( dwell for no time -- G64 should not smooth over this point )
G00 Z50.000000 ( retract )

M5 ( Spindle off. )
G04 P1.000000
M9 ( Coolant off. )
M2 ( Program end. )

