( pcb2gcode 2.2.2 )
( Software-independent Gcode )

G94 ( Millimeters per minute feed rate. )
G21 ( Units == Millimeters. )

G90 ( Absolute coordinates. )
G00 S10000 ( RPM spindle speed. )
G01 F360.00000 ( Feedrate. )


G00 Z50.00000 (Retract to tool change height)
T0
M5      (Spindle stop.)
G04 P1.00000 (Wait for spindle to stop)
(MSG, Change tool bit to mill diameter 0.50800mm)
M6      (Tool change.)
M0      (Temporary machine stop.)
M3 ( Spindle on clockwise. )
G04 P1.00000 (Wait for spindle to get up to speed)
G04 P0 ( dwell for no time -- G64 should not smooth over this point )
G00 Z10.00000 ( retract )

G00 X-18.58935 Y-0.25400 ( rapid move to begin. )
G01 F30.00000
( Mill infeed pass 1/1 )
G01 Z-0.10000
G04 P0 ( dwell for no time -- G64 should not smooth over this point )
G01 F360.00000
G01 X-18.58935 Y-0.25400
G01 X0.25400 Y-0.25400
G01 X0.25400 Y50.00993
G01 X-72.38997 Y50.00993
G01 X-72.38997 Y-0.25400
G01 X-53.87624 Y-0.25397
G01 X-53.24620 Y0.42776
G01 X-51.62791 Y0.97043
G01 X-51.22433 Y1.11874
G01 X-50.45687 Y1.35664
G01 X-46.36224 Y2.66715
G01 X-45.83859 Y2.85709
G01 X-45.83938 Y4.53743
G01 X-45.83854 Y4.62747
G01 X-45.83326 Y4.67789
G01 X-45.86364 Y4.72417
G01 X-45.89026 Y4.78417
G01 X-45.90486 Y4.85513
G01 X-45.90382 Y5.03730
G01 X-45.89823 Y5.06872
G01 X-45.85515 Y5.19687
G01 X-45.84548 Y5.24713
G01 X-45.83862 Y5.34106
G01 X-45.83862 Y6.91855
G01 X-45.62737 Y6.92447
G01 X-45.34108 Y6.92351
G01 X-45.17085 Y6.91863
G01 X-45.16732 Y6.22310
G01 X-45.17199 Y5.33809
G01 X-45.16567 Y5.24744
G01 X-45.15625 Y5.19699
G01 X-45.11660 Y5.08460
G01 X-45.10946 Y5.05308
G01 X-45.10540 Y5.00774
G01 X-45.10535 Y4.73479
G01 X-45.10900 Y4.69588
G01 X-45.12384 Y4.64124
G01 X-45.20110 Y4.45475
G01 X-45.26796 Y4.25221
G01 X-45.37575 Y3.95313
G01 X-45.50733 Y3.63464
G01 X-45.66712 Y3.19880
G01 X-45.77438 Y2.87338
G01 X-45.83859 Y2.85709
G01 X-45.77438 Y2.87338
G01 X-44.66890 Y2.87487
G01 X-44.23910 Y2.89296
G01 X-43.82041 Y3.00665
G01 X-43.64360 Y2.99905
G01 X-43.64350 Y2.62910
G01 X-43.63712 Y2.09357
G01 X-43.64071 Y1.84112
G01 X-43.63941 Y1.25506
G01 X-43.64573 Y1.21343
G01 X-43.65757 Y1.17450
G01 X-43.70535 Y1.08588
G01 X-43.70581 Y0.79621
G01 X-43.66677 Y0.72959
G01 X-43.61150 Y0.62012
G01 X-43.58785 Y0.55133
G01 X-43.57825 Y0.50107
G01 X-43.57200 Y0.38141
G01 X-43.57268 Y-0.25397
G01 X-42.90619 Y-0.25397
G01 X-42.90705 Y0.34547
G01 X-42.90474 Y0.43767
G01 X-42.89758 Y0.51592
G01 X-42.87700 Y0.59388
G01 X-42.84950 Y0.65634
G01 X-42.78577 Y0.77737
G01 X-42.73728 Y0.84028
G01 X-42.82412 Y1.05105
G01 X-42.83558 Y1.09553
G01 X-42.83977 Y1.14110
G01 X-42.83959 Y2.99664
G01 X-42.58061 Y3.01803
G01 X-42.38305 Y3.27444
G01 X-42.30649 Y3.38104
G01 X-42.30558 Y5.02910
G01 X-42.29636 Y5.15394
G01 X-42.26199 Y5.31305
G01 X-42.19463 Y5.51292
G01 X-42.15493 Y5.65610
G01 X-41.87426 Y6.91670
G01 X-41.80573 Y6.92041
G01 X-41.35229 Y6.92442
G01 X-41.04018 Y6.91871
G01 X-40.87106 Y6.92351
G01 X-40.58399 Y6.92447
G01 X-40.26441 Y6.97169
G01 X-39.90721 Y6.99117
G01 X-39.57396 Y6.97405
G01 X-39.57396 Y4.87688
G01 X-39.59499 Y4.82864
G01 X-39.62367 Y4.74129
G01 X-39.68405 Y4.50487
G01 X-39.69578 Y4.44495
G01 X-39.70724 Y4.30367
G01 X-39.70731 Y4.05206
G01 X-39.26586 Y3.90611
G01 X-39.09903 Y3.85907
G01 X-39.04325 Y3.34254
G01 X-38.94955 Y3.24764
G01 X-38.84038 Y3.11584
G01 X-38.81430 Y3.07680
G01 X-38.76203 Y2.98016
G01 X-38.72753 Y2.88590
G01 X-38.71760 Y2.84411
G01 X-38.76101 Y2.70980
G01 X-38.77399 Y2.62745
G01 X-38.77323 Y2.00805
G01 X-38.98146 Y1.93815
G01 X-39.21582 Y1.84965
G01 X-39.14285 Y1.43411
G01 X-39.10277 Y1.29746
G01 X-39.02009 Y1.10015
G01 X-38.96474 Y1.00734
G01 X-38.95468 Y0.95613
G01 X-38.93696 Y0.89573
G01 X-38.87460 Y0.74209
G01 X-38.81879 Y0.63002
G01 X-38.79101 Y0.55301
G01 X-38.78189 Y0.50696
G01 X-38.77559 Y0.43746
G01 X-38.77330 Y0.34600
G01 X-38.77424 Y-0.25400
G01 X-39.44071 Y-0.25397
G01 X-39.44041 Y0.40782
G01 X-39.44915 Y0.54653
G01 X-39.47135 Y0.66261
G01 X-39.48420 Y0.70475
G01 X-39.62512 Y1.05108
G01 X-39.63838 Y1.10790
G01 X-39.63972 Y1.16063
G01 X-39.63058 Y1.21333
G01 X-39.60429 Y1.28080
G01 X-39.43055 Y1.62784
G01 X-39.29624 Y1.87119
G01 X-39.21582 Y1.84965
G01 X-39.29624 Y1.87119
G01 X-39.44038 Y1.96329
G01 X-39.43929 Y2.30518
G01 X-39.43142 Y2.42143
G01 X-39.37965 Y2.66946
G01 X-39.36870 Y2.81315
G01 X-39.35933 Y2.86624
G01 X-39.31983 Y2.98016
G01 X-39.27234 Y3.07035
G01 X-39.21034 Y3.15765
G01 X-39.04325 Y3.34254
G01 X-39.09903 Y3.85907
G01 X-39.04082 Y3.90398
G01 X-39.04069 Y4.95450
G01 X-39.00861 Y5.00578
G01 X-38.95771 Y5.10614
G01 X-38.92606 Y5.18549
G01 X-38.91399 Y5.24751
G01 X-38.90940 Y5.29781
G01 X-38.90899 Y5.46892
G01 X-38.67818 Y6.38228
G01 X-38.73581 Y6.95378
G01 X-38.67818 Y6.38228
G01 X-38.55286 Y6.05127
G01 X-38.44483 Y5.79333
G01 X-38.33614 Y5.49453
G01 X-38.26220 Y5.27284
G01 X-38.19200 Y5.10883
G01 X-38.14277 Y5.00870
G01 X-38.16779 Y4.93601
G01 X-38.17496 Y4.87421
G01 X-38.17447 Y3.25493
G01 X-38.18090 Y3.21300
G01 X-38.19911 Y3.15801
G01 X-38.24056 Y3.08714
G01 X-38.24112 Y2.79639
G01 X-38.20173 Y2.72923
G01 X-38.14671 Y2.61976
G01 X-38.12372 Y2.55207
G01 X-38.11430 Y2.50162
G01 X-38.10798 Y2.41099
G01 X-38.10787 Y2.00746
G01 X-37.97460 Y1.96360
G01 X-37.97447 Y1.74147
G01 X-37.96546 Y1.60185
G01 X-37.94763 Y1.50167
G01 X-37.91552 Y1.36083
G01 X-37.90886 Y1.29398
G01 X-37.90886 Y1.12159
G01 X-37.91555 Y1.05468
G01 X-37.92497 Y1.00785
G01 X-37.91344 Y0.94653
G01 X-37.90818 Y0.83858
G01 X-37.94986 Y0.74915
G01 X-37.99357 Y0.62034
G01 X-38.01763 Y0.53972
G01 X-38.03404 Y0.45649
G01 X-38.04237 Y0.24729
G01 X-38.04097 Y-0.25400
G01 X-40.37381 Y-0.25397
G01 X-40.37292 Y0.34547
G01 X-40.37508 Y0.43752
G01 X-40.38183 Y0.51562
G01 X-40.38966 Y0.55207
G01 X-40.41264 Y0.61976
G01 X-40.47378 Y0.74153
G01 X-40.58013 Y1.00048
G01 X-40.54086 Y1.04206
G01 X-40.48691 Y1.11630
G01 X-40.45857 Y1.17442
G01 X-40.44358 Y1.22906
G01 X-40.43980 Y1.26799
G01 X-40.44033 Y1.97815
G01 X-40.24043 Y2.02232
G01 X-40.24051 Y2.43629
G01 X-40.24772 Y2.51521
G01 X-40.25583 Y2.55196
G01 X-40.27922 Y2.61976
G01 X-40.34074 Y2.74155
G01 X-40.44706 Y3.00060
G01 X-40.38092 Y3.07604
G01 X-40.34881 Y3.12407
G01 X-40.32204 Y3.18389
G01 X-40.31038 Y3.22898
G01 X-40.30660 Y3.26791
G01 X-40.30713 Y4.27086
G01 X-40.29997 Y4.45648
G01 X-40.28356 Y4.53972
G01 X-40.25951 Y4.62034
G01 X-40.20629 Y4.77357
G01 X-40.17424 Y4.85178
G01 X-40.17442 Y4.91028
G01 X-40.21587 Y4.99986
G01 X-40.28694 Y5.22234
G01 X-40.29629 Y5.26847
G01 X-40.30680 Y5.37881
G01 X-40.30713 Y5.54805
G01 X-40.58399 Y6.92447
G01 X-40.87106 Y6.92351
G01 X-41.04018 Y6.91871
G01 X-41.04137 Y5.31175
G01 X-41.04820 Y5.23352
G01 X-41.06878 Y5.15488
G01 X-41.09575 Y5.08460
G01 X-41.10685 Y5.00774
G01 X-41.10685 Y4.74129
G01 X-41.10281 Y4.69595
G01 X-41.05631 Y4.55209
G01 X-41.04122 Y4.45079
G01 X-41.04018 Y4.00754
G01 X-41.37830 Y3.89547
G01 X-41.55143 Y3.81589
G01 X-41.64000 Y3.78120
G01 X-42.30649 Y3.38104
G01 X-41.64000 Y3.78120
G01 X-41.55143 Y3.81589
G01 X-41.37830 Y3.89547
G01 X-41.04018 Y4.00754
G01 X-40.03718 Y4.00787
G01 X-39.90294 Y4.01612
G01 X-39.70731 Y4.05206
G01 X-39.26586 Y3.90611
G01 X-39.09903 Y3.85907
G01 X-39.04082 Y3.90398
G01 X-38.65971 Y3.98732
G01 X-38.49042 Y4.00738
G01 X-37.61831 Y4.00690
G01 X-37.50793 Y4.00045
G01 X-37.04308 Y3.95034
G01 X-36.80346 Y3.94010
G01 X-36.57422 Y3.94246
G01 X-36.57346 Y4.74129
G01 X-36.56813 Y4.87451
G01 X-36.57346 Y5.00774
G01 X-36.57371 Y5.14109
G01 X-36.56594 Y5.30588
G01 X-36.55167 Y5.43100
G01 X-36.34826 Y6.85394
G01 X-35.96996 Y6.90822
G01 X-35.61748 Y6.92442
G01 X-35.30422 Y6.91863
G01 X-35.09424 Y6.92447
G01 X-34.80796 Y6.92351
G01 X-34.57230 Y6.91446
G01 X-34.80796 Y6.92351
G01 X-35.09424 Y6.92447
G01 X-35.30422 Y6.91863
G01 X-35.30069 Y6.22310
G01 X-35.30765 Y5.67012
G01 X-35.30417 Y5.47200
G01 X-35.30684 Y5.31147
G01 X-35.31052 Y5.25747
G01 X-35.32182 Y5.19750
G01 X-35.36533 Y5.06887
G01 X-35.37107 Y5.03743
G01 X-35.37356 Y4.97418
G01 X-35.38690 Y4.91701
G01 X-35.40295 Y4.87812
G01 X-35.40450 Y4.87451
G01 X-35.44471 Y4.87360
G01 X-36.56813 Y4.87451
G01 X-36.57346 Y4.74129
G01 X-36.57422 Y3.94246
G01 X-36.09703 Y3.27444
G01 X-35.93033 Y3.05742
G01 X-35.73673 Y2.84041
G01 X-35.51314 Y2.86304
G01 X-35.30803 Y3.08625
G01 X-35.13366 Y3.24470
G01 X-34.95576 Y3.39664
G01 X-34.63900 Y3.63334
G01 X-34.30575 Y3.78343
G01 X-34.04382 Y3.85592
G01 X-33.77743 Y3.88102
G01 X-33.61167 Y3.87439
G01 X-33.43834 Y3.86108
G01 X-33.36414 Y3.86867
G01 X-33.11474 Y3.88038
G01 X-33.04060 Y3.88798
G01 X-32.85879 Y3.87462
G01 X-32.63961 Y3.87452
G01 X-32.57311 Y3.89270
G01 X-32.43130 Y3.87980
G01 X-32.18185 Y3.88064
G01 X-31.83760 Y3.91107
G01 X-31.84075 Y3.50578
G01 X-31.83656 Y3.38653
G01 X-31.81546 Y3.24386
G01 X-31.77700 Y3.07637
G01 X-31.77352 Y3.02847
G01 X-31.77329 Y2.83906
G01 X-31.80006 Y2.78630
G01 X-31.82816 Y2.71071
G01 X-31.86524 Y2.60058
G01 X-31.89590 Y2.48077
G01 X-31.90522 Y2.37127
G01 X-31.90659 Y2.03070
G01 X-31.90522 Y2.37127
G01 X-31.89590 Y2.48077
G01 X-31.86524 Y2.60058
G01 X-31.82816 Y2.71071
G01 X-31.80006 Y2.78630
G01 X-31.77329 Y2.83906
G01 X-31.77352 Y3.02847
G01 X-31.77700 Y3.07637
G01 X-31.81546 Y3.24386
G01 X-31.83656 Y3.38653
G01 X-31.84075 Y3.50578
G01 X-31.83760 Y3.91107
G01 X-31.50677 Y4.09151
G01 X-31.50753 Y4.42460
G01 X-31.58818 Y4.60797
G01 X-31.64403 Y4.75597
G01 X-31.69229 Y4.95590
G01 X-31.70580 Y5.12158
G01 X-31.69514 Y5.30675
G01 X-31.65424 Y5.51426
G01 X-31.50786 Y6.16186
G01 X-31.34375 Y6.91652
G01 X-31.50786 Y6.16186
G01 X-31.67708 Y5.40791
G01 X-31.69514 Y5.30675
G01 X-31.70580 Y5.16062
G01 X-31.69514 Y4.97545
G01 X-31.65597 Y4.79506
G01 X-31.58818 Y4.60797
G01 X-31.50753 Y4.42460
G01 X-31.50677 Y4.09151
G01 X-31.24009 Y3.96479
G01 X-31.06433 Y3.91823
G01 X-30.83171 Y3.88066
G01 X-30.70708 Y3.87452
G01 X-30.50824 Y3.87452
G01 X-30.50487 Y4.07863
G01 X-30.50776 Y4.55783
G01 X-30.50088 Y4.67830
G01 X-30.54215 Y4.74563
G01 X-30.56367 Y4.80238
G01 X-30.57284 Y4.85513
G01 X-30.57329 Y5.02724
G01 X-30.56710 Y5.06910
G01 X-30.52381 Y5.19605
G01 X-30.51470 Y5.24210
G01 X-30.50840 Y5.31160
G01 X-30.50705 Y6.91855
G01 X-30.29565 Y6.92447
G01 X-30.00964 Y6.92351
G01 X-29.83941 Y6.91863
G01 X-29.83588 Y6.22310
G01 X-29.84284 Y5.67012
G01 X-29.84068 Y5.33872
G01 X-29.83426 Y5.24744
G01 X-29.82498 Y5.19763
G01 X-29.78513 Y5.08452
G01 X-29.77802 Y5.05308
G01 X-29.77393 Y5.00776
G01 X-29.77383 Y4.73484
G01 X-29.78064 Y4.68005
G01 X-29.79252 Y4.64094
G01 X-29.86964 Y4.45470
G01 X-29.97825 Y4.13240
G01 X-30.07718 Y3.87358
G01 X-29.91439 Y3.81025
G01 X-29.77815 Y3.76382
G01 X-29.77228 Y3.44708
G01 X-29.77337 Y3.09052
G01 X-29.78102 Y3.00350
G01 X-29.80159 Y2.92809
G01 X-29.77949 Y2.83451
G01 X-29.75249 Y2.80386
G01 X-29.69941 Y2.72395
G01 X-29.66352 Y2.63566
G01 X-29.64995 Y2.57764
G01 X-29.64081 Y2.47454
G01 X-29.63890 Y1.89288
G01 X-29.50731 Y1.85575
G01 X-29.50700 Y0.83886
G01 X-29.54853 Y0.74861
G01 X-29.56796 Y0.67645
G01 X-29.57269 Y0.63795
G01 X-29.57528 Y0.27706
G01 X-29.57180 Y0.07894
G01 X-29.57733 Y-0.25400
G01 X-31.44144 Y-0.25400
G01 X-30.57380 Y-0.25397
G01 X-30.57588 Y-0.08004
G01 X-30.57190 Y0.40637
G01 X-30.56705 Y0.45677
G01 X-30.55099 Y0.54054
G01 X-30.52242 Y0.63056
G01 X-30.51152 Y0.68323
G01 X-30.50675 Y0.74130
G01 X-30.50631 Y0.95364
G01 X-30.47406 Y1.00498
G01 X-30.43245 Y1.08831
G01 X-30.41091 Y1.13457
G01 X-30.39019 Y1.19751
G01 X-30.37589 Y1.29751
G01 X-30.37383 Y1.47074
G01 X-30.27243 Y1.87414
G01 X-30.37380 Y1.91455
G01 X-30.37380 Y2.80782
G01 X-30.33047 Y2.85260
G01 X-30.32633 Y2.86616
G01 X-30.31155 Y2.93705
G01 X-30.30743 Y3.02722
G01 X-30.31399 Y3.09438
G01 X-30.35038 Y3.24416
G01 X-30.37015 Y3.38630
G01 X-30.37515 Y3.60083
G01 X-30.37263 Y3.83817
G01 X-30.50824 Y3.87452
G01 X-30.37263 Y3.83817
G01 X-30.31241 Y3.84942
G01 X-30.07718 Y3.87358
G01 X-29.91439 Y3.81025
G01 X-29.77815 Y3.76382
G01 X-29.50101 Y3.73271
G01 X-29.37408 Y3.71221
G01 X-28.90964 Y3.81386
G01 X-28.90655 Y3.47256
G01 X-28.91122 Y3.26862
G01 X-28.91810 Y3.22433
G01 X-28.93596 Y3.15638
G01 X-28.99260 Y3.02727
G01 X-29.03324 Y2.85514
G01 X-29.03865 Y2.81366
G01 X-29.04015 Y2.77081
G01 X-29.03588 Y2.70787
G01 X-29.01963 Y2.61864
G01 X-29.03596 Y2.52270
G01 X-29.04068 Y2.44119
G01 X-29.03967 Y1.91094
G01 X-28.90749 Y1.87422
G01 X-28.90749 Y0.87450
G01 X-28.73957 Y0.74933
G01 X-28.71366 Y0.70510
G01 X-28.70708 Y0.58626
G01 X-28.70914 Y-0.02017
G01 X-28.70609 Y-0.25400
G01 X-27.90934 Y-0.25400
G01 X-27.90787 Y0.43833
G01 X-28.03980 Y0.64097
G01 X-28.06068 Y0.68009
G01 X-28.15925 Y0.91760
G01 X-28.17363 Y0.98509
G01 X-28.17431 Y1.14099
G01 X-28.17848 Y1.18669
G01 X-28.19352 Y1.24117
G01 X-28.34081 Y1.54315
G01 X-28.43715 Y1.72580
G01 X-28.48419 Y1.87175
G01 X-28.24063 Y1.97841
G01 X-28.24081 Y2.43517
G01 X-28.23411 Y2.50662
G01 X-28.21402 Y2.58839
G01 X-28.11440 Y2.80792
G01 X-28.16426 Y2.93548
G01 X-28.17205 Y2.97454
G01 X-28.17779 Y3.05349
G01 X-28.18935 Y3.09799
G01 X-28.26184 Y3.27370
G01 X-28.35638 Y3.55801
G01 X-28.41828 Y3.72750
G01 X-28.47909 Y3.87386
G01 X-28.24112 Y3.97838
G01 X-28.23990 Y4.43730
G01 X-28.23390 Y4.50677
G01 X-28.22501 Y4.55272
G01 X-28.19862 Y4.62745
G01 X-28.06146 Y4.89809
G01 X-27.98252 Y5.07175
G01 X-27.97698 Y5.07637
G01 X-27.97729 Y5.21119
G01 X-27.98094 Y5.25015
G01 X-28.00642 Y5.38795
G01 X-28.15204 Y5.89112
G01 X-28.22161 Y6.14538
G01 X-28.44917 Y6.92363
G01 X-28.69621 Y6.92447
G01 X-28.90622 Y6.91863
G01 X-28.90269 Y6.22310
G01 X-28.90964 Y5.67012
G01 X-28.90617 Y5.47200
G01 X-28.90947 Y5.29755
G01 X-28.92110 Y5.20733
G01 X-28.93464 Y5.16092
G01 X-28.95577 Y5.10822
G01 X-28.97078 Y5.05320
G01 X-28.97472 Y5.00776
G01 X-28.97416 Y4.74144
G01 X-28.97817 Y4.69598
G01 X-29.02428 Y4.55219
G01 X-29.03228 Y4.51589
G01 X-29.03946 Y4.43758
G01 X-29.04195 Y4.34139
G01 X-28.80550 Y3.87160
G01 X-28.90964 Y3.81386
G01 X-28.80550 Y3.87160
G01 X-28.70330 Y3.87513
G01 X-28.47909 Y3.87386
G01 X-28.24112 Y3.97838
G01 X-28.04109 Y4.00045
G01 X-27.92959 Y4.00690
G01 X-22.84735 Y4.00787
G01 X-22.20796 Y3.40779
G01 X-21.35289 Y2.55082
G01 X-20.83542 Y2.00790
G01 X-20.20773 Y1.40754
G01 X-19.40814 Y0.60797
G01 X-18.58935 Y-0.25400
G01 X-41.77335 Y-0.25397
G01 X-41.77464 Y0.23876
G01 X-41.78452 Y0.38618
G01 X-41.81152 Y0.51788
G01 X-41.82438 Y0.56002
G01 X-41.86067 Y0.64889
G01 X-41.91287 Y0.73751
G01 X-41.95933 Y0.79357
G01 X-42.14985 Y0.98882
G01 X-41.90802 Y1.47477
G01 X-41.76827 Y1.73711
G01 X-41.63949 Y1.96202
G01 X-41.63969 Y2.00924
G01 X-40.71038 Y2.00774
G01 X-40.56944 Y1.99908
G01 X-40.44033 Y1.97815
G01 X-40.24043 Y2.02232
G01 X-40.04056 Y2.00731
G01 X-39.88430 Y2.00683
G01 X-39.77383 Y2.00035
G01 X-39.44038 Y1.96329
G01 X-39.29624 Y1.87119
G01 X-39.21582 Y1.84965
G01 X-38.98146 Y1.93815
G01 X-38.77323 Y2.00805
G01 X-38.10787 Y2.00746
G01 X-37.97460 Y1.96360
G01 X-37.86017 Y1.98697
G01 X-37.69053 Y2.00655
G01 X-36.32611 Y2.00909
G01 X-35.73673 Y2.84041
G01 X-35.51314 Y2.86304
G01 X-35.30803 Y3.08625
G01 X-35.13366 Y3.24470
G01 X-34.95576 Y3.39664
G01 X-34.63900 Y3.63334
G01 X-34.30575 Y3.78343
G01 X-34.04382 Y3.85592
G01 X-33.77743 Y3.88102
G01 X-33.61167 Y3.87439
G01 X-33.43834 Y3.86108
G01 X-33.36414 Y3.86867
G01 X-33.11474 Y3.88038
G01 X-33.04060 Y3.88798
G01 X-32.85879 Y3.87462
G01 X-32.63961 Y3.87452
G01 X-32.57311 Y3.89270
G01 X-32.43130 Y3.87980
G01 X-32.18185 Y3.88064
G01 X-32.00334 Y3.89514
G01 X-31.83760 Y3.91107
G01 X-31.50677 Y4.09151
G01 X-31.24009 Y3.96479
G01 X-31.24009 Y2.94295
G01 X-31.26372 Y2.92545
G01 X-31.29404 Y2.84015
G01 X-31.30212 Y2.79972
G01 X-31.20288 Y2.59436
G01 X-31.18996 Y2.55219
G01 X-31.18028 Y2.50193
G01 X-31.17342 Y2.40802
G01 X-31.17124 Y2.07894
G01 X-31.17464 Y1.87404
G01 X-31.32785 Y1.79730
G01 X-31.37792 Y1.82524
G01 X-31.56062 Y1.91188
G01 X-31.90659 Y2.03070
G01 X-32.01789 Y2.01691
G01 X-32.15020 Y2.00810
G01 X-32.63961 Y2.00772
G01 X-33.01616 Y1.88445
G01 X-33.10621 Y1.89908
G01 X-33.23511 Y1.88100
G01 X-33.33869 Y1.87112
G01 X-33.50603 Y1.92225
G01 X-33.66105 Y1.93584
G01 X-33.79932 Y1.94188
G01 X-34.25055 Y1.94026
G01 X-34.41428 Y2.01458
G01 X-34.63531 Y2.12824
G01 X-34.90112 Y2.29497
G01 X-35.07077 Y2.44780
G01 X-35.37948 Y2.74132
G01 X-35.51314 Y2.86304
G01 X-35.73673 Y2.84041
G01 X-36.32611 Y2.00909
G01 X-36.37504 Y1.17269
G01 X-36.39698 Y0.94120
G01 X-36.38578 Y0.87673
G01 X-36.37341 Y0.61999
G01 X-36.37392 Y-0.25400
G01 X-36.37341 Y0.61999
G01 X-36.38578 Y0.87673
G01 X-36.00488 Y0.87948
G01 X-35.60519 Y0.87241
G01 X-35.00455 Y0.87452
G01 X-34.93011 Y0.72487
G01 X-34.89973 Y0.67810
G01 X-34.90610 Y0.61844
G01 X-34.90338 Y0.07864
G01 X-34.90892 Y-0.25400
G01 X-34.90338 Y0.07864
G01 X-34.90610 Y0.61844
G01 X-34.89973 Y0.67810
G01 X-34.93011 Y0.72487
G01 X-35.00455 Y0.87452
G01 X-34.98144 Y0.93513
G01 X-34.97364 Y0.97414
G01 X-34.97115 Y1.03746
G01 X-34.96539 Y1.06896
G01 X-34.92190 Y1.19753
G01 X-34.91060 Y1.25753
G01 X-34.90463 Y1.40307
G01 X-34.90773 Y1.67043
G01 X-34.90112 Y2.29497
G01 X-34.63531 Y2.12824
G01 X-34.41428 Y2.01458
G01 X-34.25055 Y1.94026
G01 X-34.21334 Y1.73789
G01 X-34.17253 Y1.54810
G01 X-34.17131 Y1.37792
G01 X-34.16186 Y1.26855
G01 X-34.15297 Y1.22260
G01 X-34.14022 Y1.17480
G01 X-34.08040 Y1.00046
G01 X-34.03918 Y0.91069
G01 X-34.03915 Y0.85159
G01 X-34.07151 Y0.77340
G01 X-34.12490 Y0.62034
G01 X-34.14913 Y0.53967
G01 X-34.16595 Y0.45616
G01 X-34.17219 Y0.37026
G01 X-34.17253 Y-0.25397
G01 X-33.63915 Y-0.25400
G01 X-33.63930 Y0.37000
G01 X-33.62996 Y0.48009
G01 X-33.61700 Y0.53947
G01 X-33.58822 Y0.63066
G01 X-33.57745 Y0.68329
G01 X-33.57281 Y0.74130
G01 X-33.57283 Y0.95430
G01 X-33.54045 Y1.00602
G01 X-33.49805 Y1.08834
G01 X-33.45853 Y1.18527
G01 X-33.44621 Y1.24714
G01 X-33.44134 Y1.29756
G01 X-33.43935 Y1.47074
G01 X-33.33869 Y1.87112
G01 X-33.50603 Y1.92225
G01 X-33.50583 Y2.74091
G01 X-33.51179 Y2.79860
G01 X-33.53880 Y2.87454
G01 X-33.51543 Y2.93527
G01 X-33.50755 Y2.97424
G01 X-33.50202 Y3.05697
G01 X-33.45589 Y3.19687
G01 X-33.44438 Y3.25747
G01 X-33.43841 Y3.40289
G01 X-33.44151 Y3.67012
G01 X-33.43834 Y3.86108
G01 X-33.61167 Y3.87439
G01 X-33.77743 Y3.88102
G01 X-34.04382 Y3.85592
G01 X-34.30575 Y3.78343
G01 X-34.63900 Y3.63334
G01 X-34.63793 Y4.45087
G01 X-34.62284 Y4.55211
G01 X-34.57931 Y4.68031
G01 X-34.57189 Y4.74129
G01 X-34.57230 Y6.91446
G01 X-34.47148 Y6.92041
G01 X-34.01804 Y6.92442
G01 X-33.78647 Y6.92206
G01 X-33.65558 Y6.95681
G01 X-33.18373 Y7.03903
G01 X-32.86084 Y7.05780
G01 X-32.57707 Y7.04675
G01 X-32.28795 Y7.05691
G01 X-31.82170 Y7.02203
G01 X-31.34375 Y6.91652
G01 X-31.12643 Y6.92353
G01 X-30.50705 Y6.91855
G01 X-30.29565 Y6.92447
G01 X-30.00964 Y6.92351
G01 X-29.83941 Y6.91863
G01 X-29.47502 Y6.92041
G01 X-29.37408 Y6.91446
G01 X-29.12694 Y6.92353
G01 X-28.90622 Y6.91863
G01 X-28.69621 Y6.92447
G01 X-28.44917 Y6.92363
G01 X-28.14338 Y6.99577
G01 X-27.83543 Y7.04162
G01 X-27.48839 Y7.05691
G01 X-27.18044 Y7.04162
G01 X-26.87246 Y6.99577
G01 X-26.49479 Y6.90237
G01 X-26.11725 Y6.76379
G01 X-25.83660 Y6.63456
G01 X-25.55596 Y6.48028
G01 X-25.17051 Y6.23004
G01 X-24.76579 Y5.91703
G01 X-24.20803 Y5.40791
G01 X-23.40813 Y4.60794
G01 X-22.84735 Y4.00787
G01 X-22.20796 Y3.40779
G01 X-21.35289 Y2.55082
G01 X-20.83542 Y2.00790
G01 X-24.31768 Y2.00266
G01 X-26.02042 Y2.01031
G01 X-27.51021 Y2.00777
G01 X-27.64551 Y2.01615
G01 X-27.77452 Y2.03678
G01 X-27.90337 Y2.01557
G01 X-28.24063 Y1.97841
G01 X-28.48419 Y1.87175
G01 X-28.90749 Y1.87422
G01 X-29.03967 Y1.91094
G01 X-29.17066 Y1.88913
G01 X-29.26834 Y1.87739
G01 X-29.50731 Y1.85575
G01 X-29.63890 Y1.89288
G01 X-29.78241 Y1.87978
G01 X-29.91150 Y1.87394
G01 X-30.27243 Y1.87414
G01 X-30.37380 Y1.91455
G01 X-30.59534 Y1.93667
G01 X-30.81879 Y1.93667
G01 X-30.99308 Y1.91153
G01 X-31.17464 Y1.87404
G01 X-31.32785 Y1.79730
G01 X-31.33052 Y1.76705
G01 X-31.40959 Y1.40754
G01 X-31.41899 Y1.36065
G01 X-31.43862 Y1.19301
G01 X-31.43512 Y1.04252
G01 X-31.41028 Y0.87447
G01 X-31.42831 Y0.77348
G01 X-31.43898 Y0.62735
G01 X-31.44144 Y-0.25400
G01 X-32.70628 Y-0.25400
G01 X-32.70534 Y0.65791
G01 X-32.71027 Y0.78692
G01 X-32.72158 Y0.83122
G01 X-32.79463 Y1.01074
G01 X-32.77713 Y1.08224
G01 X-32.77321 Y1.12126
G01 X-32.77695 Y1.20000
G01 X-32.78762 Y1.25230
G01 X-32.90700 Y1.60914
G01 X-33.01616 Y1.88445
G01 X-32.63961 Y2.00772
G01 X-32.64068 Y2.45080
G01 X-32.65556 Y2.55146
G01 X-32.69902 Y2.68039
G01 X-32.70618 Y2.74132
G01 X-32.70618 Y3.00777
G01 X-32.70214 Y3.05308
G01 X-32.69508 Y3.08455
G01 X-32.65533 Y3.19766
G01 X-32.64426 Y3.25775
G01 X-32.64083 Y3.31175
G01 X-32.63961 Y3.87452
G01 X-32.85879 Y3.87462
G01 X-33.04060 Y3.88798
G01 X-33.03775 Y4.45132
G01 X-33.02366 Y4.55206
G01 X-32.97895 Y4.68419
G01 X-32.97316 Y4.74767
G01 X-32.97895 Y4.79842
G01 X-32.98822 Y4.83100
G01 X-33.06171 Y5.01068
G01 X-33.04423 Y5.08239
G01 X-33.04040 Y5.12138
G01 X-33.04040 Y5.16082
G01 X-33.04995 Y5.23215
G01 X-33.08243 Y5.32503
G01 X-33.11627 Y5.38759
G01 X-33.29912 Y5.66819
G01 X-33.45810 Y5.99580
G01 X-33.70313 Y6.59412
G01 X-33.78647 Y6.92206
G01 X-33.70313 Y6.59412
G01 X-33.70125 Y6.22310
G01 X-33.70821 Y5.67012
G01 X-33.70478 Y5.47337
G01 X-33.70748 Y5.31139
G01 X-33.71464 Y5.23314
G01 X-33.73552 Y5.15470
G01 X-33.76549 Y5.06847
G01 X-33.77270 Y5.00774
G01 X-33.77065 Y4.23939
G01 X-33.77743 Y3.88102
G01 X-33.61167 Y3.87439
G01 X-33.43834 Y3.86108
G01 X-33.44151 Y3.67012
G01 X-33.43841 Y3.40289
G01 X-33.44438 Y3.25747
G01 X-33.45589 Y3.19687
G01 X-33.49925 Y3.06893
G01 X-33.50499 Y3.03743
G01 X-33.50755 Y2.97424
G01 X-33.52099 Y2.91724
G01 X-33.53712 Y2.87840
G01 X-33.53880 Y2.87454
G01 X-33.57857 Y2.87360
G01 X-35.50072 Y2.87454
G01 X-35.51314 Y2.86304
G01 X-35.30803 Y3.08625
G01 X-35.31027 Y3.52595
G01 X-35.30331 Y4.07894
G01 X-35.30625 Y4.53743
G01 X-35.30521 Y4.62745
G01 X-35.29962 Y4.67820
G01 X-35.33008 Y4.72501
G01 X-35.40450 Y4.87451
G01 X-35.38136 Y4.93517
G01 X-35.37356 Y4.97418
G01 X-35.37107 Y5.03743
G01 X-35.36533 Y5.06887
G01 X-35.32182 Y5.19750
G01 X-35.31052 Y5.25747
G01 X-35.30684 Y5.31147
G01 X-35.30417 Y5.47200
G01 X-35.30765 Y5.67012
G01 X-35.30069 Y6.22310
G01 X-35.30422 Y6.91863
G01 X-35.61748 Y6.92442
G01 X-35.96996 Y6.90822
G01 X-36.34826 Y6.85394
G01 X-36.69198 Y6.95681
G01 X-37.16383 Y7.03903
G01 X-37.51504 Y7.05787
G01 X-37.93465 Y7.05691
G01 X-38.38674 Y7.02292
G01 X-38.73581 Y6.95378
G01 X-38.92260 Y6.97553
G01 X-39.24069 Y6.99117
G01 X-39.57396 Y6.97405
G01 X-39.90721 Y6.99117
G01 X-40.26441 Y6.97169
G01 X-40.58399 Y6.92447
G01 X-40.87106 Y6.92351
G01 X-41.04018 Y6.91871
G01 X-41.35229 Y6.92442
G01 X-41.80573 Y6.92041
G01 X-41.87426 Y6.91670
G01 X-42.20418 Y6.99577
G01 X-42.51213 Y7.04162
G01 X-42.85920 Y7.05691
G01 X-43.16712 Y7.04162
G01 X-43.47507 Y6.99577
G01 X-43.78084 Y6.92363
G01 X-44.02793 Y6.92447
G01 X-44.23791 Y6.91863
G01 X-44.02793 Y6.92447
G01 X-43.78084 Y6.92363
G01 X-43.55323 Y6.14528
G01 X-43.48358 Y5.89087
G01 X-43.34934 Y5.42851
G01 X-43.33301 Y5.36821
G01 X-43.31274 Y5.25254
G01 X-43.30896 Y5.21353
G01 X-43.30845 Y5.07611
G01 X-43.31409 Y5.07141
G01 X-43.39316 Y4.89763
G01 X-43.53019 Y4.62745
G01 X-43.55658 Y4.55277
G01 X-43.56547 Y4.50682
G01 X-43.57146 Y4.43743
G01 X-43.57398 Y4.27706
G01 X-43.57268 Y3.00805
G01 X-43.64360 Y2.99905
G01 X-43.57268 Y3.00805
G01 X-43.36265 Y3.00774
G01 X-43.07639 Y3.00678
G01 X-42.83959 Y2.99664
G01 X-42.58061 Y3.01803
G01 X-42.42102 Y2.87962
G01 X-42.07182 Y2.48603
G01 X-41.63969 Y2.00924
G01 X-41.63949 Y1.96202
G01 X-41.59237 Y1.72590
G01 X-41.55361 Y1.49283
G01 X-41.54213 Y1.43411
G01 X-41.51142 Y1.32189
G01 X-41.43858 Y1.14110
G01 X-41.40035 Y1.06413
G01 X-41.35529 Y0.99558
G01 X-41.32085 Y0.95560
G01 X-41.22991 Y0.86411
G01 X-41.24020 Y0.76838
G01 X-41.24020 Y-0.25397
G01 X-44.30563 Y-0.25400
G01 X-44.30702 Y0.24729
G01 X-44.29869 Y0.45649
G01 X-44.28119 Y0.54557
G01 X-44.25528 Y0.62748
G01 X-44.21452 Y0.74915
G01 X-44.17284 Y0.83858
G01 X-44.17809 Y0.94653
G01 X-44.18962 Y1.00785
G01 X-44.18020 Y1.05468
G01 X-44.17352 Y1.12159
G01 X-44.17352 Y1.29398
G01 X-44.18018 Y1.36083
G01 X-44.21228 Y1.50167
G01 X-44.23011 Y1.60185
G01 X-44.23913 Y1.74147
G01 X-44.23910 Y2.89296
G01 X-43.82041 Y3.00665
G01 X-43.97515 Y3.47589
G01 X-44.18528 Y3.96738
G01 X-44.37342 Y4.34370
G01 X-44.37103 Y4.43746
G01 X-44.36384 Y4.51582
G01 X-44.35605 Y4.55153
G01 X-44.30987 Y4.69598
G01 X-44.30586 Y4.74144
G01 X-44.30641 Y5.00776
G01 X-44.30232 Y5.05343
G01 X-44.28754 Y5.10789
G01 X-44.25282 Y5.20730
G01 X-44.24124 Y5.29750
G01 X-44.23791 Y5.47337
G01 X-44.24134 Y5.67012
G01 X-44.23438 Y6.22310
G01 X-44.23791 Y6.91863
G01 X-44.45864 Y6.92353
G01 X-44.70565 Y6.91446
G01 X-44.80646 Y6.92041
G01 X-45.17085 Y6.91863
G01 X-45.34108 Y6.92351
G01 X-45.62737 Y6.92447
G01 X-45.83862 Y6.91855
G01 X-46.41731 Y6.92442
G01 X-46.76978 Y6.90822
G01 X-46.80887 Y6.90436
G01 X-47.32122 Y6.81507
G01 X-47.62104 Y6.72843
G01 X-47.94016 Y6.60735
G01 X-48.36861 Y6.40227
G01 X-48.83607 Y6.11736
G01 X-49.41001 Y5.68676
G01 X-50.02294 Y5.12158
G01 X-50.61839 Y4.47530
G01 X-51.21384 Y3.72730
G01 X-51.83099 Y2.84841
G01 X-52.42857 Y1.89387
G01 X-52.84719 Y1.16688
G01 X-53.24620 Y0.42776
G01 X-53.87624 Y-0.25397
G01 X-44.30563 Y-0.25400
G04 P0 ( dwell for no time -- G64 should not smooth over this point )
G00 Z10.00000 ( retract )

G00 X-55.50718 Y39.08793 ( rapid move to begin. )
G01 F30.00000
( Mill infeed pass 1/1 )
G01 Z-0.10000
G04 P0 ( dwell for no time -- G64 should not smooth over this point )
G01 F360.00000
G01 X-55.50718 Y39.08793
G01 X-55.52694 Y38.91846
G01 X-55.53865 Y38.86032
G01 X-55.58160 Y38.74366
G01 X-55.62689 Y38.64867
G01 X-55.68658 Y38.56185
G01 X-55.76618 Y38.46612
G01 X-55.81096 Y38.42664
G01 X-55.93669 Y38.33292
G01 X-55.96004 Y38.31946
G01 X-56.10390 Y38.25761
G01 X-56.16039 Y38.23858
G01 X-56.28292 Y38.21745
G01 X-56.38797 Y38.20914
G01 X-56.49305 Y38.21745
G01 X-56.61558 Y38.23858
G01 X-56.64688 Y38.24831
G01 X-56.81609 Y38.31946
G01 X-56.83959 Y38.33307
G01 X-56.98589 Y38.44402
G01 X-57.00979 Y38.46612
G01 X-57.08940 Y38.56185
G01 X-57.14909 Y38.64867
G01 X-57.19437 Y38.74366
G01 X-57.23733 Y38.86032
G01 X-57.24903 Y38.91846
G01 X-57.26880 Y39.08793
G01 X-57.24906 Y39.25738
G01 X-57.22902 Y39.37406
G01 X-57.27413 Y39.43393
G01 X-63.63734 Y45.79714
G01 X-63.66736 Y45.82297
G01 X-63.73063 Y45.83085
G01 X-64.75806 Y45.83085
G01 X-64.86327 Y45.85264
G01 X-64.88504 Y45.95787
G01 X-64.88504 Y47.45797
G01 X-64.86327 Y47.56320
G01 X-64.75806 Y47.58499
G01 X-63.25791 Y47.58499
G01 X-63.15271 Y47.56320
G01 X-63.13094 Y47.45797
G01 X-63.13094 Y46.43056
G01 X-63.12304 Y46.36729
G01 X-63.09721 Y46.33727
G01 X-56.73400 Y39.97406
G01 X-56.67700 Y39.93060
G01 X-56.62341 Y39.93594
G01 X-56.49305 Y39.95839
G01 X-56.38800 Y39.96670
G01 X-56.28292 Y39.95839
G01 X-56.16039 Y39.93726
G01 X-56.10390 Y39.91823
G01 X-55.94774 Y39.85072
G01 X-55.81096 Y39.74920
G01 X-55.76618 Y39.70972
G01 X-55.68658 Y39.61399
G01 X-55.62689 Y39.52718
G01 X-55.58160 Y39.43218
G01 X-55.53865 Y39.31552
G01 X-55.53146 Y39.28369
G01 X-55.50718 Y39.08793
G04 P0 ( dwell for no time -- G64 should not smooth over this point )
G00 Z10.00000 ( retract )

G00 X-27.56718 Y41.62793 ( rapid move to begin. )
G01 F30.00000
( Mill infeed pass 1/1 )
G01 Z-0.10000
G04 P0 ( dwell for no time -- G64 should not smooth over this point )
G01 F360.00000
G01 X-27.56718 Y41.62793
G01 X-27.59146 Y41.43215
G01 X-27.59865 Y41.40032
G01 X-27.64160 Y41.28366
G01 X-27.68689 Y41.18867
G01 X-27.74658 Y41.10185
G01 X-27.82618 Y41.00612
G01 X-27.87096 Y40.96664
G01 X-28.00774 Y40.86512
G01 X-28.16390 Y40.79761
G01 X-28.22039 Y40.77858
G01 X-28.34292 Y40.75745
G01 X-28.44797 Y40.74914
G01 X-28.55305 Y40.75745
G01 X-28.67558 Y40.77858
G01 X-28.73200 Y40.79758
G01 X-28.88826 Y40.86507
G01 X-29.02509 Y40.96672
G01 X-29.06979 Y41.00612
G01 X-29.14940 Y41.10185
G01 X-29.20909 Y41.18867
G01 X-29.25437 Y41.28366
G01 X-29.29733 Y41.40032
G01 X-29.30451 Y41.43215
G01 X-29.32880 Y41.62793
G01 X-29.30451 Y41.82369
G01 X-29.29733 Y41.85552
G01 X-29.25437 Y41.97218
G01 X-29.20909 Y42.06718
G01 X-29.14940 Y42.15399
G01 X-29.06979 Y42.24973
G01 X-29.02509 Y42.28912
G01 X-28.88826 Y42.39077
G01 X-28.73200 Y42.45826
G01 X-28.67558 Y42.47726
G01 X-28.55305 Y42.49839
G01 X-28.44797 Y42.50670
G01 X-28.34292 Y42.49839
G01 X-28.22039 Y42.47726
G01 X-28.16390 Y42.45823
G01 X-28.00774 Y42.39072
G01 X-27.87096 Y42.28920
G01 X-27.82618 Y42.24973
G01 X-27.74658 Y42.15399
G01 X-27.68689 Y42.06718
G01 X-27.64160 Y41.97218
G01 X-27.59865 Y41.85552
G01 X-27.59146 Y41.82369
G01 X-27.56718 Y41.62793
G04 P0 ( dwell for no time -- G64 should not smooth over this point )
G00 Z10.00000 ( retract )

G00 X-7.25091 Y43.41785 ( rapid move to begin. )
G01 F30.00000
( Mill infeed pass 1/1 )
G01 Z-0.10000
G04 P0 ( dwell for no time -- G64 should not smooth over this point )
G01 F360.00000
G01 X-7.25091 Y43.41785
G01 X-7.25091 Y44.91799
G01 X-7.27271 Y45.02318
G01 X-7.37794 Y45.04497
G01 X-8.87806 Y45.04497
G01 X-8.98327 Y45.02320
G01 X-9.00506 Y44.91799
G01 X-9.00506 Y43.41785
G01 X-8.98327 Y43.31264
G01 X-8.87806 Y43.29087
G01 X-7.37794 Y43.29087
G01 X-7.27271 Y43.31266
G01 X-7.25091 Y43.41785
G04 P0 ( dwell for no time -- G64 should not smooth over this point )
G00 Z10.00000 ( retract )

G00 X-7.24715 Y41.62793 ( rapid move to begin. )
G01 F30.00000
( Mill infeed pass 1/1 )
G01 Z-0.10000
G04 P0 ( dwell for no time -- G64 should not smooth over this point )
G01 F360.00000
G01 X-7.24715 Y41.62793
G01 X-7.27144 Y41.43202
G01 X-7.27860 Y41.40030
G01 X-7.32170 Y41.28351
G01 X-7.36691 Y41.18867
G01 X-7.42658 Y41.10185
G01 X-7.50618 Y41.00612
G01 X-7.55094 Y40.96669
G01 X-7.68772 Y40.86509
G01 X-7.84408 Y40.79756
G01 X-7.90039 Y40.77858
G01 X-8.02297 Y40.75745
G01 X-8.12800 Y40.74914
G01 X-8.23300 Y40.75745
G01 X-8.35558 Y40.77858
G01 X-8.41190 Y40.79756
G01 X-8.56826 Y40.86509
G01 X-8.70504 Y40.96669
G01 X-8.74979 Y41.00612
G01 X-8.82940 Y41.10185
G01 X-8.88906 Y41.18867
G01 X-8.93427 Y41.28351
G01 X-8.97738 Y41.40030
G01 X-8.98454 Y41.43202
G01 X-9.00880 Y41.62793
G01 X-8.98454 Y41.82382
G01 X-8.97738 Y41.85554
G01 X-8.93427 Y41.97233
G01 X-8.88906 Y42.06718
G01 X-8.82940 Y42.15399
G01 X-8.74979 Y42.24973
G01 X-8.70504 Y42.28915
G01 X-8.56826 Y42.39075
G01 X-8.41190 Y42.45828
G01 X-8.35558 Y42.47726
G01 X-8.23300 Y42.49839
G01 X-8.12800 Y42.50670
G01 X-8.02297 Y42.49839
G01 X-7.90039 Y42.47726
G01 X-7.84408 Y42.45828
G01 X-7.68772 Y42.39075
G01 X-7.55094 Y42.28915
G01 X-7.50618 Y42.24973
G01 X-7.42658 Y42.15399
G01 X-7.36691 Y42.06718
G01 X-7.32170 Y41.97233
G01 X-7.27860 Y41.85554
G01 X-7.27144 Y41.82382
G01 X-7.24715 Y41.62793

G04 P0 ( dwell for no time -- G64 should not smooth over this point )
G00 Z50.000000 ( retract )

M5 ( Spindle off. )
G04 P1.000000
M9 ( Coolant off. )
M2 ( Program end. )

