( pcb2gcode 1.3.2 )
( Software-independent Gcode )

G94 ( Millimeters per minute feed rate. )
G21 ( Units == Millimeters. )

G90 ( Absolute coordinates. )
G00 S10000 ( RPM spindle speed. )
G01 F360.00000 ( Feedrate. )

G01 F360.00000 ( Feedrate. )
M3 ( Spindle on clockwise. )
G04 P1.00000
G04 P0 ( dwell for no time -- G64 should not smooth over this point )
G00 Z10.00000 ( retract )

G00 X-18.85602 Y0.05080 ( rapid move to begin. )
G01 F30.00000
G01 Z-0.10000
G04 P0 ( dwell for no time -- G64 should not smooth over this point )
G01 F360.00000
G01 X-18.85602 Y0.05080
G01 X-0.05080 Y0.05080
G01 X-0.05080 Y48.79073
G01 X-71.17080 Y48.79073
G01 X-71.17080 Y0.05080
G01 X-52.74399 Y0.05080
G01 X-52.17366 Y1.08770
G01 X-51.58930 Y2.05730
G01 X-51.04653 Y2.87068
G01 X-50.50376 Y3.59984
G01 X-49.96099 Y4.24477
G01 X-49.39937 Y4.82938
G01 X-48.87930 Y5.28958
G01 X-48.45969 Y5.60619
G01 X-48.06099 Y5.85963
G01 X-47.68914 Y6.05836
G01 X-47.33801 Y6.20900
G01 X-47.04931 Y6.30735
G01 X-46.71906 Y6.38993
G01 X-46.36183 Y6.44703
G01 X-46.00461 Y6.46621
G01 X-43.31739 Y6.46730
G01 X-42.91035 Y6.55843
G01 X-42.53446 Y6.59613
G01 X-42.02499 Y6.58104
G01 X-41.41930 Y6.45935
G01 X-40.12588 Y6.46730
G01 X-39.60901 Y6.52927
G01 X-39.11582 Y6.51751
G01 X-38.61138 Y6.52965
G01 X-38.28021 Y6.49615
G01 X-37.78166 Y6.58409
G01 X-37.04519 Y6.60039
G01 X-36.50719 Y6.55485
G01 X-36.19957 Y6.49089
G01 X-35.89195 Y6.39656
G01 X-35.70100 Y6.42925
G01 X-35.22200 Y6.46628
G01 X-33.32549 Y6.46504
G01 X-32.91037 Y6.55843
G01 X-32.53448 Y6.59613
G01 X-31.82892 Y6.60060
G01 X-31.54558 Y6.58579
G01 X-31.19648 Y6.53611
G01 X-30.88637 Y6.45930
G01 X-27.98569 Y6.46730
G01 X-27.57866 Y6.55843
G01 X-27.20276 Y6.59613
G01 X-26.69329 Y6.58104
G01 X-26.18844 Y6.48691
G01 X-25.76855 Y6.35160
G01 X-25.34867 Y6.16041
G01 X-24.87458 Y5.88315
G01 X-24.40046 Y5.53474
G01 X-24.05479 Y5.24030
G01 X-22.95080 Y4.15074
G01 X-22.38731 Y3.54830
G01 X-21.75065 Y2.95059
G01 X-20.95081 Y2.15075
G01 X-20.37794 Y1.55054
G01 X-19.75041 Y0.95034
G01 X-18.85602 Y0.05080
G01 X-27.49540 Y0.05080
G01 X-27.60304 Y0.22398
G01 X-27.69428 Y0.43993
G01 X-27.71305 Y0.50493
G01 X-27.71841 Y0.70828
G01 X-27.73528 Y0.78090
G01 X-27.98270 Y1.27323
G01 X-28.02781 Y1.41448
G01 X-27.78440 Y1.52034
G01 X-27.31712 Y1.58006
G01 X-27.02895 Y1.55039
G01 X-20.37794 Y1.55054
G04 P0 ( dwell for no time -- G64 should not smooth over this point )
G00 Z10.00000 ( retract )

G00 X-22.38731 Y3.54830 ( rapid move to begin. )
G01 F30.00000
G01 Z-0.10000
G04 P0 ( dwell for no time -- G64 should not smooth over this point )
G01 F360.00000
G01 X-22.38731 Y3.54830
G01 X-27.44826 Y3.55067
G01 X-27.78369 Y3.52077
G01 X-27.77409 Y4.06499
G01 X-27.74018 Y4.17332
G01 X-27.51988 Y4.62102
G01 X-27.52087 Y4.77170
G01 X-27.55638 Y4.95460
G01 X-27.98569 Y6.46730
G04 P0 ( dwell for no time -- G64 should not smooth over this point )
G00 Z10.00000 ( retract )

G00 X-28.44734 Y6.46153 ( rapid move to begin. )
G01 F30.00000
G01 Z-0.10000
G04 P0 ( dwell for no time -- G64 should not smooth over this point )
G01 F360.00000
G01 X-28.44734 Y6.46153
G01 X-28.45178 Y4.85364
G01 X-28.46581 Y4.74431
G01 X-28.51277 Y4.59613
G01 X-28.51732 Y4.26121
G01 X-28.57066 Y4.08381
G01 X-28.58361 Y3.88485
G01 X-28.34924 Y3.41356
G04 P0 ( dwell for no time -- G64 should not smooth over this point )
G00 Z10.00000 ( retract )

G00 X-28.44965 Y3.35841 ( rapid move to begin. )
G01 F30.00000
G01 Z-0.10000
G04 P0 ( dwell for no time -- G64 should not smooth over this point )
G01 F360.00000
G01 X-28.44965 Y3.35841
G01 X-28.91686 Y3.25430
G01 X-29.31625 Y3.30609
G01 X-29.31577 Y2.64470
G01 X-29.34452 Y2.47183
G01 X-29.32219 Y2.37731
G01 X-29.23095 Y2.24384
G01 X-29.18998 Y2.10256
G01 X-29.18343 Y1.43523
G01 X-29.05008 Y1.39929
G04 P0 ( dwell for no time -- G64 should not smooth over this point )
G00 Z10.00000 ( retract )

G00 X-28.02138 Y3.41815 ( rapid move to begin. )
G01 F30.00000
G01 Z-0.10000
G04 P0 ( dwell for no time -- G64 should not smooth over this point )
G01 F360.00000
G01 X-28.02138 Y3.41815
G01 X-28.34924 Y3.41356
G01 X-28.44965 Y3.35841
G01 X-28.45737 Y2.78633
G01 X-28.53789 Y2.56136
G01 X-28.58143 Y2.35666
G01 X-28.56205 Y2.16009
G01 X-28.58272 Y1.98364
G01 X-28.58526 Y1.50726
G01 X-28.58488 Y1.45359
G01 X-28.45026 Y1.41796
G04 P0 ( dwell for no time -- G64 should not smooth over this point )
G00 Z10.00000 ( retract )

G00 X-28.58488 Y1.45359 ( rapid move to begin. )
G01 F30.00000
G01 Z-0.10000
G04 P0 ( dwell for no time -- G64 should not smooth over this point )
G01 F360.00000
G01 X-28.58488 Y1.45359
G01 X-29.05008 Y1.39929
G01 X-29.04983 Y0.38113
G01 X-29.10698 Y0.23647
G01 X-29.11615 Y0.05080
G01 X-28.24973 Y0.05080
G04 P0 ( dwell for no time -- G64 should not smooth over this point )
G00 Z10.00000 ( retract )

G00 X-30.10093 Y0.05080 ( rapid move to begin. )
G01 F30.00000
G01 Z-0.10000
G04 P0 ( dwell for no time -- G64 should not smooth over this point )
G01 F360.00000
G01 X-30.10093 Y0.05080
G01 X-30.98320 Y0.05080
G01 X-30.98185 Y0.19190
G01 X-30.95262 Y0.41712
G01 X-30.97698 Y0.56827
G01 X-30.98112 Y0.72588
G01 X-30.95272 Y0.95034
G01 X-30.87040 Y1.34104
G01 X-30.71475 Y1.41811
G04 P0 ( dwell for no time -- G64 should not smooth over this point )
G00 Z10.00000 ( retract )

G00 X-30.87040 Y1.34104 ( rapid move to begin. )
G01 F30.00000
G01 Z-0.10000
G04 P0 ( dwell for no time -- G64 should not smooth over this point )
G01 F360.00000
G01 X-30.87040 Y1.34104
G01 X-31.14190 Y1.47030
G01 X-31.44683 Y1.57307
G01 X-31.43722 Y2.02796
G01 X-31.37611 Y2.23832
G01 X-31.31576 Y2.38112
G01 X-31.32069 Y2.62247
G01 X-31.37847 Y2.92715
G01 X-31.38269 Y3.45435
G01 X-31.04957 Y3.63418
G04 P0 ( dwell for no time -- G64 should not smooth over this point )
G00 Z10.00000 ( retract )

G00 X-30.78287 Y3.50898 ( rapid move to begin. )
G01 F30.00000
G01 Z-0.10000
G04 P0 ( dwell for no time -- G64 should not smooth over this point )
G01 F360.00000
G01 X-30.78287 Y3.50898
G01 X-31.04957 Y3.63418
G01 X-31.04957 Y3.96878
G01 X-31.19989 Y4.34246
G01 X-31.24782 Y4.64195
G01 X-31.24368 Y4.79956
G01 X-31.21934 Y4.95061
G01 X-30.88637 Y6.45930
G04 P0 ( dwell for no time -- G64 should not smooth over this point )
G00 Z10.00000 ( retract )

G00 X-34.18489 Y3.17358 ( rapid move to begin. )
G01 F30.00000
G01 Z-0.10000
G04 P0 ( dwell for no time -- G64 should not smooth over this point )
G01 F360.00000
G01 X-34.18489 Y3.17358
G01 X-34.18025 Y3.98104
G01 X-34.11512 Y4.28409
G01 X-34.11865 Y6.45701
G04 P0 ( dwell for no time -- G64 should not smooth over this point )
G00 Z10.00000 ( retract )

G00 X-33.32549 Y6.46504 ( rapid move to begin. )
G01 F30.00000
G01 Z-0.10000
G04 P0 ( dwell for no time -- G64 should not smooth over this point )
G01 F360.00000
G01 X-33.32549 Y6.46504
G01 X-33.24588 Y6.13997
G04 P0 ( dwell for no time -- G64 should not smooth over this point )
G00 Z10.00000 ( retract )

G00 X-34.84829 Y6.46135 ( rapid move to begin. )
G01 F30.00000
G01 Z-0.10000
G04 P0 ( dwell for no time -- G64 should not smooth over this point )
G01 F360.00000
G01 X-34.84829 Y6.46135
G01 X-34.85040 Y4.83090
G01 X-34.94842 Y4.41703
G01 X-36.11080 Y4.41731
G01 X-36.11611 Y3.48399
G01 X-35.66023 Y2.84310
G01 X-35.28019 Y2.38277
G01 X-35.05578 Y2.40721
G04 P0 ( dwell for no time -- G64 should not smooth over this point )
G00 Z10.00000 ( retract )

G00 X-36.11611 Y3.48399 ( rapid move to begin. )
G01 F30.00000
G01 Z-0.10000
G04 P0 ( dwell for no time -- G64 should not smooth over this point )
G01 F360.00000
G01 X-36.11611 Y3.48399
G01 X-36.63729 Y3.49738
G01 X-37.18408 Y3.55067
G01 X-37.71516 Y3.55163
G01 X-37.71720 Y4.41703
G01 X-37.68458 Y4.55150
G01 X-37.80417 Y4.81574
G01 X-37.98392 Y5.33077
G01 X-38.22210 Y5.93395
G01 X-38.44948 Y5.01759
G01 X-38.45387 Y4.82133
G01 X-38.47137 Y4.72361
G01 X-38.58362 Y4.49722
G01 X-38.58463 Y3.44665
G01 X-38.15212 Y3.53868
G01 X-37.71516 Y3.55163
G04 P0 ( dwell for no time -- G64 should not smooth over this point )
G00 Z10.00000 ( retract )

G00 X-37.71732 Y3.55067 ( rapid move to begin. )
G01 F30.00000
G01 Z-0.10000
G04 P0 ( dwell for no time -- G64 should not smooth over this point )
G01 F360.00000
G01 X-37.71732 Y3.55067
G01 X-37.71783 Y2.80325
G01 X-37.74206 Y2.70266
G01 X-37.78357 Y2.62913
G01 X-37.78306 Y2.33822
G01 X-37.69487 Y2.17259
G01 X-37.66030 Y2.06499
G01 X-37.65037 Y1.55080
G01 X-37.51730 Y1.50571
G04 P0 ( dwell for no time -- G64 should not smooth over this point )
G00 Z10.00000 ( retract )

G00 X-37.65037 Y1.55080 ( rapid move to begin. )
G01 F30.00000
G01 Z-0.10000
G04 P0 ( dwell for no time -- G64 should not smooth over this point )
G01 F360.00000
G01 X-37.65037 Y1.55080
G01 X-38.31676 Y1.55080
G01 X-38.75877 Y1.39299
G01 X-38.65908 Y0.87889
G01 X-38.57186 Y0.66159
G01 X-38.50770 Y0.55070
G01 X-38.47988 Y0.43866
G01 X-38.34989 Y0.14907
G01 X-38.32451 Y0.05080
G01 X-37.56739 Y0.05080
G04 P0 ( dwell for no time -- G64 should not smooth over this point )
G00 Z10.00000 ( retract )

G00 X-35.91700 Y0.05080 ( rapid move to begin. )
G01 F30.00000
G01 Z-0.10000
G04 P0 ( dwell for no time -- G64 should not smooth over this point )
G01 F360.00000
G01 X-35.91700 Y0.05080
G01 X-37.56739 Y0.05080
G01 X-37.45067 Y0.38110
G01 X-37.46724 Y0.55075
G01 X-37.45047 Y0.83236
G01 X-37.51504 Y1.20924
G01 X-37.51730 Y1.50571
G01 X-37.23356 Y1.54932
G01 X-35.86871 Y1.55202
G04 P0 ( dwell for no time -- G64 should not smooth over this point )
G00 Z10.00000 ( retract )

G00 X-35.28019 Y2.38277 ( rapid move to begin. )
G01 F30.00000
G01 Z-0.10000
G04 P0 ( dwell for no time -- G64 should not smooth over this point )
G01 F360.00000
G01 X-35.28019 Y2.38277
G01 X-35.86871 Y1.55202
G01 X-35.94054 Y0.48374
G01 X-35.92805 Y0.41732
G04 P0 ( dwell for no time -- G64 should not smooth over this point )
G00 Z10.00000 ( retract )

G00 X-38.58517 Y2.88707 ( rapid move to begin. )
G01 F30.00000
G01 Z-0.10000
G04 P0 ( dwell for no time -- G64 should not smooth over this point )
G01 F360.00000
G01 X-38.58517 Y2.88707
G01 X-38.81084 Y2.62042
G01 X-38.87884 Y2.48501
G01 X-38.91166 Y2.35600
G01 X-38.92197 Y2.21239
G01 X-38.97932 Y1.90759
G01 X-38.98351 Y1.50614
G01 X-38.83736 Y1.41425
G04 P0 ( dwell for no time -- G64 should not smooth over this point )
G00 Z10.00000 ( retract )

G00 X-38.98351 Y1.50614 ( rapid move to begin. )
G01 F30.00000
G01 Z-0.10000
G04 P0 ( dwell for no time -- G64 should not smooth over this point )
G01 F360.00000
G01 X-38.98351 Y1.50614
G01 X-39.35189 Y1.54574
G01 X-39.78323 Y1.56512
G01 X-39.79631 Y2.08384
G01 X-39.98989 Y2.54363
G01 X-39.89078 Y2.67020
G01 X-39.85593 Y2.76169
G01 X-39.84973 Y3.55077
G01 X-39.58336 Y3.55143
G01 X-39.24988 Y3.59484
G04 P0 ( dwell for no time -- G64 should not smooth over this point )
G00 Z10.00000 ( retract )

G00 X-38.63988 Y3.40357 ( rapid move to begin. )
G01 F30.00000
G01 Z-0.10000
G04 P0 ( dwell for no time -- G64 should not smooth over this point )
G01 F360.00000
G01 X-38.63988 Y3.40357
G01 X-39.24988 Y3.59484
G01 X-39.23345 Y4.01290
G01 X-39.16644 Y4.28409
G01 X-39.11674 Y4.41960
G01 X-39.11582 Y6.51751
G04 P0 ( dwell for no time -- G64 should not smooth over this point )
G00 Z10.00000 ( retract )

G00 X-38.22210 Y5.93395 ( rapid move to begin. )
G01 F30.00000
G01 Z-0.10000
G04 P0 ( dwell for no time -- G64 should not smooth over this point )
G01 F360.00000
G01 X-38.22210 Y5.93395
G01 X-38.28021 Y6.49615
G04 P0 ( dwell for no time -- G64 should not smooth over this point )
G00 Z10.00000 ( retract )

G00 X-40.12588 Y6.46730 ( rapid move to begin. )
G01 F30.00000
G01 Z-0.10000
G04 P0 ( dwell for no time -- G64 should not smooth over this point )
G01 F360.00000
G01 X-40.12588 Y6.46730
G01 X-39.85153 Y5.08546
G01 X-39.83418 Y4.78732
G01 X-39.71658 Y4.45402
G01 X-39.71658 Y4.39453
G01 X-39.80277 Y4.16004
G01 X-39.84247 Y3.99552
G01 X-39.84973 Y3.55077
G01 X-40.58247 Y3.55069
G01 X-40.58448 Y3.98094
G01 X-40.59852 Y4.09031
G01 X-40.64546 Y4.23852
G01 X-40.64965 Y4.55054
G01 X-40.59944 Y4.74025
G01 X-40.58295 Y4.88394
G01 X-40.58161 Y6.46143
G04 P0 ( dwell for no time -- G64 should not smooth over this point )
G00 Z10.00000 ( retract )

G00 X-41.41930 Y6.45935 ( rapid move to begin. )
G01 F30.00000
G01 Z-0.10000
G04 P0 ( dwell for no time -- G64 should not smooth over this point )
G01 F360.00000
G01 X-41.41930 Y6.45935
G01 X-41.69788 Y5.19902
G01 X-41.80528 Y4.85386
G01 X-41.84122 Y4.67500
G01 X-41.84866 Y2.92486
G01 X-41.18277 Y3.32410
G01 X-40.91783 Y3.43957
G01 X-40.58247 Y3.55069
G04 P0 ( dwell for no time -- G64 should not smooth over this point )
G00 Z10.00000 ( retract )

G00 X-41.84866 Y2.92486 ( rapid move to begin. )
G01 F30.00000
G01 Z-0.10000
G04 P0 ( dwell for no time -- G64 should not smooth over this point )
G01 F360.00000
G01 X-41.84866 Y2.92486
G01 X-42.12234 Y2.56182
G01 X-41.95575 Y2.41478
G01 X-41.18277 Y1.55308
G04 P0 ( dwell for no time -- G64 should not smooth over this point )
G00 Z10.00000 ( retract )

G00 X-41.18277 Y1.50470 ( rapid move to begin. )
G01 F30.00000
G01 Z-0.10000
G04 P0 ( dwell for no time -- G64 should not smooth over this point )
G01 F360.00000
G01 X-41.18277 Y1.50470
G01 X-41.45298 Y1.01321
G01 X-41.69247 Y0.53137
G01 X-41.45577 Y0.27968
G01 X-41.39334 Y0.17026
G01 X-41.35344 Y0.05080
G01 X-40.78214 Y0.05080
G04 P0 ( dwell for no time -- G64 should not smooth over this point )
G00 Z10.00000 ( retract )

G00 X-41.35344 Y0.05080 ( rapid move to begin. )
G01 F30.00000
G01 Z-0.10000
G04 P0 ( dwell for no time -- G64 should not smooth over this point )
G01 F360.00000
G01 X-41.35344 Y0.05080
G01 X-42.44033 Y0.05080
G01 X-42.39773 Y0.18727
G01 X-42.28069 Y0.38255
G01 X-42.38221 Y0.66398
G01 X-42.38231 Y2.53870
G01 X-42.12234 Y2.56182
G04 P0 ( dwell for no time -- G64 should not smooth over this point )
G00 Z10.00000 ( retract )

G00 X-42.38231 Y2.53870 ( rapid move to begin. )
G01 F30.00000
G01 Z-0.10000
G04 P0 ( dwell for no time -- G64 should not smooth over this point )
G01 F360.00000
G01 X-42.38231 Y2.53870
G01 X-43.11505 Y2.55034
G01 X-43.11226 Y4.01325
G01 X-43.08005 Y4.15437
G01 X-42.85145 Y4.62090
G01 X-42.85244 Y4.77167
G01 X-42.88793 Y4.95452
G01 X-43.31739 Y6.46730
G04 P0 ( dwell for no time -- G64 should not smooth over this point )
G00 Z10.00000 ( retract )

G00 X-52.55275 Y0.05080 ( rapid move to begin. )
G01 F30.00000
G01 Z-0.10000
G04 P0 ( dwell for no time -- G64 should not smooth over this point )
G01 F360.00000
G01 X-52.55275 Y0.05080
G01 X-52.74399 Y0.05080
G04 P0 ( dwell for no time -- G64 should not smooth over this point )
G00 Z10.00000 ( retract )

G00 X-45.37847 Y6.46153 ( rapid move to begin. )
G01 F30.00000
G01 Z-0.10000
G04 P0 ( dwell for no time -- G64 should not smooth over this point )
G01 F360.00000
G01 X-45.37847 Y6.46153
G01 X-45.38238 Y4.87373
G01 X-45.39653 Y4.74348
G01 X-45.44807 Y4.55013
G01 X-45.43798 Y4.34533
G01 X-45.37512 Y4.22123
G01 X-45.38777 Y2.39855
G04 P0 ( dwell for no time -- G64 should not smooth over this point )
G00 Z10.00000 ( retract )

G00 X-45.31233 Y2.41722 ( rapid move to begin. )
G01 F30.00000
G01 Z-0.10000
G04 P0 ( dwell for no time -- G64 should not smooth over this point )
G01 F360.00000
G01 X-45.31233 Y2.41722
G01 X-45.90509 Y2.21003
G01 X-50.81293 Y0.64155
G01 X-52.55275 Y0.05080
G01 X-43.83204 Y0.05080
G04 P0 ( dwell for no time -- G64 should not smooth over this point )
G00 Z10.00000 ( retract )

G00 X-43.78549 Y2.43474 ( rapid move to begin. )
G01 F30.00000
G01 Z-0.10000
G04 P0 ( dwell for no time -- G64 should not smooth over this point )
G01 F360.00000
G01 X-43.78549 Y2.43474
G01 X-44.24858 Y2.41719
G01 X-45.31233 Y2.41722
G01 X-45.18152 Y2.81231
G01 X-44.65251 Y4.23860
G01 X-44.64868 Y4.55709
G01 X-44.69915 Y4.74320
G01 X-44.71464 Y4.87749
G01 X-44.70842 Y6.46097
G04 P0 ( dwell for no time -- G64 should not smooth over this point )
G00 Z10.00000 ( retract )

G00 X-43.77903 Y6.46153 ( rapid move to begin. )
G01 F30.00000
G01 Z-0.10000
G04 P0 ( dwell for no time -- G64 should not smooth over this point )
G01 F360.00000
G01 X-43.77903 Y6.46153
G01 X-43.78345 Y4.85366
G01 X-43.79745 Y4.74434
G01 X-43.84436 Y4.59610
G01 X-43.84888 Y4.26121
G01 X-43.90220 Y4.08379
G01 X-43.91518 Y3.88480
G01 X-43.58190 Y3.18526
G01 X-43.36369 Y2.55016
G04 P0 ( dwell for no time -- G64 should not smooth over this point )
G00 Z10.00000 ( retract )

G00 X-43.18218 Y2.54183 ( rapid move to begin. )
G01 F30.00000
G01 Z-0.10000
G04 P0 ( dwell for no time -- G64 should not smooth over this point )
G01 F360.00000
G01 X-43.18218 Y2.54183
G01 X-43.36369 Y2.55016
G01 X-43.78549 Y2.43474
G01 X-43.78091 Y1.23558
G01 X-43.71800 Y0.87732
G01 X-43.71569 Y0.66378
G01 X-43.73189 Y0.55075
G01 X-43.71533 Y0.38110
G01 X-43.83204 Y0.05080
G01 X-43.12323 Y0.05080
G04 P0 ( dwell for no time -- G64 should not smooth over this point )
G00 Z10.00000 ( retract )

G00 X-42.44033 Y0.05080 ( rapid move to begin. )
G01 F30.00000
G01 Z-0.10000
G04 P0 ( dwell for no time -- G64 should not smooth over this point )
G01 F360.00000
G01 X-42.44033 Y0.05080
G01 X-43.12323 Y0.05080
G01 X-43.15170 Y0.15448
G01 X-43.24797 Y0.33813
G01 X-43.24848 Y0.62921
G01 X-43.19229 Y0.74453
G01 X-43.18137 Y0.83490
G01 X-43.18218 Y2.54183
G01 X-43.11505 Y2.55034
G04 P0 ( dwell for no time -- G64 should not smooth over this point )
G00 Z10.00000 ( retract )

G00 X-39.92377 Y0.05080 ( rapid move to begin. )
G01 F30.00000
G01 Z-0.10000
G04 P0 ( dwell for no time -- G64 should not smooth over this point )
G01 F360.00000
G01 X-39.92377 Y0.05080
G01 X-40.78214 Y0.05080
G01 X-40.77310 Y0.40615
G01 X-40.93238 Y0.58788
G01 X-41.05836 Y0.87889
G01 X-41.18277 Y1.55308
G01 X-40.24986 Y1.55054
G01 X-39.98316 Y1.52093
G04 P0 ( dwell for no time -- G64 should not smooth over this point )
G00 Z10.00000 ( retract )

G00 X-39.78323 Y1.56512 ( rapid move to begin. )
G01 F30.00000
G01 Z-0.10000
G04 P0 ( dwell for no time -- G64 should not smooth over this point )
G01 F360.00000
G01 X-39.78323 Y1.56512
G01 X-39.98316 Y1.52093
G01 X-39.98915 Y0.76177
G01 X-40.02395 Y0.67023
G01 X-40.12306 Y0.54356
G01 X-39.94363 Y0.13129
G01 X-39.92377 Y0.05080
G01 X-38.98824 Y0.05080
G04 P0 ( dwell for no time -- G64 should not smooth over this point )
G00 Z10.00000 ( retract )

G00 X-38.32451 Y0.05080 ( rapid move to begin. )
G01 F30.00000
G01 Z-0.10000
G04 P0 ( dwell for no time -- G64 should not smooth over this point )
G01 F360.00000
G01 X-38.32451 Y0.05080
G01 X-38.98824 Y0.05080
G01 X-39.02649 Y0.24633
G01 X-39.16883 Y0.59487
G01 X-39.18351 Y0.66647
G01 X-39.17541 Y0.75278
G01 X-39.04762 Y1.02225
G01 X-38.83736 Y1.41425
G01 X-38.75877 Y1.39299
G04 P0 ( dwell for no time -- G64 should not smooth over this point )
G00 Z10.00000 ( retract )

G00 X-38.31676 Y1.55080 ( rapid move to begin. )
G01 F30.00000
G01 Z-0.10000
G04 P0 ( dwell for no time -- G64 should not smooth over this point )
G01 F360.00000
G01 X-38.31676 Y1.55080
G01 X-38.31455 Y2.19243
G01 X-38.26020 Y2.38684
G01 X-38.33744 Y2.58808
G01 X-38.44623 Y2.74079
G01 X-38.58517 Y2.88707
G01 X-38.63988 Y3.40357
G01 X-38.58463 Y3.44665
G04 P0 ( dwell for no time -- G64 should not smooth over this point )
G00 Z10.00000 ( retract )

G00 X-35.89195 Y6.39656 ( rapid move to begin. )
G01 F30.00000
G01 Z-0.10000
G04 P0 ( dwell for no time -- G64 should not smooth over this point )
G01 F360.00000
G01 X-35.89195 Y6.39656
G01 X-36.10414 Y4.88754
G01 X-36.11080 Y4.41731
G04 P0 ( dwell for no time -- G64 should not smooth over this point )
G00 Z10.00000 ( retract )

G00 X-34.84875 Y4.13098 ( rapid move to begin. )
G01 F30.00000
G01 Z-0.10000
G04 P0 ( dwell for no time -- G64 should not smooth over this point )
G01 F360.00000
G01 X-34.84875 Y4.13098
G01 X-34.94842 Y4.41703
G01 X-34.84215 Y4.22112
G01 X-34.84573 Y2.63411
G04 P0 ( dwell for no time -- G64 should not smooth over this point )
G00 Z10.00000 ( retract )

G00 X-35.04496 Y2.41732 ( rapid move to begin. )
G01 F30.00000
G01 Z-0.10000
G04 P0 ( dwell for no time -- G64 should not smooth over this point )
G01 F360.00000
G01 X-35.04496 Y2.41732
G01 X-35.05578 Y2.40721
G01 X-34.44837 Y1.84066
G04 P0 ( dwell for no time -- G64 should not smooth over this point )
G00 Z10.00000 ( retract )

G00 X-33.79640 Y1.48367 ( rapid move to begin. )
G01 F30.00000
G01 Z-0.10000
G04 P0 ( dwell for no time -- G64 should not smooth over this point )
G01 F360.00000
G01 X-33.79640 Y1.48367
G01 X-34.18449 Y1.67510
G01 X-34.44837 Y1.84066
G01 X-34.45048 Y0.83099
G01 X-34.54844 Y0.41704
G01 X-35.92805 Y0.41732
G01 X-35.91700 Y0.05080
G01 X-34.44773 Y0.05080
G01 X-34.54844 Y0.41704
G01 X-34.44225 Y0.22106
G01 X-34.44773 Y0.05080
G01 X-33.69810 Y0.05080
G04 P0 ( dwell for no time -- G64 should not smooth over this point )
G00 Z10.00000 ( retract )

G00 X-33.16694 Y0.05080 ( rapid move to begin. )
G01 F30.00000
G01 Z-0.10000
G04 P0 ( dwell for no time -- G64 should not smooth over this point )
G01 F360.00000
G01 X-33.16694 Y0.05080
G01 X-33.69810 Y0.05080
G01 X-33.58197 Y0.39454
G01 X-33.58197 Y0.45403
G01 X-33.64205 Y0.59637
G01 X-33.70316 Y0.80673
G01 X-33.71527 Y1.07757
G01 X-33.79640 Y1.48367
G01 X-33.30821 Y1.48364
G01 X-33.04637 Y1.46360
G04 P0 ( dwell for no time -- G64 should not smooth over this point )
G00 Z10.00000 ( retract )

G00 X-32.88228 Y1.41387 ( rapid move to begin. )
G01 F30.00000
G01 Z-0.10000
G04 P0 ( dwell for no time -- G64 should not smooth over this point )
G01 F360.00000
G01 X-32.88228 Y1.41387
G01 X-33.04637 Y1.46360
G01 X-33.04908 Y2.29469
G01 X-33.08335 Y2.41706
G01 X-33.04883 Y2.14414
G04 P0 ( dwell for no time -- G64 should not smooth over this point )
G00 Z10.00000 ( retract )

G00 X-33.31312 Y3.42329 ( rapid move to begin. )
G01 F30.00000
G01 Z-0.10000
G04 P0 ( dwell for no time -- G64 should not smooth over this point )
G01 F360.00000
G01 X-33.31312 Y3.42329
G01 X-33.58436 Y3.39908
G01 X-33.84852 Y3.32633
G01 X-34.18489 Y3.17358
G01 X-34.64839 Y2.81120
G01 X-34.84573 Y2.63411
G01 X-35.04496 Y2.41732
G01 X-33.08335 Y2.41706
G01 X-32.98828 Y2.79103
G01 X-32.98393 Y3.40375
G04 P0 ( dwell for no time -- G64 should not smooth over this point )
G00 Z10.00000 ( retract )

G00 X-32.58231 Y3.43065 ( rapid move to begin. )
G01 F30.00000
G01 Z-0.10000
G04 P0 ( dwell for no time -- G64 should not smooth over this point )
G01 F360.00000
G01 X-32.58231 Y3.43065
G01 X-32.98393 Y3.40375
G01 X-33.31312 Y3.42329
G01 X-33.31538 Y4.55038
G01 X-33.26524 Y4.74025
G01 X-33.24883 Y4.88340
G01 X-33.24588 Y6.13997
G01 X-32.96920 Y5.46402
G01 X-32.81075 Y5.16428
G01 X-32.64568 Y4.90736
G01 X-32.59211 Y4.76961
G01 X-32.58508 Y4.64231
G01 X-32.60468 Y4.55150
G01 X-32.53125 Y4.37419
G01 X-32.51576 Y4.28734
G01 X-32.57753 Y4.03535
G01 X-32.58231 Y3.43065
G01 X-32.18117 Y3.41734
G04 P0 ( dwell for no time -- G64 should not smooth over this point )
G00 Z10.00000 ( retract )

G00 X-31.38269 Y3.45435 ( rapid move to begin. )
G01 F30.00000
G01 Z-0.10000
G04 P0 ( dwell for no time -- G64 should not smooth over this point )
G01 F360.00000
G01 X-31.38269 Y3.45435
G01 X-31.79331 Y3.41935
G01 X-32.11581 Y3.43461
G01 X-32.18117 Y3.41734
G01 X-32.18449 Y2.83959
G01 X-32.24911 Y2.55054
G01 X-32.24492 Y2.23853
G01 X-32.19823 Y2.09146
G01 X-32.18345 Y1.98587
G01 X-32.18193 Y1.55057
G04 P0 ( dwell for no time -- G64 should not smooth over this point )
G00 Z10.00000 ( retract )

G00 X-32.55711 Y1.42791 ( rapid move to begin. )
G01 F30.00000
G01 Z-0.10000
G04 P0 ( dwell for no time -- G64 should not smooth over this point )
G01 F360.00000
G01 X-32.55711 Y1.42791
G01 X-32.64901 Y1.44163
G01 X-32.88228 Y1.41387
G01 X-32.98132 Y1.01951
G01 X-32.99998 Y0.73330
G01 X-33.11538 Y0.49583
G01 X-33.11601 Y0.25471
G01 X-33.16694 Y0.05080
G01 X-32.24939 Y0.05080
G04 P0 ( dwell for no time -- G64 should not smooth over this point )
G00 Z10.00000 ( retract )

G00 X-31.44683 Y1.57307 ( rapid move to begin. )
G01 F30.00000
G01 Z-0.10000
G04 P0 ( dwell for no time -- G64 should not smooth over this point )
G01 F360.00000
G01 X-31.44683 Y1.57307
G01 X-31.71596 Y1.55026
G01 X-32.18193 Y1.55057
G01 X-32.55711 Y1.42791
G01 X-32.32549 Y0.76975
G01 X-32.31820 Y0.64226
G01 X-32.33758 Y0.55159
G01 X-32.25058 Y0.31763
G01 X-32.24939 Y0.05080
G01 X-30.98320 Y0.05080
G04 P0 ( dwell for no time -- G64 should not smooth over this point )
G00 Z10.00000 ( retract )

G00 X-29.18343 Y1.43523 ( rapid move to begin. )
G01 F30.00000
G01 Z-0.10000
G04 P0 ( dwell for no time -- G64 should not smooth over this point )
G01 F360.00000
G01 X-29.18343 Y1.43523
G01 X-29.81714 Y1.41740
G01 X-29.91698 Y1.01821
G01 X-29.93398 Y0.73340
G01 X-30.04904 Y0.49527
G01 X-30.05445 Y0.22550
G01 X-30.10093 Y0.05080
G01 X-29.11615 Y0.05080
G04 P0 ( dwell for no time -- G64 should not smooth over this point )
G00 Z10.00000 ( retract )

G00 X-27.49540 Y0.05080 ( rapid move to begin. )
G01 F30.00000
G01 Z-0.10000
G04 P0 ( dwell for no time -- G64 should not smooth over this point )
G01 F360.00000
G01 X-27.49540 Y0.05080
G01 X-28.24973 Y0.05080
G01 X-28.25707 Y0.24905
G01 X-28.28303 Y0.29149
G01 X-28.45026 Y0.41735
G01 X-28.45026 Y1.41796
G01 X-28.02781 Y1.41448
G04 P0 ( dwell for no time -- G64 should not smooth over this point )
G00 Z10.00000 ( retract )

G00 X-27.78440 Y1.52034 ( rapid move to begin. )
G01 F30.00000
G01 Z-0.10000
G04 P0 ( dwell for no time -- G64 should not smooth over this point )
G01 F360.00000
G01 X-27.78440 Y1.52034
G01 X-27.77086 Y2.07907
G01 X-27.65699 Y2.35006
G01 X-27.70998 Y2.48966
G01 X-27.73596 Y2.65059
G01 X-28.02138 Y3.41815
G01 X-27.78369 Y3.52077
G04 P0 ( dwell for no time -- G64 should not smooth over this point )
G00 Z10.00000 ( retract )

G00 X-29.37698 Y6.46097 ( rapid move to begin. )
G01 F30.00000
G01 Z-0.10000
G04 P0 ( dwell for no time -- G64 should not smooth over this point )
G01 F360.00000
G01 X-29.37698 Y6.46097
G01 X-29.38242 Y4.84871
G01 X-29.36763 Y4.74317
G01 X-29.32095 Y4.59608
G01 X-29.31711 Y4.27756
G01 X-29.33583 Y4.18440
G01 X-29.62115 Y3.41625
G01 X-29.31625 Y3.30609
G04 P0 ( dwell for no time -- G64 should not smooth over this point )
G00 Z10.00000 ( retract )

G00 X-29.62115 Y3.41625 ( rapid move to begin. )
G01 F30.00000
G01 Z-0.10000
G04 P0 ( dwell for no time -- G64 should not smooth over this point )
G01 F360.00000
G01 X-29.62115 Y3.41625
G01 X-29.91660 Y3.38115
G01 X-29.91279 Y2.92743
G01 X-29.84967 Y2.56682
G01 X-29.87241 Y2.39469
G01 X-29.91660 Y2.35174
G01 X-29.91660 Y1.45664
G01 X-29.81714 Y1.41740
G04 P0 ( dwell for no time -- G64 should not smooth over this point )
G00 Z10.00000 ( retract )

G00 X-29.91660 Y1.45664 ( rapid move to begin. )
G01 F30.00000
G01 Z-0.10000
G04 P0 ( dwell for no time -- G64 should not smooth over this point )
G01 F360.00000
G01 X-29.91660 Y1.45664
G01 X-30.20088 Y1.48219
G01 X-30.37957 Y1.47747
G01 X-30.71475 Y1.41811
G01 X-30.72521 Y2.06461
G01 X-30.75137 Y2.15435
G01 X-30.84497 Y2.34056
G01 X-30.80634 Y2.46906
G01 X-30.78114 Y2.48773
G01 X-30.78287 Y3.50898
G01 X-30.46123 Y3.43352
G01 X-30.04739 Y3.41696
G01 X-29.91660 Y3.38115
G04 P0 ( dwell for no time -- G64 should not smooth over this point )
G00 Z10.00000 ( retract )

G00 X-30.04739 Y3.41696 ( rapid move to begin. )
G01 F30.00000
G01 Z-0.10000
G04 P0 ( dwell for no time -- G64 should not smooth over this point )
G01 F360.00000
G01 X-30.04739 Y3.41696
G01 X-30.04358 Y4.22112
G01 X-30.10642 Y4.34528
G01 X-30.11650 Y4.55013
G01 X-30.06496 Y4.74353
G01 X-30.05082 Y4.87388
G01 X-30.04690 Y6.46153
G04 P0 ( dwell for no time -- G64 should not smooth over this point )
G00 Z10.00000 ( retract )

G00 X-55.04998 Y38.63073 ( rapid move to begin. )
G01 F30.00000
G01 Z-0.10000
G04 P0 ( dwell for no time -- G64 should not smooth over this point )
G01 F360.00000
G01 X-55.04998 Y38.63073
G01 X-55.08142 Y38.40310
G01 X-55.16971 Y38.19147
G01 X-55.30901 Y38.00894
G01 X-55.50281 Y37.86221
G01 X-55.70317 Y37.78136
G01 X-55.93077 Y37.75197
G01 X-56.03565 Y37.76025
G01 X-56.18945 Y37.79098
G01 X-56.35879 Y37.86221
G01 X-56.52867 Y37.98687
G01 X-56.69186 Y38.19147
G01 X-56.78015 Y38.40310
G01 X-56.81160 Y38.63073
G01 X-56.77182 Y38.91681
G01 X-56.81696 Y38.97671
G01 X-63.18016 Y45.33991
G01 X-63.21024 Y45.36580
G01 X-63.27343 Y45.37367
G01 X-64.30086 Y45.37367
G01 X-64.40607 Y45.39544
G01 X-64.42786 Y45.50067
G01 X-64.42786 Y47.00080
G01 X-64.40607 Y47.10600
G01 X-64.30086 Y47.12780
G01 X-62.80074 Y47.12780
G01 X-62.69551 Y47.10600
G01 X-62.67374 Y47.00080
G01 X-62.67374 Y45.97337
G01 X-62.66586 Y45.91017
G01 X-62.63998 Y45.88010
G01 X-56.27677 Y39.51689
G01 X-56.21978 Y39.47343
G01 X-55.93080 Y39.50947
G01 X-55.70317 Y39.48008
G01 X-55.49052 Y39.39357
G01 X-55.30901 Y39.25250
G01 X-55.16971 Y39.06998
G01 X-55.12450 Y38.97513
G01 X-55.07424 Y38.82659
G01 X-55.04998 Y38.63073
G04 P0 ( dwell for no time -- G64 should not smooth over this point )
G00 Z10.00000 ( retract )

G00 X-27.10998 Y41.17073 ( rapid move to begin. )
G01 F30.00000
G01 Z-0.10000
G04 P0 ( dwell for no time -- G64 should not smooth over this point )
G01 F360.00000
G01 X-27.10998 Y41.17073
G01 X-27.13424 Y40.97485
G01 X-27.18450 Y40.82631
G01 X-27.22971 Y40.73147
G01 X-27.36901 Y40.54894
G01 X-27.55052 Y40.40787
G01 X-27.70688 Y40.34031
G01 X-27.99080 Y40.29197
G01 X-28.27470 Y40.34031
G01 X-28.43106 Y40.40787
G01 X-28.61257 Y40.54894
G01 X-28.75186 Y40.73147
G01 X-28.79707 Y40.82631
G01 X-28.84734 Y40.97485
G01 X-28.87160 Y41.17073
G01 X-28.84734 Y41.36659
G01 X-28.79707 Y41.51513
G01 X-28.75186 Y41.60998
G01 X-28.61257 Y41.79250
G01 X-28.43106 Y41.93357
G01 X-28.27470 Y42.00114
G01 X-27.99077 Y42.04947
G01 X-27.70688 Y42.00114
G01 X-27.55052 Y41.93357
G01 X-27.36901 Y41.79250
G01 X-27.22971 Y41.60998
G01 X-27.18450 Y41.51513
G01 X-27.13424 Y41.36659
G01 X-27.10998 Y41.17073
G04 P0 ( dwell for no time -- G64 should not smooth over this point )
G00 Z10.00000 ( retract )

G00 X-6.79371 Y42.96067 ( rapid move to begin. )
G01 F30.00000
G01 Z-0.10000
G04 P0 ( dwell for no time -- G64 should not smooth over this point )
G01 F360.00000
G01 X-6.79371 Y42.96067
G01 X-6.79371 Y44.46080
G01 X-6.81551 Y44.56598
G01 X-6.92074 Y44.58780
G01 X-8.42086 Y44.58780
G01 X-8.52607 Y44.56600
G01 X-8.54786 Y44.46080
G01 X-8.54786 Y42.96067
G01 X-8.52607 Y42.85544
G01 X-8.42086 Y42.83367
G01 X-6.92074 Y42.83367
G01 X-6.81551 Y42.85546
G01 X-6.79371 Y42.96067
G04 P0 ( dwell for no time -- G64 should not smooth over this point )
G00 Z10.00000 ( retract )

G00 X-6.78995 Y41.17073 ( rapid move to begin. )
G01 F30.00000
G01 Z-0.10000
G04 P0 ( dwell for no time -- G64 should not smooth over this point )
G01 F360.00000
G01 X-6.78995 Y41.17073
G01 X-6.81424 Y40.97485
G01 X-6.86450 Y40.82631
G01 X-6.90971 Y40.73147
G01 X-7.04901 Y40.54894
G01 X-7.23052 Y40.40787
G01 X-7.38688 Y40.34031
G01 X-7.67077 Y40.29197
G01 X-7.95470 Y40.34031
G01 X-8.11106 Y40.40787
G01 X-8.29257 Y40.54894
G01 X-8.43186 Y40.73147
G01 X-8.47707 Y40.82631
G01 X-8.52734 Y40.97485
G01 X-8.55160 Y41.17073
G01 X-8.52734 Y41.36659
G01 X-8.47707 Y41.51513
G01 X-8.43186 Y41.60998
G01 X-8.29257 Y41.79250
G01 X-8.11106 Y41.93357
G01 X-7.95470 Y42.00114
G01 X-7.67077 Y42.04947
G01 X-7.38688 Y42.00114
G01 X-7.23052 Y41.93357
G01 X-7.04901 Y41.79250
G01 X-6.90971 Y41.60998
G01 X-6.86450 Y41.51513
G01 X-6.81424 Y41.36659
G01 X-6.78995 Y41.17073

G04 P0 ( dwell for no time -- G64 should not smooth over this point )
G00 Z50.000 ( retract )

M5 ( Spindle off. )
G04 P1.000000
M9 ( Coolant off. )
M2 ( Program end. )

