( pcb2gcode 2.5.0 )
( Software-independent Gcode )

G94 ( Millimeters per minute feed rate. )
G21 ( Units == Millimeters. )

G90 ( Absolute coordinates. )
G00 S10000 ( RPM spindle speed. )
G01 F360.00000 ( Feedrate. )


G00 Z50.00000 (Retract to tool change height)
T1
M5      (Spindle stop.)
G04 P1.00000 (Wait for spindle to stop)
(MSG, Change tool bit to mill diameter 0.50800mm)
M6      (Tool change.)
M0      (Temporary machine stop.)
M3 ( Spindle on clockwise. )
G04 P1.00000 (Wait for spindle to get up to speed)
G04 P0 ( dwell for no time -- G64 should not smooth over this point )
G00 Z10.00000 ( retract )

G00 X-18.59023 Y-0.25400 ( rapid move to begin. )
G01 F30.00000
( Mill infeed pass 1/1 )
G01 Z-0.10000
G04 P0 ( dwell for no time -- G64 should not smooth over this point )
G01 F360.00000
G01 X-18.59023 Y-0.25400
G01 X0.25400 Y-0.25400
G01 X0.25400 Y50.00993
G01 X-72.38997 Y50.00993
G01 X-72.38997 Y-0.25400
G01 X-53.87762 Y-0.25397
G01 X-53.24325 Y0.42972
G01 X-53.08727 Y0.72339
G01 X-52.51633 Y1.74483
G01 X-51.94544 Y2.67327
G01 X-51.37452 Y3.50871
G01 X-50.80361 Y4.25117
G01 X-50.41918 Y4.70258
G01 X-50.07374 Y5.07202
G01 X-49.72830 Y5.40710
G01 X-49.34384 Y5.73971
G01 X-48.96488 Y6.02968
G01 X-48.56630 Y6.28955
G01 X-48.13531 Y6.52064
G01 X-47.82746 Y6.65404
G01 X-47.50016 Y6.76552
G01 X-47.15444 Y6.85267
G01 X-46.76976 Y6.90822
G01 X-46.43857 Y6.92450
G01 X-46.01901 Y6.92353
G01 X-45.83727 Y6.91866
G01 X-45.83377 Y6.22290
G01 X-45.83859 Y5.34101
G01 X-45.84563 Y5.24650
G01 X-45.85505 Y5.19745
G01 X-45.89818 Y5.06857
G01 X-45.90552 Y5.00733
G01 X-45.90481 Y4.85473
G01 X-45.90118 Y4.82526
G01 X-45.87743 Y4.75204
G01 X-45.83321 Y4.67787
G01 X-45.83852 Y4.62747
G01 X-45.83862 Y2.85727
G01 X-45.77326 Y2.87348
G01 X-45.63872 Y3.27431
G01 X-45.50550 Y3.63565
G01 X-45.37199 Y3.96220
G01 X-45.26732 Y4.25402
G01 X-45.20522 Y4.44152
G01 X-45.12368 Y4.64104
G01 X-45.10875 Y4.69562
G01 X-45.10461 Y4.74129
G01 X-45.10461 Y5.00774
G01 X-45.10875 Y5.05346
G01 X-45.12368 Y5.10804
G01 X-45.14484 Y5.16062
G01 X-45.15858 Y5.20789
G01 X-45.16511 Y5.24652
G01 X-45.17210 Y5.34060
G01 X-45.17426 Y5.66880
G01 X-45.16727 Y6.22285
G01 X-45.17075 Y6.91866
G01 X-45.34126 Y6.92353
G01 X-45.62749 Y6.92447
G01 X-45.83727 Y6.91866
G01 X-45.62749 Y6.92447
G01 X-45.34126 Y6.92353
G01 X-44.70918 Y6.91421
G01 X-44.45856 Y6.92353
G01 X-44.23783 Y6.91866
G01 X-44.03928 Y6.92450
G01 X-43.77530 Y6.92450
G01 X-43.31952 Y7.02274
G01 X-42.85910 Y7.05691
G01 X-42.51150 Y7.04157
G01 X-42.20286 Y6.99554
G01 X-41.87337 Y6.91642
G01 X-42.15651 Y5.64949
G01 X-42.19280 Y5.51652
G01 X-42.27035 Y5.28455
G01 X-42.29842 Y5.13220
G01 X-42.30649 Y5.00774
G01 X-42.30804 Y3.77708
G01 X-42.30431 Y3.38422
G01 X-41.63997 Y3.78071
G01 X-41.48712 Y3.84399
G01 X-41.37340 Y3.89722
G01 X-41.04015 Y4.00789
G01 X-41.04203 Y4.45803
G01 X-41.05664 Y4.55160
G01 X-41.10266 Y4.69572
G01 X-41.10685 Y4.74129
G01 X-41.10685 Y5.00774
G01 X-41.09961 Y5.06857
G01 X-41.05664 Y5.19745
G01 X-41.04719 Y5.24657
G01 X-41.04015 Y5.34114
G01 X-41.03533 Y6.22356
G01 X-41.03881 Y6.91863
G01 X-40.84015 Y6.92450
G01 X-40.58384 Y6.92450
G01 X-40.40688 Y6.95460
G01 X-39.92669 Y6.99021
G01 X-39.57394 Y6.97502
G01 X-39.57625 Y6.12407
G01 X-39.57246 Y5.80624
G01 X-39.57305 Y4.87774
G01 X-39.60932 Y4.78859
G01 X-39.63319 Y4.70672
G01 X-39.68427 Y4.50360
G01 X-39.69944 Y4.41404
G01 X-39.70835 Y4.24823
G01 X-39.70729 Y4.05204
G01 X-39.26644 Y3.90624
G01 X-39.09903 Y3.85912
G01 X-39.04325 Y3.34264
G01 X-38.90366 Y3.19689
G01 X-38.80947 Y3.07038
G01 X-38.76228 Y2.98084
G01 X-38.74613 Y2.94188
G01 X-38.71831 Y2.84274
G01 X-38.76144 Y2.70960
G01 X-38.77338 Y2.62773
G01 X-38.77422 Y2.00777
G01 X-38.95743 Y1.94671
G01 X-39.21470 Y1.84983
G01 X-39.15476 Y1.49235
G01 X-39.11625 Y1.33609
G01 X-39.09286 Y1.27086
G01 X-39.02898 Y1.11879
G01 X-38.98976 Y1.04531
G01 X-38.96510 Y1.00835
G01 X-38.95143 Y0.94323
G01 X-38.92873 Y0.87313
G01 X-38.86482 Y0.72108
G01 X-38.81859 Y0.62951
G01 X-38.80137 Y0.58847
G01 X-38.78730 Y0.54102
G01 X-38.77528 Y0.45161
G01 X-38.77358 Y0.37836
G01 X-38.77422 Y-0.25397
G01 X-39.44071 Y-0.25397
G01 X-39.44209 Y0.44168
G01 X-39.45037 Y0.55730
G01 X-39.47163 Y0.66139
G01 X-39.48445 Y0.70368
G01 X-39.62156 Y1.04137
G01 X-39.63599 Y1.09187
G01 X-39.63967 Y1.16063
G01 X-39.62504 Y1.23121
G01 X-39.60043 Y1.28908
G01 X-39.43909 Y1.60988
G01 X-39.29451 Y1.87140
G01 X-39.21470 Y1.84983
G01 X-39.29451 Y1.87140
G01 X-39.44094 Y1.96350
G01 X-39.43949 Y2.30363
G01 X-39.42659 Y2.45468
G01 X-39.38793 Y2.61734
G01 X-39.37917 Y2.66959
G01 X-39.36870 Y2.81318
G01 X-39.35966 Y2.86494
G01 X-39.31956 Y2.98084
G01 X-39.26769 Y3.07673
G01 X-39.24163 Y3.11574
G01 X-39.13218 Y3.24795
G01 X-39.04325 Y3.34264
G01 X-39.09903 Y3.85912
G01 X-39.04079 Y3.90403
G01 X-39.04008 Y4.95402
G01 X-39.00523 Y5.01119
G01 X-38.95677 Y5.10863
G01 X-38.93472 Y5.16062
G01 X-38.92065 Y5.20807
G01 X-38.90863 Y5.29747
G01 X-38.90896 Y5.46867
G01 X-38.67973 Y6.39397
G01 X-38.73569 Y6.95378
G01 X-38.67973 Y6.39397
G01 X-38.55336 Y6.05183
G01 X-38.41839 Y5.72336
G01 X-38.37437 Y5.60702
G01 X-38.26137 Y5.27294
G01 X-38.19187 Y5.10863
G01 X-38.14178 Y5.00870
G01 X-38.16739 Y4.93563
G01 X-38.17485 Y4.87423
G01 X-38.17534 Y3.25498
G01 X-38.17894 Y3.22517
G01 X-38.19329 Y3.17454
G01 X-38.24077 Y3.08592
G01 X-38.24021 Y2.79684
G01 X-38.20208 Y2.73101
G01 X-38.14762 Y2.61991
G01 X-38.12380 Y2.55153
G01 X-38.11593 Y2.51656
G01 X-38.10729 Y2.43081
G01 X-38.10782 Y2.00777
G01 X-37.97557 Y1.96337
G01 X-37.97325 Y1.71196
G01 X-37.96543 Y1.59177
G01 X-37.92235 Y1.39814
G01 X-37.91331 Y1.34633
G01 X-37.90785 Y1.27239
G01 X-37.90879 Y1.11953
G01 X-37.91542 Y1.05494
G01 X-37.92487 Y1.00790
G01 X-37.91544 Y0.96096
G01 X-37.90879 Y0.89629
G01 X-37.90843 Y0.83757
G01 X-37.94935 Y0.74818
G01 X-38.00582 Y0.58179
G01 X-38.01842 Y0.53955
G01 X-38.03363 Y0.45839
G01 X-38.03833 Y0.40836
G01 X-38.04232 Y0.24575
G01 X-38.04107 Y-0.25400
G01 X-40.37376 Y-0.25397
G01 X-40.37404 Y0.43589
G01 X-40.38074 Y0.50693
G01 X-40.40083 Y0.58849
G01 X-40.46451 Y0.72164
G01 X-40.58067 Y1.00175
G01 X-40.51310 Y1.07780
G01 X-40.48712 Y1.11689
G01 X-40.45575 Y1.18430
G01 X-40.44439 Y1.22900
G01 X-40.43944 Y1.29766
G01 X-40.44193 Y1.97780
G01 X-40.24043 Y2.02232
G01 X-40.24069 Y2.43589
G01 X-40.24744 Y2.50693
G01 X-40.25684 Y2.55306
G01 X-40.28483 Y2.62961
G01 X-40.33129 Y2.72161
G01 X-40.44749 Y3.00182
G01 X-40.38760 Y3.06690
G01 X-40.35610 Y3.11325
G01 X-40.32601 Y3.17462
G01 X-40.30878 Y3.24480
G01 X-40.30825 Y4.24574
G01 X-40.30396 Y4.40855
G01 X-40.29901 Y4.45877
G01 X-40.28262 Y4.54475
G01 X-40.22885 Y4.71033
G01 X-40.17378 Y4.85173
G01 X-40.17378 Y4.91185
G01 X-40.21115 Y4.98846
G01 X-40.23296 Y5.04937
G01 X-40.28435 Y5.20951
G01 X-40.29674 Y5.26694
G01 X-40.30640 Y5.37197
G01 X-40.30711 Y5.54104
G01 X-40.58384 Y6.92450
G01 X-40.84015 Y6.92450
G01 X-41.03881 Y6.91863
G01 X-41.35257 Y6.92442
G01 X-41.87337 Y6.91642
G01 X-41.35257 Y6.92442
G01 X-41.03881 Y6.91863
G01 X-40.84015 Y6.92450
G01 X-40.58384 Y6.92450
G01 X-40.40688 Y6.95460
G01 X-39.92669 Y6.99021
G01 X-39.57394 Y6.97502
G01 X-39.22121 Y6.99021
G01 X-38.73569 Y6.95378
G01 X-38.25258 Y7.03898
G01 X-37.90798 Y7.05787
G01 X-37.50793 Y7.05787
G01 X-37.16414 Y7.03905
G01 X-36.84567 Y6.99143
G01 X-36.52718 Y6.91116
G01 X-36.34854 Y6.85386
G01 X-36.55405 Y5.40791
G01 X-36.57232 Y5.17116
G01 X-36.57328 Y5.01828
G01 X-36.56825 Y4.87779
G01 X-36.57232 Y4.77136
G01 X-36.57420 Y3.94122
G01 X-36.57232 Y4.77136
G01 X-36.56825 Y4.87779
G01 X-36.19193 Y4.87766
G01 X-36.00651 Y4.87261
G01 X-35.40501 Y4.87375
G01 X-35.38179 Y4.93545
G01 X-35.37425 Y4.97456
G01 X-35.36853 Y5.05343
G01 X-35.32193 Y5.19745
G01 X-35.30755 Y5.29671
G01 X-35.30064 Y6.22290
G01 X-35.30415 Y6.91866
G01 X-35.30064 Y6.22290
G01 X-35.30755 Y5.29671
G01 X-35.32193 Y5.19745
G01 X-35.36853 Y5.05343
G01 X-35.37425 Y4.97456
G01 X-35.38179 Y4.93545
G01 X-35.40501 Y4.87375
G01 X-35.34486 Y4.75333
G01 X-35.29962 Y4.67812
G01 X-35.30521 Y4.62745
G01 X-35.30620 Y4.53685
G01 X-35.30549 Y3.08851
G01 X-35.51235 Y2.86309
G01 X-35.30549 Y3.08851
G01 X-35.10559 Y3.26840
G01 X-34.95500 Y3.39651
G01 X-34.64375 Y3.62989
G01 X-34.30572 Y3.78341
G01 X-34.03915 Y3.85562
G01 X-33.76778 Y3.88026
G01 X-33.51464 Y3.86870
G01 X-33.43933 Y3.86095
G01 X-33.51464 Y3.86870
G01 X-33.76778 Y3.88026
G01 X-34.03915 Y3.85562
G01 X-34.30572 Y3.78341
G01 X-34.64375 Y3.62989
G01 X-34.63681 Y4.07982
G01 X-34.64022 Y4.27548
G01 X-34.63689 Y4.45237
G01 X-34.62254 Y4.55155
G01 X-34.57951 Y4.68059
G01 X-34.57230 Y4.74129
G01 X-34.57230 Y6.91396
G01 X-34.83889 Y6.92450
G01 X-35.10559 Y6.92450
G01 X-35.30415 Y6.91866
G01 X-35.61776 Y6.92442
G01 X-35.96993 Y6.90822
G01 X-36.34854 Y6.85386
G01 X-35.96993 Y6.90822
G01 X-35.61776 Y6.92442
G01 X-35.30415 Y6.91866
G01 X-35.10559 Y6.92450
G01 X-34.83889 Y6.92450
G01 X-34.57230 Y6.91396
G01 X-34.01832 Y6.92442
G01 X-33.78396 Y6.92198
G01 X-33.31954 Y7.02274
G01 X-32.85912 Y7.05691
G01 X-32.57301 Y7.04708
G01 X-32.28805 Y7.05691
G01 X-31.97941 Y7.04167
G01 X-31.67075 Y6.99569
G01 X-31.34025 Y6.91642
G01 X-31.67304 Y5.42864
G01 X-31.70255 Y5.23984
G01 X-31.70230 Y5.04233
G01 X-31.69841 Y5.00337
G01 X-31.65676 Y4.79725
G01 X-31.58876 Y4.60939
G01 X-31.50677 Y4.42293
G01 X-31.50570 Y4.09189
G01 X-31.50677 Y4.42293
G01 X-31.58876 Y4.60939
G01 X-31.65676 Y4.79725
G01 X-31.69841 Y5.00337
G01 X-31.70230 Y5.04233
G01 X-31.70255 Y5.23984
G01 X-31.67304 Y5.42864
G01 X-31.34025 Y6.91642
G01 X-31.10687 Y6.92450
G01 X-30.50705 Y6.91855
G01 X-30.29580 Y6.92447
G01 X-30.00985 Y6.92353
G01 X-29.37761 Y6.91421
G01 X-29.12687 Y6.92353
G01 X-28.90614 Y6.91866
G01 X-28.90263 Y6.22290
G01 X-28.90954 Y5.29671
G01 X-28.91450 Y5.24650
G01 X-28.92659 Y5.18571
G01 X-28.95585 Y5.10802
G01 X-28.97068 Y5.05346
G01 X-28.97475 Y5.00758
G01 X-28.97353 Y4.74147
G01 X-28.97759 Y4.69565
G01 X-28.98445 Y4.66451
G01 X-29.01439 Y4.58813
G01 X-29.02786 Y4.54101
G01 X-29.03893 Y4.45224
G01 X-29.04081 Y4.34073
G01 X-28.80695 Y3.87071
G01 X-28.90957 Y3.81386
G01 X-28.90634 Y3.40357
G01 X-28.91023 Y3.28615
G01 X-28.91803 Y3.22478
G01 X-28.93919 Y3.14869
G01 X-28.98234 Y3.05577
G01 X-28.99509 Y3.01856
G01 X-29.03797 Y2.82512
G01 X-29.03725 Y2.72006
G01 X-29.01851 Y2.61938
G01 X-29.03690 Y2.51828
G01 X-29.04061 Y2.44117
G01 X-29.04084 Y1.91061
G01 X-28.90622 Y1.87455
G01 X-28.90962 Y1.66926
G01 X-28.90622 Y1.47361
G01 X-28.90746 Y0.87473
G01 X-28.73967 Y0.74933
G01 X-28.71434 Y0.70620
G01 X-28.70759 Y0.60797
G01 X-28.70756 Y-0.25400
G01 X-27.90784 Y-0.25400
G01 X-27.90784 Y0.44145
G01 X-28.04003 Y0.64132
G01 X-28.07396 Y0.70810
G01 X-28.15184 Y0.89677
G01 X-28.17056 Y0.96205
G01 X-28.17467 Y1.00775
G01 X-28.17475 Y1.14767
G01 X-28.17858 Y1.18666
G01 X-28.19347 Y1.24092
G01 X-28.27256 Y1.40589
G01 X-28.44518 Y1.74181
G01 X-28.48557 Y1.87142
G01 X-28.24112 Y1.97780
G01 X-28.24196 Y2.34495
G01 X-28.23972 Y2.43670
G01 X-28.23340 Y2.50703
G01 X-28.20937 Y2.60126
G01 X-28.14208 Y2.74132
G01 X-28.11450 Y2.80797
G01 X-28.16433 Y2.93550
G01 X-28.17211 Y2.97457
G01 X-28.17785 Y3.05346
G01 X-28.19296 Y3.10792
G01 X-28.26167 Y3.27363
G01 X-28.35641 Y3.55801
G01 X-28.41836 Y3.72765
G01 X-28.47945 Y3.87459
G01 X-28.24109 Y3.97789
G01 X-28.24109 Y4.40794
G01 X-28.23406 Y4.50251
G01 X-28.22463 Y4.55155
G01 X-28.21181 Y4.59384
G01 X-28.18427 Y4.65633
G01 X-28.06136 Y4.89819
G01 X-27.98326 Y5.06987
G01 X-27.97642 Y5.07586
G01 X-27.97487 Y5.16062
G01 X-27.98572 Y5.28955
G01 X-28.01155 Y5.40461
G01 X-28.24676 Y6.22013
G01 X-28.44361 Y6.92450
G01 X-28.70759 Y6.92450
G01 X-28.90614 Y6.91866
G01 X-28.70759 Y6.92450
G01 X-28.44361 Y6.92450
G01 X-27.98783 Y7.02274
G01 X-27.52740 Y7.05691
G01 X-27.48844 Y7.05691
G01 X-27.17980 Y7.04157
G01 X-26.87117 Y6.99554
G01 X-26.83215 Y6.98774
G01 X-26.31775 Y6.84299
G01 X-26.04099 Y6.73176
G01 X-25.76426 Y6.59605
G01 X-25.27267 Y6.30085
G01 X-24.78113 Y5.92976
G01 X-24.20793 Y5.40791
G01 X-23.40800 Y4.60794
G01 X-22.84722 Y4.00787
G01 X-22.20785 Y3.40779
G01 X-21.40801 Y2.60795
G01 X-20.83438 Y2.00693
G01 X-20.24568 Y1.44371
G01 X-19.42658 Y0.62652
G01 X-18.59023 Y-0.25400
G01 X-41.24020 Y-0.25400
G01 X-41.24109 Y0.65895
G01 X-41.23992 Y0.77211
G01 X-41.22999 Y0.86317
G01 X-41.33157 Y0.96754
G01 X-41.38950 Y1.04511
G01 X-41.42826 Y1.11879
G01 X-41.49214 Y1.27086
G01 X-41.51554 Y1.33609
G01 X-41.55404 Y1.49235
G01 X-41.60053 Y1.76914
G01 X-41.64046 Y1.96314
G01 X-41.64025 Y2.00884
G01 X-41.64046 Y1.96314
G01 X-41.69451 Y1.87391
G01 X-41.87223 Y1.54435
G01 X-42.14861 Y0.98872
G01 X-42.10705 Y0.94074
G01 X-41.95978 Y0.79306
G01 X-41.91361 Y0.73663
G01 X-41.89148 Y0.70355
G01 X-41.85112 Y0.62746
G01 X-41.83497 Y0.58849
G01 X-41.80119 Y0.47498
G01 X-41.79204 Y0.42896
G01 X-41.77469 Y0.23708
G01 X-41.77332 Y-0.25400
G01 X-41.24020 Y-0.25400
G01 X-44.30573 Y-0.25400
G01 X-44.30697 Y0.24575
G01 X-44.30583 Y0.34498
G01 X-44.29829 Y0.45839
G01 X-44.28307 Y0.53955
G01 X-44.26549 Y0.59698
G01 X-44.21401 Y0.74818
G01 X-44.17309 Y0.83757
G01 X-44.17344 Y0.89629
G01 X-44.18010 Y0.96096
G01 X-44.18952 Y1.00790
G01 X-44.18007 Y1.05494
G01 X-44.17344 Y1.11953
G01 X-44.17411 Y1.30729
G01 X-44.18701 Y1.39814
G01 X-44.22663 Y1.56771
G01 X-44.23791 Y1.71196
G01 X-44.24060 Y1.93977
G01 X-44.23679 Y2.25641
G01 X-44.24269 Y2.89179
G01 X-43.82153 Y3.00690
G01 X-43.63517 Y2.99956
G01 X-43.57055 Y3.00774
G01 X-43.10609 Y3.00777
G01 X-42.83949 Y2.99590
G01 X-42.57954 Y3.01902
G01 X-42.39517 Y3.25775
G01 X-42.30431 Y3.38422
G01 X-41.63997 Y3.78071
G01 X-41.48712 Y3.84399
G01 X-41.37340 Y3.89722
G01 X-41.04015 Y4.00789
G01 X-40.04056 Y4.00787
G01 X-39.90289 Y4.01660
G01 X-39.70729 Y4.05204
G01 X-39.26644 Y3.90624
G01 X-39.09903 Y3.85912
G01 X-39.04079 Y3.90403
G01 X-38.66030 Y3.98780
G01 X-38.46060 Y4.00698
G01 X-37.64128 Y4.00850
G01 X-37.50373 Y4.00012
G01 X-37.04547 Y3.95082
G01 X-36.84115 Y3.94122
G01 X-36.57420 Y3.94122
G01 X-36.09691 Y3.27444
G01 X-35.93020 Y3.05745
G01 X-35.73661 Y2.84043
G01 X-35.51235 Y2.86309
G01 X-35.30549 Y3.08851
G01 X-35.10559 Y3.26840
G01 X-34.95500 Y3.39651
G01 X-34.64375 Y3.62989
G01 X-34.30572 Y3.78341
G01 X-34.19188 Y3.81561
G01 X-34.03915 Y3.85562
G01 X-33.76778 Y3.88026
G01 X-33.51464 Y3.86870
G01 X-33.43933 Y3.86095
G01 X-33.36420 Y3.86903
G01 X-33.03951 Y3.88833
G01 X-32.85866 Y3.87551
G01 X-32.67428 Y3.87370
G01 X-32.63961 Y3.87421
G01 X-32.57304 Y3.89181
G01 X-32.43534 Y3.88021
G01 X-32.28701 Y3.87500
G01 X-32.14936 Y3.88198
G01 X-31.83758 Y3.91218
G01 X-31.84136 Y3.67289
G01 X-31.83854 Y3.44546
G01 X-31.82666 Y3.30103
G01 X-31.77868 Y3.07952
G01 X-31.77324 Y3.00665
G01 X-31.77380 Y2.83754
G01 X-31.81551 Y2.74866
G01 X-31.86499 Y2.60109
G01 X-31.88310 Y2.53967
G01 X-31.89910 Y2.45834
G01 X-31.90740 Y2.31077
G01 X-31.90657 Y2.03002
G01 X-31.90740 Y2.31077
G01 X-31.89910 Y2.45834
G01 X-31.88310 Y2.53967
G01 X-31.86499 Y2.60109
G01 X-31.81551 Y2.74866
G01 X-31.77380 Y2.83754
G01 X-31.77324 Y3.00665
G01 X-31.77868 Y3.07952
G01 X-31.82666 Y3.30103
G01 X-31.83854 Y3.44546
G01 X-31.84136 Y3.67289
G01 X-31.83758 Y3.91218
G01 X-31.50570 Y4.09189
G01 X-31.35381 Y4.01604
G01 X-31.23590 Y3.96370
G01 X-31.06456 Y3.91833
G01 X-30.83212 Y3.88069
G01 X-30.70708 Y3.87452
G01 X-30.50703 Y3.87454
G01 X-30.37261 Y3.83799
G01 X-30.30703 Y3.84955
G01 X-30.07685 Y3.87347
G01 X-29.88772 Y3.80040
G01 X-29.77358 Y3.76331
G01 X-29.49631 Y3.73235
G01 X-29.37360 Y3.71211
G01 X-28.90957 Y3.81386
G01 X-28.80695 Y3.87071
G01 X-28.70335 Y3.87485
G01 X-28.47945 Y3.87459
G01 X-28.24109 Y3.97789
G01 X-28.04109 Y4.00045
G01 X-27.92948 Y4.00693
G01 X-22.84722 Y4.00787
G01 X-22.20785 Y3.40779
G01 X-21.40801 Y2.60795
G01 X-20.83438 Y2.00693
G01 X-24.41166 Y2.01267
G01 X-25.56411 Y2.00777
G01 X-27.40876 Y2.00698
G01 X-27.52740 Y2.00871
G01 X-27.72689 Y2.02860
G01 X-27.77452 Y2.03807
G01 X-27.90774 Y2.01521
G01 X-28.24112 Y1.97780
G01 X-28.48557 Y1.87142
G01 X-28.90622 Y1.87455
G01 X-29.04084 Y1.91061
G01 X-29.17083 Y1.88854
G01 X-29.26022 Y1.87808
G01 X-29.50533 Y1.85631
G01 X-29.64053 Y1.89184
G01 X-29.90720 Y1.87455
G01 X-30.27238 Y1.87455
G01 X-30.37380 Y1.91458
G01 X-30.57634 Y1.93482
G01 X-30.72653 Y1.94061
G01 X-30.91490 Y1.92560
G01 X-31.17464 Y1.87409
G01 X-31.32800 Y1.79725
G01 X-31.41861 Y1.84597
G01 X-31.64002 Y1.94053
G01 X-31.90657 Y2.03002
G01 X-32.07428 Y2.01168
G01 X-32.17654 Y2.00683
G01 X-32.64057 Y2.00741
G01 X-33.01335 Y1.88486
G01 X-33.10621 Y1.89880
G01 X-33.23946 Y1.88062
G01 X-33.33862 Y1.87170
G01 X-33.51091 Y1.92171
G01 X-33.64647 Y1.93528
G01 X-33.75307 Y1.94094
G01 X-34.25063 Y1.94033
G01 X-34.41441 Y2.01468
G01 X-34.64192 Y2.13220
G01 X-34.90107 Y2.29502
G01 X-35.07100 Y2.44813
G01 X-35.42048 Y2.78039
G01 X-35.51235 Y2.86309
G01 X-35.73661 Y2.84043
G01 X-36.32619 Y2.00790
G01 X-36.37488 Y1.17373
G01 X-36.39711 Y0.94122
G01 X-36.38550 Y0.87452
G01 X-36.37267 Y0.57539
G01 X-36.37341 Y-0.25397
G01 X-36.37267 Y0.57539
G01 X-36.38550 Y0.87452
G01 X-35.00473 Y0.87455
G01 X-34.94451 Y0.75169
G01 X-34.89975 Y0.67803
G01 X-34.90625 Y0.55730
G01 X-34.90217 Y-0.25397
G01 X-34.90625 Y0.55730
G01 X-34.89975 Y0.67803
G01 X-34.94451 Y0.75169
G01 X-35.00473 Y0.87455
G01 X-34.98187 Y0.93541
G01 X-34.97435 Y0.97452
G01 X-34.96859 Y1.05347
G01 X-34.92203 Y1.19746
G01 X-34.90763 Y1.29680
G01 X-34.90107 Y2.29502
G01 X-34.64192 Y2.13220
G01 X-34.41441 Y2.01468
G01 X-34.25063 Y1.94033
G01 X-34.17250 Y1.54104
G01 X-34.17164 Y1.37183
G01 X-34.16148 Y1.26660
G01 X-34.14883 Y1.20934
G01 X-34.09836 Y1.04938
G01 X-34.07654 Y0.98847
G01 X-34.03918 Y0.91186
G01 X-34.03918 Y0.85174
G01 X-34.07153 Y0.77358
G01 X-34.13902 Y0.57462
G01 X-34.15358 Y0.52261
G01 X-34.16440 Y0.45877
G01 X-34.17250 Y0.34140
G01 X-34.17364 Y0.24575
G01 X-34.17250 Y-0.25400
G01 X-33.63935 Y-0.25400
G01 X-33.63752 Y0.40767
G01 X-33.62168 Y0.52222
G01 X-33.58711 Y0.63106
G01 X-33.57674 Y0.68252
G01 X-33.57207 Y0.74130
G01 X-33.57258 Y0.95430
G01 X-33.53973 Y1.00744
G01 X-33.49211 Y1.10129
G01 X-33.45845 Y1.18572
G01 X-33.44636 Y1.24651
G01 X-33.44141 Y1.29672
G01 X-33.43933 Y1.47051
G01 X-33.33862 Y1.87170
G01 X-33.51091 Y1.92171
G01 X-33.50600 Y2.20271
G01 X-33.50603 Y2.74089
G01 X-33.51322 Y2.80205
G01 X-33.52505 Y2.84104
G01 X-33.54040 Y2.87454
G01 X-33.52505 Y2.90805
G01 X-33.51322 Y2.94704
G01 X-33.49915 Y3.06873
G01 X-33.46630 Y3.16154
G01 X-33.44705 Y3.24185
G01 X-33.44067 Y3.31208
G01 X-33.43847 Y3.40393
G01 X-33.43933 Y3.86095
G01 X-33.36420 Y3.86903
G01 X-33.03951 Y3.88833
G01 X-32.85866 Y3.87551
G01 X-32.67428 Y3.87370
G01 X-32.63961 Y3.87421
G01 X-32.57304 Y3.89181
G01 X-32.43534 Y3.88021
G01 X-32.28701 Y3.87500
G01 X-32.14936 Y3.88198
G01 X-31.83758 Y3.91218
G01 X-31.50570 Y4.09189
G01 X-31.35381 Y4.01604
G01 X-31.23590 Y3.96370
G01 X-31.23692 Y3.69570
G01 X-31.24200 Y3.50891
G01 X-31.23837 Y2.94442
G01 X-31.26362 Y2.92557
G01 X-31.29404 Y2.84000
G01 X-31.30207 Y2.79961
G01 X-31.20268 Y2.59392
G01 X-31.18218 Y2.51694
G01 X-31.17339 Y2.40807
G01 X-31.17464 Y1.87409
G01 X-31.32800 Y1.79725
G01 X-31.33085 Y1.76413
G01 X-31.41033 Y1.40754
G01 X-31.43128 Y1.27871
G01 X-31.43512 Y1.23972
G01 X-31.43512 Y1.04244
G01 X-31.40994 Y0.87307
G01 X-31.41927 Y0.82639
G01 X-31.43882 Y0.65593
G01 X-31.44147 Y-0.25400
G01 X-29.57058 Y-0.25400
G01 X-29.57612 Y0.07983
G01 X-29.57396 Y0.60797
G01 X-29.56916 Y0.66667
G01 X-29.56062 Y0.70914
G01 X-29.54879 Y0.74816
G01 X-29.50731 Y0.83723
G01 X-29.50868 Y1.57320
G01 X-29.50533 Y1.85631
G01 X-29.64053 Y1.89184
G01 X-29.63972 Y2.47612
G01 X-29.64884 Y2.57647
G01 X-29.66298 Y2.63660
G01 X-29.69209 Y2.71183
G01 X-29.72577 Y2.76951
G01 X-29.77904 Y2.83454
G01 X-29.80131 Y2.92809
G01 X-29.78394 Y2.99029
G01 X-29.77449 Y3.06502
G01 X-29.77358 Y3.76331
G01 X-29.88772 Y3.80040
G01 X-30.07685 Y3.87347
G01 X-29.97845 Y4.13195
G01 X-29.87385 Y4.44127
G01 X-29.79214 Y4.64101
G01 X-29.77718 Y4.69560
G01 X-29.77337 Y4.73456
G01 X-29.77304 Y5.00774
G01 X-29.77718 Y5.05348
G01 X-29.79214 Y5.10807
G01 X-29.81330 Y5.16062
G01 X-29.82707 Y5.20786
G01 X-29.83362 Y5.24650
G01 X-29.84066 Y5.34101
G01 X-29.83583 Y6.22290
G01 X-29.83934 Y6.91866
G01 X-30.00985 Y6.92353
G01 X-30.29580 Y6.92447
G01 X-30.50705 Y6.91855
G01 X-30.50703 Y5.34114
G01 X-30.51406 Y5.24657
G01 X-30.52061 Y5.20791
G01 X-30.53428 Y5.16087
G01 X-30.55544 Y5.10809
G01 X-30.57030 Y5.05348
G01 X-30.57441 Y5.00733
G01 X-30.57317 Y4.85473
G01 X-30.56946 Y4.82526
G01 X-30.55490 Y4.77467
G01 X-30.52463 Y4.71343
G01 X-30.50088 Y4.67822
G01 X-30.50774 Y4.55729
G01 X-30.50703 Y3.87454
G01 X-30.37261 Y3.83799
G01 X-30.37507 Y3.60296
G01 X-30.37258 Y3.44559
G01 X-30.36484 Y3.32557
G01 X-30.31470 Y3.09382
G01 X-30.30753 Y3.02397
G01 X-30.31261 Y2.93586
G01 X-30.33055 Y2.84975
G01 X-30.37380 Y2.80909
G01 X-30.37380 Y1.91458
G01 X-30.27238 Y1.87455
G01 X-30.37261 Y1.47556
G01 X-30.37586 Y1.29675
G01 X-30.39021 Y1.19746
G01 X-30.40301 Y1.15514
G01 X-30.43050 Y1.09278
G01 X-30.47500 Y1.00543
G01 X-30.50703 Y0.95430
G01 X-30.50705 Y0.74130
G01 X-30.51183 Y0.68273
G01 X-30.52224 Y0.63152
G01 X-30.55122 Y0.53947
G01 X-30.56395 Y0.48176
G01 X-30.57279 Y0.40254
G01 X-30.57368 Y-0.25400
G01 X-32.70618 Y-0.25400
G01 X-32.70778 Y0.77483
G01 X-32.72107 Y0.83170
G01 X-32.79465 Y1.01079
G01 X-32.77870 Y1.07193
G01 X-32.77367 Y1.12161
G01 X-32.77601 Y1.19065
G01 X-32.78627 Y1.24239
G01 X-32.90237 Y1.59680
G01 X-32.97301 Y1.78857
G01 X-33.01335 Y1.88486
G01 X-32.64057 Y2.00741
G01 X-32.63837 Y2.27531
G01 X-32.64149 Y2.45214
G01 X-32.65543 Y2.55148
G01 X-32.69524 Y2.66482
G01 X-32.70628 Y2.74152
G01 X-32.70458 Y3.03746
G01 X-32.68723 Y3.10759
G01 X-32.65566 Y3.19756
G01 X-32.64047 Y3.29187
G01 X-32.63961 Y3.87421
G01 X-32.85866 Y3.87551
G01 X-33.03951 Y3.88833
G01 X-33.03735 Y4.07899
G01 X-33.04078 Y4.27548
G01 X-33.03745 Y4.45221
G01 X-33.02310 Y4.55155
G01 X-32.97748 Y4.69207
G01 X-32.97382 Y4.76080
G01 X-32.98825 Y4.83095
G01 X-33.06176 Y5.01071
G01 X-33.04563 Y5.07208
G01 X-33.04050 Y5.12161
G01 X-33.04273 Y5.19057
G01 X-33.05289 Y5.24228
G01 X-33.06470 Y5.28130
G01 X-33.10778 Y5.37332
G01 X-33.29371 Y5.66169
G01 X-33.41235 Y5.89046
G01 X-33.50616 Y6.10723
G01 X-33.70311 Y6.60138
G01 X-33.78396 Y6.92198
G01 X-33.70311 Y6.60138
G01 X-33.70120 Y6.22089
G01 X-33.70603 Y5.34060
G01 X-33.71301 Y5.24652
G01 X-33.72244 Y5.19745
G01 X-33.76536 Y5.06852
G01 X-33.77258 Y5.00758
G01 X-33.77258 Y4.20228
G01 X-33.76778 Y3.88026
G01 X-33.51464 Y3.86870
G01 X-33.43933 Y3.86095
G01 X-33.43847 Y3.40393
G01 X-33.44067 Y3.31208
G01 X-33.44705 Y3.24185
G01 X-33.46630 Y3.16154
G01 X-33.49915 Y3.06873
G01 X-33.51322 Y2.94704
G01 X-33.52505 Y2.90805
G01 X-33.54040 Y2.87454
G01 X-35.50011 Y2.87454
G01 X-35.51235 Y2.86309
G01 X-35.73661 Y2.84043
G01 X-36.32619 Y2.00790
G01 X-37.66111 Y2.00762
G01 X-37.86045 Y1.98707
G01 X-37.97557 Y1.96337
G01 X-38.10782 Y2.00777
G01 X-38.77422 Y2.00777
G01 X-38.95743 Y1.94671
G01 X-39.21470 Y1.84983
G01 X-39.29451 Y1.87140
G01 X-39.44094 Y1.96350
G01 X-39.80894 Y2.00370
G01 X-39.90718 Y2.00820
G01 X-40.03718 Y2.00777
G01 X-40.24043 Y2.02232
G01 X-40.44193 Y1.97780
G01 X-40.48846 Y1.98707
G01 X-40.68422 Y2.00683
G01 X-41.64025 Y2.00884
G01 X-42.27893 Y2.71625
G01 X-42.41706 Y2.87454
G01 X-42.57954 Y3.01902
G01 X-42.83949 Y2.99590
G01 X-42.83865 Y1.12118
G01 X-42.83240 Y1.08031
G01 X-42.82056 Y1.04130
G01 X-42.73766 Y0.83970
G01 X-42.79039 Y0.76904
G01 X-42.86377 Y0.62746
G01 X-42.89008 Y0.55293
G01 X-42.89895 Y0.50703
G01 X-42.90616 Y0.41085
G01 X-42.90832 Y0.08029
G01 X-42.90276 Y-0.25397
G01 X-43.57266 Y-0.25397
G01 X-43.57352 Y0.45733
G01 X-43.58079 Y0.51659
G01 X-43.60174 Y0.59388
G01 X-43.66699 Y0.73089
G01 X-43.70507 Y0.79665
G01 X-43.70570 Y1.08603
G01 X-43.65816 Y1.17480
G01 X-43.64340 Y1.22903
G01 X-43.63936 Y1.27434
G01 X-43.63794 Y1.83998
G01 X-43.64164 Y2.09852
G01 X-43.63527 Y2.63200
G01 X-43.63517 Y2.99956
G01 X-43.57055 Y3.00774
G01 X-43.56788 Y3.52915
G01 X-43.57266 Y3.98302
G01 X-43.57058 Y4.45237
G01 X-43.55622 Y4.55155
G01 X-43.53273 Y4.61990
G01 X-43.39306 Y4.89773
G01 X-43.31470 Y5.06987
G01 X-43.30799 Y5.07576
G01 X-43.30644 Y5.16059
G01 X-43.31729 Y5.28950
G01 X-43.34312 Y5.40454
G01 X-43.57827 Y6.21970
G01 X-43.77530 Y6.92450
G01 X-44.03928 Y6.92450
G01 X-44.23783 Y6.91866
G01 X-44.23433 Y6.22089
G01 X-44.24121 Y5.29674
G01 X-44.24614 Y5.24652
G01 X-44.25820 Y5.18574
G01 X-44.28747 Y5.10797
G01 X-44.30225 Y5.05343
G01 X-44.30631 Y5.00758
G01 X-44.30509 Y4.74147
G01 X-44.30916 Y4.69562
G01 X-44.31602 Y4.66443
G01 X-44.34594 Y4.58813
G01 X-44.35940 Y4.54099
G01 X-44.37238 Y4.41030
G01 X-44.37238 Y4.34068
G01 X-44.16971 Y3.93324
G01 X-44.00878 Y3.56616
G01 X-43.82153 Y3.00690
G01 X-44.24269 Y2.89179
G01 X-44.66895 Y2.87543
G01 X-45.77326 Y2.87348
G01 X-45.83862 Y2.85727
G01 X-46.18154 Y2.72948
G01 X-46.40186 Y2.65450
G01 X-48.54359 Y1.96736
G01 X-51.22296 Y1.11676
G01 X-51.41090 Y1.04762
G01 X-52.17795 Y0.78491
G01 X-53.24325 Y0.42972
G01 X-53.87762 Y-0.25397
G01 X-44.30573 Y-0.25400
G04 P0 ( dwell for no time -- G64 should not smooth over this point )
G00 Z10.00000 ( retract )

G00 X-55.50756 Y39.08793 ( rapid move to begin. )
G01 F30.00000
( Mill infeed pass 1/1 )
G01 Z-0.10000
G04 P0 ( dwell for no time -- G64 should not smooth over this point )
G01 F360.00000
G01 X-55.50756 Y39.08793
G01 X-55.52062 Y39.21757
G01 X-55.53756 Y39.31582
G01 X-55.57888 Y39.42613
G01 X-55.62516 Y39.52817
G01 X-55.69580 Y39.62631
G01 X-55.76524 Y39.71066
G01 X-55.85082 Y39.78105
G01 X-55.94789 Y39.85044
G01 X-56.03423 Y39.89045
G01 X-56.16014 Y39.93815
G01 X-56.24139 Y39.95280
G01 X-56.38800 Y39.96804
G01 X-56.45760 Y39.96268
G01 X-56.67733 Y39.93081
G01 X-56.73397 Y39.97409
G01 X-63.09718 Y46.33730
G01 X-63.12306 Y46.36734
G01 X-63.13094 Y46.43056
G01 X-63.13094 Y47.45797
G01 X-63.15271 Y47.56320
G01 X-63.25791 Y47.58499
G01 X-64.75806 Y47.58499
G01 X-64.86327 Y47.56320
G01 X-64.88504 Y47.45797
G01 X-64.88504 Y45.95787
G01 X-64.86327 Y45.85264
G01 X-64.75806 Y45.83085
G01 X-63.73063 Y45.83085
G01 X-63.66741 Y45.82300
G01 X-63.63736 Y45.79711
G01 X-57.27416 Y39.43391
G01 X-57.23095 Y39.37739
G01 X-57.26110 Y39.17259
G01 X-57.26831 Y39.08793
G01 X-57.25688 Y38.96916
G01 X-57.23837 Y38.86004
G01 X-57.19018 Y38.73325
G01 X-57.15084 Y38.64765
G01 X-57.09826 Y38.57330
G01 X-57.01053 Y38.46538
G01 X-56.91812 Y38.38933
G01 X-56.82806 Y38.32540
G01 X-56.70410 Y38.26977
G01 X-56.61599 Y38.23713
G01 X-56.45287 Y38.21262
G01 X-56.38797 Y38.20749
G01 X-56.35412 Y38.20973
G01 X-56.26849 Y38.21910
G01 X-56.16009 Y38.23752
G01 X-56.03265 Y38.28600
G01 X-55.94769 Y38.32504
G01 X-55.87279 Y38.37805
G01 X-55.76545 Y38.46538
G01 X-55.68894 Y38.55839
G01 X-55.62547 Y38.64783
G01 X-55.56954 Y38.77252
G01 X-55.53720 Y38.85992
G01 X-55.52166 Y38.95062
G01 X-55.50756 Y39.08793
G04 P0 ( dwell for no time -- G64 should not smooth over this point )
G00 Z10.00000 ( retract )

G00 X-27.56756 Y41.62793 ( rapid move to begin. )
G01 F30.00000
( Mill infeed pass 1/1 )
G01 Z-0.10000
G04 P0 ( dwell for no time -- G64 should not smooth over this point )
G01 F360.00000
G01 X-27.56756 Y41.62793
G01 X-27.57927 Y41.74813
G01 X-27.59758 Y41.85582
G01 X-27.64638 Y41.98396
G01 X-27.68514 Y42.06819
G01 X-27.73858 Y42.14371
G01 X-27.82547 Y42.25044
G01 X-27.91902 Y42.32740
G01 X-28.00789 Y42.39044
G01 X-28.13324 Y42.44663
G01 X-28.21998 Y42.47868
G01 X-28.31142 Y42.49433
G01 X-28.44797 Y42.50832
G01 X-28.55651 Y42.49816
G01 X-28.67589 Y42.47833
G01 X-28.80467 Y42.42923
G01 X-28.88826 Y42.39077
G01 X-28.96199 Y42.33865
G01 X-29.07053 Y42.25046
G01 X-29.14612 Y42.15862
G01 X-29.21048 Y42.06799
G01 X-29.26585 Y41.94470
G01 X-29.29875 Y41.85590
G01 X-29.31409 Y41.76664
G01 X-29.32841 Y41.62793
G01 X-29.31688 Y41.50916
G01 X-29.29837 Y41.40004
G01 X-29.25018 Y41.27325
G01 X-29.21084 Y41.18765
G01 X-29.15826 Y41.11330
G01 X-29.07053 Y41.00538
G01 X-28.97812 Y40.92933
G01 X-28.88805 Y40.86540
G01 X-28.76410 Y40.80977
G01 X-28.67599 Y40.77713
G01 X-28.58595 Y40.76169
G01 X-28.44797 Y40.74749
G01 X-28.32849 Y40.75910
G01 X-28.22009 Y40.77752
G01 X-28.09265 Y40.82600
G01 X-28.00769 Y40.86504
G01 X-27.93279 Y40.91805
G01 X-27.82545 Y41.00538
G01 X-27.74894 Y41.09839
G01 X-27.68547 Y41.18783
G01 X-27.62954 Y41.31252
G01 X-27.59720 Y41.39992
G01 X-27.58166 Y41.49062
G01 X-27.56756 Y41.62793
G04 P0 ( dwell for no time -- G64 should not smooth over this point )
G00 Z10.00000 ( retract )

G00 X-7.25091 Y43.41785 ( rapid move to begin. )
G01 F30.00000
( Mill infeed pass 1/1 )
G01 Z-0.10000
G04 P0 ( dwell for no time -- G64 should not smooth over this point )
G01 F360.00000
G01 X-7.25091 Y43.41785
G01 X-7.25091 Y44.91799
G01 X-7.27271 Y45.02318
G01 X-7.37794 Y45.04497
G01 X-8.87806 Y45.04497
G01 X-8.98327 Y45.02320
G01 X-9.00506 Y44.91799
G01 X-9.00506 Y43.41785
G01 X-8.98327 Y43.31264
G01 X-8.87806 Y43.29087
G01 X-7.37794 Y43.29087
G01 X-7.27271 Y43.31266
G01 X-7.25091 Y43.41785
G04 P0 ( dwell for no time -- G64 should not smooth over this point )
G00 Z10.00000 ( retract )

G00 X-7.24756 Y41.62791 ( rapid move to begin. )
G01 F30.00000
( Mill infeed pass 1/1 )
G01 Z-0.10000
G04 P0 ( dwell for no time -- G64 should not smooth over this point )
G01 F360.00000
G01 X-7.24756 Y41.62791
G01 X-7.25927 Y41.74813
G01 X-7.27758 Y41.85580
G01 X-7.32638 Y41.98396
G01 X-7.36514 Y42.06819
G01 X-7.41858 Y42.14371
G01 X-7.50547 Y42.25044
G01 X-7.59902 Y42.32740
G01 X-7.68789 Y42.39044
G01 X-7.81324 Y42.44663
G01 X-7.89998 Y42.47868
G01 X-7.99142 Y42.49433
G01 X-8.12797 Y42.50832
G01 X-8.23651 Y42.49816
G01 X-8.35589 Y42.47833
G01 X-8.48467 Y42.42923
G01 X-8.56826 Y42.39077
G01 X-8.64199 Y42.33865
G01 X-8.75053 Y42.25046
G01 X-8.82612 Y42.15862
G01 X-8.89048 Y42.06799
G01 X-8.94585 Y41.94470
G01 X-8.97875 Y41.85590
G01 X-8.99409 Y41.76664
G01 X-9.00841 Y41.62793
G01 X-8.99688 Y41.50916
G01 X-8.97837 Y41.40004
G01 X-8.93018 Y41.27325
G01 X-8.89084 Y41.18765
G01 X-8.83826 Y41.11330
G01 X-8.75053 Y41.00538
G01 X-8.65812 Y40.92933
G01 X-8.56806 Y40.86540
G01 X-8.44410 Y40.80977
G01 X-8.35599 Y40.77713
G01 X-8.26595 Y40.76169
G01 X-8.12797 Y40.74749
G01 X-8.00849 Y40.75910
G01 X-7.90009 Y40.77752
G01 X-7.77265 Y40.82600
G01 X-7.68769 Y40.86504
G01 X-7.61279 Y40.91805
G01 X-7.50545 Y41.00538
G01 X-7.42894 Y41.09839
G01 X-7.36547 Y41.18783
G01 X-7.30954 Y41.31252
G01 X-7.27720 Y41.39994
G01 X-7.26166 Y41.49062
G01 X-7.24756 Y41.62791

G04 P0 ( dwell for no time -- G64 should not smooth over this point )
G00 Z50.000000 ( retract )

M5 ( Spindle off. )
G04 P1.000000
M9 ( Coolant off. )
M2 ( Program end. )

