( pcb2gcode 1.3.2 )
( Software-independent Gcode )

G94 ( Millimeters per minute feed rate. )
G21 ( Units == Millimeters. )

G90 ( Absolute coordinates. )
G00 S10000 ( RPM spindle speed. )
G01 F360.00000 ( Feedrate. )

G01 F360.00000 ( Feedrate. )
M3 ( Spindle on clockwise. )
G04 P1.00000
G04 P0 ( dwell for no time -- G64 should not smooth over this point )
G00 Z10.00000 ( retract )

G00 X-18.85602 Y0.05080 ( rapid move to begin. )
G01 F30.00000
G01 Z-0.10000
G04 P0 ( dwell for no time -- G64 should not smooth over this point )
G01 F360.00000
G01 X-18.85602 Y0.05080
G01 X-27.49436 Y0.05080
G01 X-27.60942 Y0.23465
G01 X-23.03958 Y1.54732
G01 X-20.37794 Y1.55054
G01 X-20.94824 Y2.14805
G01 X-0.05080 Y8.15073
G01 X-21.23943 Y2.43937
G01 X-20.94824 Y2.14805
G01 X-22.43922 Y1.71976
G01 X-20.37794 Y1.55054
G04 P0 ( dwell for no time -- G64 should not smooth over this point )
G00 Z10.00000 ( retract )

G00 X-22.38731 Y3.54830 ( rapid move to begin. )
G01 F30.00000
G01 Z-0.10000
G04 P0 ( dwell for no time -- G64 should not smooth over this point )
G01 F360.00000
G01 X-22.38731 Y3.54830
G01 X-22.34903 Y3.51236
G01 X-0.05080 Y8.15073
G01 X-21.54392 Y2.74386
G01 X-21.23943 Y2.43937
G01 X-23.56592 Y1.81229
G01 X-22.43922 Y1.71976
G01 X-23.03958 Y1.54732
G01 X-24.54707 Y1.54783
G01 X-23.56592 Y1.81229
G01 X-24.83345 Y1.91635
G01 X-21.54392 Y2.74386
G01 X-21.82757 Y3.02280
G01 X-0.05080 Y8.15073
G01 X-22.19660 Y3.36926
G01 X-21.82757 Y3.02280
G01 X-26.08867 Y2.01940
G01 X-24.83345 Y1.91635
G01 X-26.28971 Y1.55001
G01 X-24.54707 Y1.54783
G01 X-27.71831 Y0.69301
G01 X-27.71094 Y0.48903
G01 X-27.60942 Y0.23465
G01 X-28.24955 Y0.05080
G01 X-28.25659 Y0.24923
G01 X-28.28267 Y0.29233
G01 X-28.44927 Y0.41529
G01 X-28.45026 Y0.49573
G01 X-27.71831 Y0.69301
G01 X-27.75748 Y0.83195
G01 X-27.91531 Y1.14107
G01 X-26.28971 Y1.55001
G01 X-27.02895 Y1.55039
G01 X-27.31712 Y1.58006
G01 X-27.78440 Y1.52034
G01 X-27.78313 Y1.62039
G01 X-26.08867 Y2.01940
G01 X-27.74793 Y2.15565
G01 X-27.73942 Y2.17254
G01 X-22.19660 Y3.36926
G01 X-22.34903 Y3.51236
G01 X-27.67965 Y2.40353
G01 X-27.65725 Y2.35006
G01 X-27.73942 Y2.17254
G01 X-28.58318 Y1.99034
G01 X-28.56205 Y2.16009
G01 X-28.57332 Y2.21762
G01 X-27.67965 Y2.40353
G01 X-27.71059 Y2.48925
G01 X-27.72052 Y2.59184
G01 X-22.96442 Y3.54736
G01 X-22.38731 Y3.54830
G01 X-22.47443 Y3.64579
G01 X-0.05080 Y8.15073
G01 X-22.55713 Y3.73692
G01 X-22.47443 Y3.64579
G01 X-22.96442 Y3.54736
G01 X-23.52838 Y3.54645
G01 X-22.55713 Y3.73692
G01 X-22.61540 Y3.79816
G01 X-0.05080 Y8.15073
G01 X-22.72703 Y3.91549
G01 X-22.61540 Y3.79816
G01 X-23.92378 Y3.54579
G01 X-23.52838 Y3.54645
G01 X-27.76253 Y2.71607
G01 X-27.72052 Y2.59184
G01 X-28.57071 Y2.42105
G01 X-28.53660 Y2.56426
G01 X-27.76253 Y2.71607
G01 X-27.79687 Y2.79870
G01 X-23.92378 Y3.54579
G01 X-24.69055 Y3.54876
G01 X-22.72703 Y3.91549
G01 X-22.97234 Y4.17228
G01 X-0.05080 Y8.15073
G01 X-23.36668 Y4.56662
G01 X-22.97234 Y4.17228
G01 X-26.55326 Y3.55074
G01 X-24.69055 Y3.54876
G01 X-27.85364 Y2.95801
G01 X-27.79687 Y2.79870
G01 X-28.49278 Y2.66449
G01 X-28.45191 Y2.84627
G01 X-27.85364 Y2.95801
G01 X-27.97487 Y3.30401
G01 X-26.55326 Y3.55074
G01 X-27.44826 Y3.55067
G01 X-27.78369 Y3.52077
G01 X-27.78493 Y3.88744
G01 X-23.36668 Y4.56662
G01 X-23.60663 Y4.80657
G01 X-0.05080 Y8.15073
G01 X-23.72909 Y4.92902
G01 X-23.60663 Y4.80657
G01 X-27.71468 Y4.22336
G01 X-27.62755 Y4.39859
G01 X-23.72909 Y4.92902
G01 X-23.77996 Y4.97853
G01 X-0.05080 Y8.15073
G01 X-27.59078 Y4.46908
G01 X-23.78039 Y4.97891
G01 X-24.07679 Y5.25915
G01 X-0.05080 Y8.15073
G01 X-24.31199 Y5.46082
G01 X-24.07679 Y5.25915
G01 X-27.53106 Y4.84342
G01 X-27.51996 Y4.61935
G01 X-27.59052 Y4.46964
G01 X-28.51709 Y4.34523
G01 X-27.59078 Y4.46908
G01 X-27.62755 Y4.39859
G01 X-28.51727 Y4.27756
G01 X-28.51709 Y4.34523
G01 X-29.32107 Y4.23776
G01 X-28.51711 Y4.34579
G01 X-28.51358 Y4.59628
G01 X-28.46906 Y4.73055
G01 X-27.53106 Y4.84342
G01 X-27.59761 Y5.09654
G01 X-24.31199 Y5.46082
G01 X-24.65309 Y5.72039
G01 X-0.05080 Y8.15073
G01 X-24.89634 Y5.89587
G01 X-24.65309 Y5.72039
G01 X-27.69103 Y5.42026
G01 X-27.59761 Y5.09654
G01 X-28.45039 Y5.00200
G01 X-28.46906 Y4.73055
G01 X-29.32869 Y4.62707
G01 X-29.32095 Y4.23835
G01 X-30.04977 Y4.14091
G01 X-30.04358 Y4.22112
G01 X-30.08475 Y4.28831
G01 X-30.11419 Y4.38429
G01 X-30.11637 Y4.53227
G01 X-29.32869 Y4.62707
G01 X-29.36811 Y4.74340
G01 X-29.38435 Y4.89844
G01 X-28.45039 Y5.00200
G01 X-28.44960 Y5.34533
G01 X-27.69103 Y5.42026
G01 X-27.75135 Y5.63677
G01 X-24.89634 Y5.89587
G01 X-24.91918 Y5.90923
G01 X-27.75618 Y5.65353
G01 X-27.75135 Y5.63677
G01 X-28.45130 Y5.57324
G01 X-28.44960 Y5.34533
G01 X-29.38511 Y5.25292
G01 X-29.38310 Y5.48869
G01 X-27.75618 Y5.65353
G01 X-27.98953 Y6.46623
G04 P0 ( dwell for no time -- G64 should not smooth over this point )
G00 Z10.00000 ( retract )

G00 X-27.78369 Y3.52077 ( rapid move to begin. )
G01 F30.00000
G01 Z-0.10000
G04 P0 ( dwell for no time -- G64 should not smooth over this point )
G01 F360.00000
G01 X-27.78369 Y3.52077
G01 X-28.02166 Y3.41805
G01 X-27.97487 Y3.30401
G01 X-28.45013 Y3.22151
G01 X-28.44998 Y3.35824
G01 X-28.34945 Y3.41396
G01 X-28.02166 Y3.41805
G04 P0 ( dwell for no time -- G64 should not smooth over this point )
G00 Z10.00000 ( retract )

G00 X-28.34945 Y3.41396 ( rapid move to begin. )
G01 F30.00000
G01 Z-0.10000
G04 P0 ( dwell for no time -- G64 should not smooth over this point )
G01 F360.00000
G01 X-28.34945 Y3.41396
G01 X-28.52814 Y3.77322
G01 X-27.78493 Y3.88744
G01 X-27.77409 Y4.06499
G01 X-27.71468 Y4.22336
G01 X-28.55153 Y4.10454
G01 X-28.51727 Y4.27756
G01 X-28.56464 Y4.10268
G01 X-28.55153 Y4.10454
G01 X-28.58226 Y3.94950
G01 X-28.56464 Y4.10268
G01 X-29.41752 Y3.98160
G01 X-29.32107 Y4.23776
G01 X-31.06722 Y4.00492
G01 X-31.04957 Y3.96565
G01 X-31.04957 Y3.74990
G01 X-29.41752 Y3.98160
G01 X-29.54203 Y3.61737
G01 X-28.52814 Y3.77322
G01 X-28.58460 Y3.88536
G01 X-28.58226 Y3.94950
G04 P0 ( dwell for no time -- G64 should not smooth over this point )
G00 Z10.00000 ( retract )

G00 X-30.04983 Y4.14035 ( rapid move to begin. )
G01 F30.00000
G01 Z-0.10000
G04 P0 ( dwell for no time -- G64 should not smooth over this point )
G01 F360.00000
G01 X-30.04983 Y4.14035
G01 X-30.04878 Y3.53946
G01 X-29.54203 Y3.61737
G01 X-29.62209 Y3.41721
G04 P0 ( dwell for no time -- G64 should not smooth over this point )
G00 Z10.00000 ( retract )

G00 X-29.91660 Y3.38138 ( rapid move to begin. )
G01 F30.00000
G01 Z-0.10000
G04 P0 ( dwell for no time -- G64 should not smooth over this point )
G01 F360.00000
G01 X-29.91660 Y3.38138
G01 X-29.62209 Y3.41721
G01 X-29.31343 Y3.30512
G01 X-29.31810 Y3.07086
G01 X-28.45013 Y3.22151
G01 X-28.45016 Y2.94787
G01 X-28.45191 Y2.84627
G01 X-29.31737 Y2.68463
G01 X-29.32191 Y2.55715
G01 X-29.34452 Y2.47183
G01 X-29.32961 Y2.40873
G01 X-29.91660 Y2.29362
G01 X-29.91660 Y2.15067
G01 X-29.94868 Y1.93154
G01 X-29.91675 Y1.93817
G01 X-29.91460 Y1.70289
G01 X-29.98437 Y1.68783
G01 X-29.94868 Y1.93154
G01 X-30.71614 Y1.77190
G01 X-30.71668 Y1.52972
G01 X-29.98437 Y1.68783
G01 X-30.01673 Y1.46703
G01 X-29.91813 Y1.45806
G04 P0 ( dwell for no time -- G64 should not smooth over this point )
G00 Z10.00000 ( retract )

G00 X-28.24955 Y0.05080 ( rapid move to begin. )
G01 F30.00000
G01 Z-0.10000
G04 P0 ( dwell for no time -- G64 should not smooth over this point )
G01 F360.00000
G01 X-28.24955 Y0.05080
G01 X-29.11615 Y0.05080
G01 X-29.11318 Y0.20317
G01 X-29.07779 Y0.32657
G01 X-30.10093 Y0.05080
G01 X-30.05463 Y0.22553
G01 X-30.04985 Y0.49703
G01 X-29.98127 Y0.62136
G01 X-29.05008 Y0.85560
G01 X-29.05008 Y1.32207
G01 X-28.53914 Y1.44236
G01 X-28.58155 Y1.45372
G01 X-28.58318 Y1.99034
G01 X-29.18379 Y1.86068
G01 X-29.18785 Y2.08981
G01 X-28.57332 Y2.21762
G01 X-28.58295 Y2.31381
G01 X-28.57071 Y2.42105
G01 X-29.25214 Y2.28415
G01 X-29.21213 Y2.19664
G01 X-29.18785 Y2.08981
G01 X-29.91675 Y1.93817
G01 X-29.91660 Y2.15067
G01 X-29.25214 Y2.28415
G01 X-29.32229 Y2.37764
G01 X-29.32961 Y2.40873
G01 X-28.53690 Y2.56421
G01 X-28.49278 Y2.66449
G01 X-28.53789 Y2.56136
G04 P0 ( dwell for no time -- G64 should not smooth over this point )
G00 Z10.00000 ( retract )

G00 X-27.74793 Y2.15565 ( rapid move to begin. )
G01 F30.00000
G01 Z-0.10000
G04 P0 ( dwell for no time -- G64 should not smooth over this point )
G01 F360.00000
G01 X-27.74793 Y2.15565
G01 X-27.78026 Y2.01826
G01 X-27.78313 Y1.62039
G01 X-28.53914 Y1.44236
G01 X-28.44797 Y1.41671
G01 X-28.02816 Y1.41549
G01 X-27.78440 Y1.52034
G04 P0 ( dwell for no time -- G64 should not smooth over this point )
G00 Z10.00000 ( retract )

G00 X-28.02816 Y1.41549 ( rapid move to begin. )
G01 F30.00000
G01 Z-0.10000
G04 P0 ( dwell for no time -- G64 should not smooth over this point )
G01 F360.00000
G01 X-28.02816 Y1.41549
G01 X-27.98270 Y1.27323
G01 X-27.91531 Y1.14107
G01 X-28.44942 Y1.00670
G01 X-28.45026 Y0.49573
G01 X-29.07779 Y0.32657
G01 X-29.04983 Y0.38113
G01 X-29.05008 Y0.85560
G01 X-28.44942 Y1.00670
G01 X-28.44797 Y1.41671
G04 P0 ( dwell for no time -- G64 should not smooth over this point )
G00 Z10.00000 ( retract )

G00 X-28.58155 Y1.45372 ( rapid move to begin. )
G01 F30.00000
G01 Z-0.10000
G04 P0 ( dwell for no time -- G64 should not smooth over this point )
G01 F360.00000
G01 X-28.58155 Y1.45372
G01 X-29.05008 Y1.39929
G01 X-29.05008 Y1.32207
G01 X-29.88879 Y1.12456
G01 X-29.81703 Y1.41740
G01 X-29.45483 Y1.41704
G01 X-29.18353 Y1.43472
G01 X-29.18379 Y1.86068
G01 X-29.91460 Y1.70289
G01 X-29.91813 Y1.45806
G01 X-29.81703 Y1.41740
G04 P0 ( dwell for no time -- G64 should not smooth over this point )
G00 Z10.00000 ( retract )

G00 X-30.01673 Y1.46703 ( rapid move to begin. )
G01 F30.00000
G01 Z-0.10000
G04 P0 ( dwell for no time -- G64 should not smooth over this point )
G01 F360.00000
G01 X-30.01673 Y1.46703
G01 X-30.34038 Y1.48001
G01 X-30.71706 Y1.41765
G01 X-30.71668 Y1.52972
G01 X-31.09389 Y1.44828
G01 X-30.87070 Y1.34018
G01 X-30.71706 Y1.41765
G04 P0 ( dwell for no time -- G64 should not smooth over this point )
G00 Z10.00000 ( retract )

G00 X-30.87070 Y1.34018 ( rapid move to begin. )
G01 F30.00000
G01 Z-0.10000
G04 P0 ( dwell for no time -- G64 should not smooth over this point )
G01 F360.00000
G01 X-30.87070 Y1.34018
G01 X-30.96544 Y0.87104
G01 X-29.88879 Y1.12456
G01 X-29.91696 Y1.01681
G01 X-29.92727 Y0.76728
G01 X-29.98127 Y0.62136
G01 X-30.96075 Y0.37496
G01 X-30.98241 Y0.05080
G01 X-30.10093 Y0.05080
G04 P0 ( dwell for no time -- G64 should not smooth over this point )
G00 Z10.00000 ( retract )

G00 X-31.44683 Y1.57307 ( rapid move to begin. )
G01 F30.00000
G01 Z-0.10000
G04 P0 ( dwell for no time -- G64 should not smooth over this point )
G01 F360.00000
G01 X-31.44683 Y1.57307
G01 X-31.78371 Y1.54983
G01 X-31.44769 Y1.61973
G01 X-31.44159 Y1.99454
G01 X-32.18208 Y1.84932
G01 X-32.18906 Y2.04188
G01 X-32.21401 Y2.14363
G01 X-31.35252 Y2.30452
G01 X-31.44159 Y1.99454
G01 X-30.74251 Y2.13164
G01 X-30.84479 Y2.34221
G01 X-30.83171 Y2.40177
G01 X-31.35252 Y2.30452
G01 X-31.31576 Y2.38112
G01 X-31.31693 Y2.58346
G01 X-31.34213 Y2.71955
G01 X-30.78173 Y2.81683
G01 X-30.78114 Y2.48773
G01 X-30.80634 Y2.46906
G01 X-30.83171 Y2.40177
G01 X-29.85165 Y2.58483
G01 X-29.91427 Y2.96738
G01 X-30.78173 Y2.81683
G01 X-30.78287 Y3.42661
G01 X-31.38269 Y3.33441
G01 X-31.38269 Y3.45435
G01 X-31.71596 Y3.42356
G01 X-32.11581 Y3.43461
G01 X-32.18117 Y3.41765
G01 X-32.46371 Y3.41963
G01 X-32.58231 Y3.43065
G01 X-32.58162 Y3.53240
G01 X-33.31307 Y3.42857
G01 X-33.31421 Y3.70459
G01 X-32.58309 Y3.80230
G01 X-32.57408 Y4.05943
G01 X-32.51954 Y4.24304
G01 X-33.31540 Y4.14729
G01 X-33.31492 Y4.04289
G01 X-33.31540 Y4.46260
G01 X-32.60067 Y4.54185
G01 X-32.52574 Y4.35625
G01 X-32.51954 Y4.24304
G01 X-31.21360 Y4.40022
G01 X-31.24650 Y4.69199
G01 X-32.60067 Y4.54185
G01 X-32.58513 Y4.72613
G01 X-32.60476 Y4.81576
G01 X-32.65907 Y4.92951
G01 X-31.19280 Y5.07434
G01 X-31.24147 Y4.82044
G01 X-31.24650 Y4.69199
G01 X-30.05338 Y4.82427
G01 X-30.11637 Y4.53227
G01 X-31.21360 Y4.40022
G01 X-31.06722 Y4.00492
G01 X-32.58309 Y3.80230
G01 X-32.58162 Y3.53240
G01 X-31.04957 Y3.74990
G01 X-31.04957 Y3.63494
G01 X-31.38269 Y3.45435
G04 P0 ( dwell for no time -- G64 should not smooth over this point )
G00 Z10.00000 ( retract )

G00 X-31.04957 Y3.63494 ( rapid move to begin. )
G01 F30.00000
G01 Z-0.10000
G04 P0 ( dwell for no time -- G64 should not smooth over this point )
G01 F360.00000
G01 X-31.04957 Y3.63494
G01 X-30.78287 Y3.50812
G01 X-30.78287 Y3.42661
G01 X-30.04878 Y3.53946
G01 X-30.04975 Y3.41727
G01 X-29.91660 Y3.38138
G01 X-29.91427 Y2.96738
G01 X-29.31810 Y3.07086
G01 X-29.31737 Y2.68463
G01 X-29.85165 Y2.58483
G01 X-29.86494 Y2.42517
G01 X-29.87241 Y2.39469
G01 X-29.91660 Y2.35186
G01 X-29.91660 Y2.29362
G01 X-30.74251 Y2.13164
G01 X-30.71838 Y2.01267
G01 X-30.71614 Y1.77190
G01 X-31.44769 Y1.61973
G01 X-31.44683 Y1.57307
G01 X-31.09389 Y1.44828
G01 X-32.45107 Y1.15524
G01 X-32.32506 Y0.76777
G01 X-32.31609 Y0.68382
G01 X-32.33618 Y0.54826
G01 X-30.96544 Y0.87104
G01 X-30.98132 Y0.72591
G01 X-30.97710 Y0.56825
G01 X-30.95272 Y0.41712
G01 X-30.96075 Y0.37496
G01 X-32.24939 Y0.05080
G01 X-32.25058 Y0.31763
G01 X-32.33618 Y0.54826
G01 X-33.11550 Y0.36474
G01 X-33.12043 Y0.22449
G01 X-33.16671 Y0.05080
G01 X-32.24939 Y0.05080
G01 X-32.24908 Y0.25390
G04 P0 ( dwell for no time -- G64 should not smooth over this point )
G00 Z10.00000 ( retract )

G00 X-33.16671 Y0.05080 ( rapid move to begin. )
G01 F30.00000
G01 Z-0.10000
G04 P0 ( dwell for no time -- G64 should not smooth over this point )
G01 F360.00000
G01 X-33.16671 Y0.05080
G01 X-33.69884 Y0.05080
G01 X-33.64009 Y0.24122
G01 X-34.44880 Y0.05080
G01 X-34.44311 Y0.22060
G01 X-34.54773 Y0.41687
G01 X-34.89129 Y0.62837
G01 X-33.71350 Y0.88268
G01 X-33.68525 Y0.72967
G01 X-33.58253 Y0.45367
G01 X-33.58233 Y0.39469
G01 X-33.64009 Y0.24122
G01 X-33.11550 Y0.36474
G01 X-33.11550 Y0.49710
G01 X-33.01472 Y0.68725
G01 X-32.99231 Y0.76744
G01 X-32.97547 Y1.04204
G01 X-33.71350 Y0.88268
G01 X-33.71360 Y1.07600
G01 X-33.72787 Y1.14541
G01 X-32.90926 Y1.31569
G01 X-32.88340 Y1.41422
G01 X-32.65109 Y1.44097
G01 X-32.55884 Y1.42705
G01 X-32.54403 Y1.39167
G01 X-32.90926 Y1.31569
G01 X-32.97547 Y1.04204
G01 X-32.45107 Y1.15524
G01 X-32.54403 Y1.39167
G01 X-31.78371 Y1.54983
G01 X-32.18193 Y1.55057
G01 X-32.18208 Y1.84932
G01 X-32.27258 Y1.83157
G01 X-32.21401 Y2.14363
G01 X-32.24878 Y2.27752
G01 X-32.24825 Y2.56228
G01 X-33.08226 Y2.41755
G01 X-32.98741 Y2.80060
G01 X-32.98279 Y3.08844
G01 X-32.18454 Y3.21114
G01 X-32.18449 Y2.83959
G01 X-32.24825 Y2.56228
G01 X-31.34213 Y2.71955
G01 X-31.37847 Y2.92715
G01 X-31.38269 Y3.33441
G01 X-32.18454 Y3.21114
G01 X-32.18117 Y3.41765
G04 P0 ( dwell for no time -- G64 should not smooth over this point )
G00 Z10.00000 ( retract )

G00 X-32.58231 Y3.43065 ( rapid move to begin. )
G01 F30.00000
G01 Z-0.10000
G04 P0 ( dwell for no time -- G64 should not smooth over this point )
G01 F360.00000
G01 X-32.58231 Y3.43065
G01 X-32.98175 Y3.40408
G01 X-32.98279 Y3.08844
G01 X-34.61581 Y2.83741
G01 X-34.18050 Y3.17581
G01 X-33.85236 Y3.32522
G01 X-33.65231 Y3.38041
G01 X-33.31307 Y3.42857
G01 X-32.98175 Y3.40408
G04 P0 ( dwell for no time -- G64 should not smooth over this point )
G00 Z10.00000 ( retract )

G00 X-33.31469 Y3.99054 ( rapid move to begin. )
G01 F30.00000
G01 Z-0.10000
G04 P0 ( dwell for no time -- G64 should not smooth over this point )
G01 F360.00000
G01 X-33.31469 Y3.99054
G01 X-33.31492 Y4.04289
G01 X-33.31421 Y3.70459
G01 X-34.18192 Y3.58861
G01 X-34.17636 Y4.03522
G01 X-34.11741 Y4.25100
G01 X-34.11540 Y4.37391
G01 X-33.31540 Y4.46260
G01 X-33.31124 Y4.59610
G01 X-33.26458 Y4.74038
G01 X-33.24926 Y4.87119
G01 X-34.11479 Y4.78569
G01 X-34.11540 Y4.37391
G01 X-34.88367 Y4.28874
G01 X-34.84265 Y4.22087
G01 X-34.84839 Y3.49951
G01 X-34.18192 Y3.58861
G01 X-34.18108 Y3.30533
G01 X-33.39729 Y3.41661
G04 P0 ( dwell for no time -- G64 should not smooth over this point )
G00 Z10.00000 ( retract )

G00 X-33.39694 Y3.41666 ( rapid move to begin. )
G01 F30.00000
G01 Z-0.10000
G04 P0 ( dwell for no time -- G64 should not smooth over this point )
G01 F360.00000
G01 X-33.39694 Y3.41666
G01 X-33.31309 Y3.42410
G04 P0 ( dwell for no time -- G64 should not smooth over this point )
G00 Z10.00000 ( retract )

G00 X-32.18193 Y1.55057 ( rapid move to begin. )
G01 F30.00000
G01 Z-0.10000
G04 P0 ( dwell for no time -- G64 should not smooth over this point )
G01 F360.00000
G01 X-32.18193 Y1.55057
G01 X-32.33491 Y1.49977
G01 X-32.27258 Y1.83157
G01 X-35.74080 Y1.15141
G01 X-35.22518 Y0.83396
G01 X-33.72787 Y1.14541
G01 X-33.79455 Y1.48364
G01 X-33.18927 Y1.47787
G01 X-33.05162 Y1.46472
G01 X-32.88340 Y1.41422
G04 P0 ( dwell for no time -- G64 should not smooth over this point )
G00 Z10.00000 ( retract )

G00 X-33.08226 Y2.41755 ( rapid move to begin. )
G01 F30.00000
G01 Z-0.10000
G04 P0 ( dwell for no time -- G64 should not smooth over this point )
G01 F360.00000
G01 X-33.08226 Y2.41755
G01 X-35.04613 Y2.41432
G01 X-34.85048 Y2.62849
G01 X-34.61581 Y2.83741
G01 X-34.85147 Y2.80119
G01 X-34.85048 Y2.62849
G04 P0 ( dwell for no time -- G64 should not smooth over this point )
G00 Z10.00000 ( retract )

G00 X-37.56650 Y0.05080 ( rapid move to begin. )
G01 F30.00000
G01 Z-0.10000
G04 P0 ( dwell for no time -- G64 should not smooth over this point )
G01 F360.00000
G01 X-37.56650 Y0.05080
G01 X-38.32558 Y0.05080
G01 X-38.36525 Y0.18077
G01 X-37.45779 Y0.36954
G01 X-37.46724 Y0.55065
G01 X-37.45078 Y0.81605
G01 X-38.54016 Y0.60241
G01 X-38.50764 Y0.55113
G01 X-38.47089 Y0.41595
G01 X-38.36525 Y0.18077
G01 X-38.99017 Y0.05080
G01 X-39.02591 Y0.24580
G01 X-39.12504 Y0.48771
G01 X-38.54016 Y0.60241
G01 X-38.67282 Y0.92146
G01 X-38.76035 Y1.39187
G01 X-38.31590 Y1.55080
G01 X-37.65009 Y1.55072
G04 P0 ( dwell for no time -- G64 should not smooth over this point )
G00 Z10.00000 ( retract )

G00 X-38.83802 Y1.41361 ( rapid move to begin. )
G01 F30.00000
G01 Z-0.10000
G04 P0 ( dwell for no time -- G64 should not smooth over this point )
G01 F360.00000
G01 X-38.83802 Y1.41361
G01 X-39.17008 Y0.76830
G01 X-39.18191 Y0.65563
G01 X-39.12504 Y0.48771
G01 X-40.02656 Y0.31092
G01 X-39.94363 Y0.13129
G01 X-39.92377 Y0.05080
G01 X-38.99017 Y0.05080
G04 P0 ( dwell for no time -- G64 should not smooth over this point )
G00 Z10.00000 ( retract )

G00 X-39.92377 Y0.05080 ( rapid move to begin. )
G01 F30.00000
G01 Z-0.10000
G04 P0 ( dwell for no time -- G64 should not smooth over this point )
G01 F360.00000
G01 X-39.92377 Y0.05080
G01 X-40.78252 Y0.05080
G01 X-40.78331 Y0.16251
G01 X-41.35298 Y0.05080
G01 X-41.39326 Y0.17026
G01 X-41.45603 Y0.27958
G01 X-41.69247 Y0.53137
G01 X-41.38171 Y1.15214
G01 X-41.18277 Y1.49946
G04 P0 ( dwell for no time -- G64 should not smooth over this point )
G00 Z10.00000 ( retract )

G00 X-41.18277 Y1.55148 ( rapid move to begin. )
G01 F30.00000
G01 Z-0.10000
G04 P0 ( dwell for no time -- G64 should not smooth over this point )
G01 F360.00000
G01 X-41.18277 Y1.55148
G01 X-41.40233 Y1.79421
G01 X-39.78923 Y2.04216
G01 X-39.81036 Y2.13126
G01 X-39.98943 Y2.54409
G01 X-39.89078 Y2.67020
G01 X-39.86347 Y2.73299
G01 X-39.84953 Y2.83106
G04 P0 ( dwell for no time -- G64 should not smooth over this point )
G00 Z10.00000 ( retract )

G00 X-39.24988 Y3.59484 ( rapid move to begin. )
G01 F30.00000
G01 Z-0.10000
G04 P0 ( dwell for no time -- G64 should not smooth over this point )
G01 F360.00000
G01 X-39.24988 Y3.59484
G01 X-38.64044 Y3.40314
G01 X-38.59616 Y2.99857
G01 X-39.84953 Y2.83106
G01 X-39.84973 Y3.55077
G01 X-39.58336 Y3.55143
G01 X-39.24988 Y3.59484
G01 X-39.24153 Y3.96217
G01 X-39.16566 Y4.28673
G01 X-39.77983 Y4.22608
G01 X-39.71658 Y4.39453
G01 X-39.71658 Y4.45402
G01 X-39.76718 Y4.57093
G01 X-40.64965 Y4.49138
G01 X-40.64546 Y4.23852
G01 X-40.61455 Y4.14363
G01 X-39.77983 Y4.22608
G01 X-39.84247 Y3.99552
G01 X-39.84973 Y3.55077
G01 X-40.58247 Y3.55069
G01 X-40.58399 Y3.98587
G01 X-40.61455 Y4.14363
G04 P0 ( dwell for no time -- G64 should not smooth over this point )
G00 Z10.00000 ( retract )

G00 X-42.12234 Y2.56182 ( rapid move to begin. )
G01 F30.00000
G01 Z-0.10000
G04 P0 ( dwell for no time -- G64 should not smooth over this point )
G01 F360.00000
G01 X-42.12234 Y2.56182
G01 X-42.38231 Y2.53870
G01 X-42.38229 Y1.64356
G01 X-43.18216 Y1.52062
G01 X-43.18277 Y0.80338
G01 X-43.20692 Y0.70292
G01 X-43.24848 Y0.62921
G01 X-43.24800 Y0.33937
G01 X-43.14876 Y0.14740
G01 X-43.12323 Y0.05080
G01 X-42.44104 Y0.05080
G04 P0 ( dwell for no time -- G64 should not smooth over this point )
G00 Z10.00000 ( retract )

G00 X-43.12323 Y0.05080 ( rapid move to begin. )
G01 F30.00000
G01 Z-0.10000
G04 P0 ( dwell for no time -- G64 should not smooth over this point )
G01 F360.00000
G01 X-43.12323 Y0.05080
G01 X-43.83115 Y0.05080
G01 X-43.71607 Y0.38156
G01 X-43.73189 Y0.55065
G01 X-43.71558 Y0.84041
G01 X-43.77947 Y1.20907
G01 X-43.78193 Y1.42842
G01 X-43.18216 Y1.52062
G01 X-43.18218 Y2.54183
G01 X-43.11505 Y2.55034
G04 P0 ( dwell for no time -- G64 should not smooth over this point )
G00 Z10.00000 ( retract )

G00 X-43.18218 Y2.54183 ( rapid move to begin. )
G01 F30.00000
G01 Z-0.10000
G04 P0 ( dwell for no time -- G64 should not smooth over this point )
G01 F360.00000
G01 X-43.18218 Y2.54183
G01 X-43.36115 Y2.55008
G01 X-43.53296 Y3.05608
G01 X-45.30077 Y2.46654
G01 X-45.05335 Y3.17332
G01 X-44.85122 Y3.67624
G01 X-44.65188 Y4.23847
G01 X-44.64992 Y4.58023
G01 X-44.69963 Y4.74342
G01 X-44.71584 Y4.87858
G01 X-44.70664 Y6.46107
G04 P0 ( dwell for no time -- G64 should not smooth over this point )
G00 Z10.00000 ( retract )

G00 X-45.37969 Y6.46161 ( rapid move to begin. )
G01 F30.00000
G01 Z-0.10000
G04 P0 ( dwell for no time -- G64 should not smooth over this point )
G01 F360.00000
G01 X-45.37969 Y6.46161
G01 X-45.38157 Y4.88160
G01 X-45.39630 Y4.74447
G01 X-45.44390 Y4.59613
G01 X-45.44710 Y4.39753
G01 X-45.43250 Y4.32737
G01 X-45.37512 Y4.22123
G01 X-45.38904 Y2.39809
G01 X-45.31736 Y2.41628
G04 P0 ( dwell for no time -- G64 should not smooth over this point )
G00 Z10.00000 ( retract )

G00 X-45.38904 Y2.39809 ( rapid move to begin. )
G01 F30.00000
G01 Z-0.10000
G04 P0 ( dwell for no time -- G64 should not smooth over this point )
G01 F360.00000
G01 X-45.38904 Y2.39809
G01 X-45.90509 Y2.21003
G01 X-50.76759 Y0.65837
G01 X-52.54513 Y0.05080
G01 X-52.37513 Y0.10747
G01 X-52.74391 Y0.05080
G01 X-52.54513 Y0.05080
G04 P0 ( dwell for no time -- G64 should not smooth over this point )
G00 Z10.00000 ( retract )

G00 X-43.78549 Y2.43467 ( rapid move to begin. )
G01 F30.00000
G01 Z-0.10000
G04 P0 ( dwell for no time -- G64 should not smooth over this point )
G01 F360.00000
G01 X-43.78549 Y2.43467
G01 X-44.20834 Y2.41836
G01 X-45.31736 Y2.41628
G01 X-45.30077 Y2.46654
G01 X-52.37323 Y0.10777
G01 X-43.78193 Y1.42842
G01 X-43.78549 Y2.43467
G01 X-43.36115 Y2.55008
G04 P0 ( dwell for no time -- G64 should not smooth over this point )
G00 Z10.00000 ( retract )

G00 X-42.38231 Y2.53870 ( rapid move to begin. )
G01 F30.00000
G01 Z-0.10000
G04 P0 ( dwell for no time -- G64 should not smooth over this point )
G01 F360.00000
G01 X-42.38231 Y2.53870
G01 X-43.11505 Y2.55034
G01 X-43.11653 Y3.88823
G01 X-43.09519 Y4.11102
G01 X-43.01843 Y4.27789
G01 X-41.84929 Y4.38325
G01 X-41.84508 Y4.63601
G01 X-41.81805 Y4.80774
G01 X-41.69941 Y5.19240
G01 X-41.41930 Y6.45935
G01 X-42.02499 Y6.58104
G01 X-42.53446 Y6.59613
G01 X-42.91035 Y6.55843
G01 X-43.32122 Y6.46623
G01 X-42.85755 Y4.81091
G01 X-42.85153 Y4.61922
G01 X-43.01843 Y4.27789
G04 P0 ( dwell for no time -- G64 should not smooth over this point )
G00 Z10.00000 ( retract )

G00 X-40.12588 Y6.46730 ( rapid move to begin. )
G01 F30.00000
G01 Z-0.10000
G04 P0 ( dwell for no time -- G64 should not smooth over this point )
G01 F360.00000
G01 X-40.12588 Y6.46730
G01 X-40.58161 Y6.46143
G01 X-40.58295 Y4.88394
G01 X-40.59944 Y4.74025
G01 X-40.64546 Y4.59613
G01 X-40.64965 Y4.49138
G01 X-41.84929 Y4.38325
G01 X-41.84866 Y2.92486
G01 X-42.12234 Y2.56182
G01 X-41.95780 Y2.41648
G01 X-41.40233 Y1.79421
G01 X-42.38229 Y1.64356
G01 X-42.38239 Y0.67727
G01 X-42.36707 Y0.59370
G01 X-42.28008 Y0.38306
G01 X-42.40538 Y0.17333
G01 X-42.44104 Y0.05080
G01 X-41.35298 Y0.05080
G04 P0 ( dwell for no time -- G64 should not smooth over this point )
G00 Z10.00000 ( retract )

G00 X-39.98323 Y1.52090 ( rapid move to begin. )
G01 F30.00000
G01 Z-0.10000
G04 P0 ( dwell for no time -- G64 should not smooth over this point )
G01 F360.00000
G01 X-39.98323 Y1.52090
G01 X-40.24986 Y1.55108
G01 X-41.18277 Y1.55148
G01 X-41.10218 Y1.06225
G01 X-41.03708 Y0.81727
G01 X-40.91056 Y0.55557
G01 X-40.77155 Y0.40678
G01 X-40.78331 Y0.16251
G01 X-40.02656 Y0.31092
G01 X-40.12306 Y0.54356
G01 X-40.02395 Y0.67023
G01 X-39.98676 Y0.77467
G01 X-39.98323 Y1.52090
G01 X-39.78323 Y1.56512
G04 P0 ( dwell for no time -- G64 should not smooth over this point )
G00 Z10.00000 ( retract )

G00 X-38.98351 Y1.50635 ( rapid move to begin. )
G01 F30.00000
G01 Z-0.10000
G04 P0 ( dwell for no time -- G64 should not smooth over this point )
G01 F360.00000
G01 X-38.98351 Y1.50635
G01 X-39.35174 Y1.54650
G01 X-39.78323 Y1.56512
G01 X-39.78923 Y2.04216
G01 X-38.92888 Y2.17442
G01 X-38.97462 Y1.96634
G01 X-38.98351 Y1.50635
G01 X-38.83802 Y1.41361
G01 X-38.76035 Y1.39187
G04 P0 ( dwell for no time -- G64 should not smooth over this point )
G00 Z10.00000 ( retract )

G00 X-38.31590 Y1.55080 ( rapid move to begin. )
G01 F30.00000
G01 Z-0.10000
G04 P0 ( dwell for no time -- G64 should not smooth over this point )
G01 F360.00000
G01 X-38.31590 Y1.55080
G01 X-38.31648 Y2.15069
G01 X-38.29787 Y2.27142
G01 X-38.92888 Y2.17442
G01 X-38.90945 Y2.37033
G01 X-38.86251 Y2.52380
G01 X-38.78458 Y2.65892
G01 X-38.58517 Y2.88628
G04 P0 ( dwell for no time -- G64 should not smooth over this point )
G00 Z10.00000 ( retract )

G00 X-37.78357 Y2.62913 ( rapid move to begin. )
G01 F30.00000
G01 Z-0.10000
G04 P0 ( dwell for no time -- G64 should not smooth over this point )
G01 F360.00000
G01 X-37.78357 Y2.62913
G01 X-37.74206 Y2.70266
G01 X-37.71783 Y2.80325
G01 X-37.78357 Y2.62913
G01 X-37.78306 Y2.35054
G01 X-38.29787 Y2.27142
G01 X-38.26129 Y2.38750
G01 X-38.28867 Y2.48493
G01 X-38.38273 Y2.65925
G01 X-38.58517 Y2.88628
G01 X-38.59616 Y2.99857
G01 X-37.71682 Y3.11612
G01 X-37.71516 Y3.55163
G04 P0 ( dwell for no time -- G64 should not smooth over this point )
G00 Z10.00000 ( retract )

G00 X-37.71732 Y3.55067 ( rapid move to begin. )
G01 F30.00000
G01 Z-0.10000
G04 P0 ( dwell for no time -- G64 should not smooth over this point )
G01 F360.00000
G01 X-37.71732 Y3.55067
G01 X-38.15217 Y3.53883
G01 X-38.58463 Y3.44665
G01 X-38.58362 Y4.49722
G01 X-38.49489 Y4.66176
G01 X-38.51580 Y4.61950
G04 P0 ( dwell for no time -- G64 should not smooth over this point )
G00 Z10.00000 ( retract )

G00 X-38.22344 Y5.93786 ( rapid move to begin. )
G01 F30.00000
G01 Z-0.10000
G04 P0 ( dwell for no time -- G64 should not smooth over this point )
G01 F360.00000
G01 X-38.22344 Y5.93786
G01 X-38.44597 Y5.03664
G01 X-38.45387 Y4.82133
G01 X-38.48448 Y4.68655
G01 X-37.77658 Y4.75036
G01 X-38.22344 Y5.93786
G01 X-38.27788 Y6.49674
G01 X-38.08811 Y6.53819
G01 X-37.62139 Y6.59602
G01 X-37.05073 Y6.60065
G01 X-36.72515 Y6.58358
G01 X-36.38687 Y6.53387
G01 X-35.88906 Y6.39613
G04 P0 ( dwell for no time -- G64 should not smooth over this point )
G00 Z10.00000 ( retract )

G00 X-34.84880 Y6.46148 ( rapid move to begin. )
G01 F30.00000
G01 Z-0.10000
G04 P0 ( dwell for no time -- G64 should not smooth over this point )
G01 F360.00000
G01 X-34.84880 Y6.46148
G01 X-34.11510 Y6.45729
G01 X-34.11383 Y5.08048
G01 X-34.84692 Y5.01442
G01 X-34.84720 Y4.99280
G01 X-34.11390 Y5.05935
G01 X-34.11479 Y4.78569
G01 X-34.87252 Y4.71084
G01 X-34.85040 Y4.83090
G01 X-34.84720 Y4.99280
G01 X-36.10239 Y4.87888
G01 X-36.10066 Y4.90141
G01 X-34.84692 Y5.01442
G01 X-34.84880 Y6.46148
G01 X-35.15794 Y6.46722
G01 X-35.36533 Y6.46234
G01 X-35.88906 Y6.39613
G01 X-36.10066 Y4.90141
G01 X-37.77658 Y4.75036
G01 X-37.76739 Y4.72778
G01 X-36.10239 Y4.87888
G01 X-36.11590 Y4.58803
G01 X-34.87252 Y4.71084
G01 X-34.90473 Y4.62742
G01 X-34.92459 Y4.47825
G01 X-34.94735 Y4.41759
G01 X-36.11105 Y4.42059
G01 X-36.11700 Y3.48531
G01 X-36.01519 Y3.34355
G01 X-37.71682 Y3.11612
G01 X-37.71783 Y2.80325
G01 X-35.82304 Y3.07223
G01 X-35.54580 Y2.69446
G01 X-37.78306 Y2.35054
G01 X-37.68385 Y2.14739
G01 X-37.66030 Y2.06499
G01 X-37.65009 Y1.55072
G01 X-37.51730 Y1.50571
G04 P0 ( dwell for no time -- G64 should not smooth over this point )
G00 Z10.00000 ( retract )

G00 X-35.92805 Y0.41890 ( rapid move to begin. )
G01 F30.00000
G01 Z-0.10000
G04 P0 ( dwell for no time -- G64 should not smooth over this point )
G01 F360.00000
G01 X-35.92805 Y0.41890
G01 X-35.94019 Y0.48710
G01 X-35.91989 Y0.68946
G01 X-37.45779 Y0.36954
G01 X-37.56650 Y0.05080
G01 X-35.92721 Y0.40472
G01 X-35.92805 Y0.41890
G01 X-35.85911 Y0.41943
G01 X-35.92721 Y0.40472
G01 X-35.91601 Y0.05080
G01 X-34.44880 Y0.05080
G04 P0 ( dwell for no time -- G64 should not smooth over this point )
G00 Z10.00000 ( retract )

G00 X-34.50887 Y0.33825 ( rapid move to begin. )
G01 F30.00000
G01 Z-0.10000
G04 P0 ( dwell for no time -- G64 should not smooth over this point )
G01 F360.00000
G01 X-34.50887 Y0.33825
G01 X-34.54773 Y0.41687
G01 X-35.85911 Y0.41943
G01 X-34.89129 Y0.62837
G01 X-35.22518 Y0.83396
G01 X-35.91989 Y0.68946
G01 X-35.88799 Y1.24203
G01 X-35.74080 Y1.15141
G01 X-37.45078 Y0.81605
G01 X-37.51481 Y1.20907
G01 X-37.51730 Y1.50571
G01 X-37.23363 Y1.55006
G01 X-35.86897 Y1.55075
G01 X-35.27963 Y2.38331
G01 X-35.54580 Y2.69446
G01 X-34.85147 Y2.80119
G01 X-34.85238 Y3.21003
G01 X-35.82304 Y3.07223
G01 X-36.01519 Y3.34355
G01 X-34.84839 Y3.49951
G01 X-34.85238 Y3.21003
G01 X-34.18108 Y3.30533
G01 X-34.18050 Y3.17581
G04 P0 ( dwell for no time -- G64 should not smooth over this point )
G00 Z10.00000 ( retract )

G00 X-34.84857 Y3.94251 ( rapid move to begin. )
G01 F30.00000
G01 Z-0.10000
G04 P0 ( dwell for no time -- G64 should not smooth over this point )
G01 F360.00000
G01 X-34.84857 Y3.94251
G01 X-34.94735 Y4.41759
G01 X-34.88367 Y4.28874
G04 P0 ( dwell for no time -- G64 should not smooth over this point )
G00 Z10.00000 ( retract )

G00 X-36.11105 Y4.42059 ( rapid move to begin. )
G01 F30.00000
G01 Z-0.10000
G04 P0 ( dwell for no time -- G64 should not smooth over this point )
G01 F360.00000
G01 X-36.11105 Y4.42059
G01 X-36.11590 Y4.58803
G01 X-37.71631 Y4.42991
G01 X-37.68491 Y4.55066
G01 X-37.76739 Y4.72778
G01 X-38.49489 Y4.66176
G01 X-38.48448 Y4.68655
G01 X-39.11681 Y4.62956
G01 X-39.11674 Y6.51759
G01 X-39.60901 Y6.52927
G01 X-40.12588 Y6.46730
G01 X-39.85153 Y5.08546
G01 X-39.83418 Y4.78732
G01 X-39.76718 Y4.57093
G01 X-39.11681 Y4.62956
G01 X-39.11674 Y4.41960
G01 X-39.16566 Y4.28673
G01 X-37.71631 Y4.42991
G01 X-37.71516 Y3.55163
G01 X-37.18408 Y3.55067
G01 X-36.51921 Y3.48755
G01 X-36.11700 Y3.48531
G04 P0 ( dwell for no time -- G64 should not smooth over this point )
G00 Z10.00000 ( retract )

G00 X-33.24885 Y6.15188 ( rapid move to begin. )
G01 F30.00000
G01 Z-0.10000
G04 P0 ( dwell for no time -- G64 should not smooth over this point )
G01 F360.00000
G01 X-33.24885 Y6.15188
G01 X-33.24883 Y5.15846
G01 X-34.11383 Y5.08048
G01 X-34.11390 Y5.05935
G01 X-33.24883 Y5.13786
G01 X-33.24883 Y5.15846
G01 X-32.83008 Y5.19621
G01 X-32.81985 Y5.17677
G01 X-33.24883 Y5.13786
G01 X-33.24926 Y4.87119
G01 X-32.65907 Y4.92951
G01 X-32.81985 Y5.17677
G01 X-31.13585 Y5.32961
G01 X-31.13166 Y5.34929
G01 X-32.83008 Y5.19621
G01 X-32.99450 Y5.51487
G01 X-33.24885 Y6.15188
G01 X-33.32549 Y6.46504
G01 X-33.24471 Y6.48691
G04 P0 ( dwell for no time -- G64 should not smooth over this point )
G00 Z10.00000 ( retract )

G00 X-30.88637 Y6.45930 ( rapid move to begin. )
G01 F30.00000
G01 Z-0.10000
G04 P0 ( dwell for no time -- G64 should not smooth over this point )
G01 F360.00000
G01 X-30.88637 Y6.45930
G01 X-31.13166 Y5.34929
G01 X-30.04980 Y5.44680
G01 X-30.04962 Y5.42818
G01 X-31.13585 Y5.32961
G01 X-31.19280 Y5.07434
G01 X-30.05013 Y5.18721
G01 X-30.05338 Y4.82427
G01 X-29.38435 Y4.89844
G01 X-29.38511 Y5.25292
G01 X-30.05013 Y5.18721
G01 X-30.04962 Y5.42818
G01 X-29.38310 Y5.48869
G01 X-29.38295 Y5.50690
G01 X-30.04980 Y5.44680
G01 X-30.04812 Y6.46161
G04 P0 ( dwell for no time -- G64 should not smooth over this point )
G00 Z10.00000 ( retract )

G00 X-29.37523 Y6.46107 ( rapid move to begin. )
G01 F30.00000
G01 Z-0.10000
G04 P0 ( dwell for no time -- G64 should not smooth over this point )
G01 F360.00000
G01 X-29.37523 Y6.46107
G01 X-29.38295 Y5.50690
G01 X-28.45145 Y5.59087
G01 X-28.45849 Y6.46107
G04 P0 ( dwell for no time -- G64 should not smooth over this point )
G00 Z10.00000 ( retract )

G00 X-55.04998 Y38.63073 ( rapid move to begin. )
G01 F30.00000
G01 Z-0.10000
G04 P0 ( dwell for no time -- G64 should not smooth over this point )
G01 F360.00000
G01 X-55.04998 Y38.63073
G01 X-55.07424 Y38.82659
G01 X-55.12450 Y38.97513
G01 X-55.16971 Y39.06998
G01 X-55.30901 Y39.25250
G01 X-55.49052 Y39.39357
G01 X-55.70317 Y39.48008
G01 X-55.93080 Y39.50947
G01 X-56.21978 Y39.47343
G01 X-56.27677 Y39.51689
G01 X-62.63998 Y45.88010
G01 X-62.66586 Y45.91017
G01 X-62.67374 Y45.97337
G01 X-62.67374 Y47.00080
G01 X-62.69551 Y47.10600
G01 X-62.80074 Y47.12780
G01 X-64.30086 Y47.12780
G01 X-64.40607 Y47.10600
G01 X-64.42786 Y47.00080
G01 X-64.42786 Y45.50067
G01 X-64.40607 Y45.39544
G01 X-64.30086 Y45.37367
G01 X-63.27343 Y45.37367
G01 X-63.21024 Y45.36580
G01 X-63.18016 Y45.33991
G01 X-56.81696 Y38.97671
G01 X-56.77182 Y38.91681
G01 X-56.81160 Y38.63073
G01 X-56.78734 Y38.43485
G01 X-56.73707 Y38.28631
G01 X-56.69186 Y38.19147
G01 X-56.55257 Y38.00894
G01 X-56.37106 Y37.86787
G01 X-56.15841 Y37.78136
G01 X-55.93077 Y37.75197
G01 X-55.70317 Y37.78136
G01 X-55.49052 Y37.86787
G01 X-55.30901 Y38.00894
G01 X-55.16971 Y38.19147
G01 X-55.08142 Y38.40310
G01 X-55.04998 Y38.63073
G01 X-0.05080 Y8.15073
G01 X-27.10998 Y41.17073
G01 X-27.13424 Y41.36659
G01 X-27.18450 Y41.51513
G01 X-27.22971 Y41.60998
G01 X-27.36901 Y41.79250
G01 X-27.55052 Y41.93357
G01 X-27.76317 Y42.02008
G01 X-27.99077 Y42.04947
G01 X-28.27470 Y42.00114
G01 X-28.43106 Y41.93357
G01 X-28.56796 Y41.83179
G01 X-28.70815 Y41.67538
G01 X-28.78656 Y41.53959
G01 X-28.84015 Y41.39834
G01 X-28.87160 Y41.17073
G01 X-28.84734 Y40.97485
G01 X-28.79707 Y40.82631
G01 X-28.75186 Y40.73147
G01 X-28.61257 Y40.54894
G01 X-28.43106 Y40.40787
G01 X-28.27470 Y40.34031
G01 X-27.99080 Y40.29197
G01 X-27.70688 Y40.34031
G01 X-27.55052 Y40.40787
G01 X-27.36901 Y40.54894
G01 X-27.22971 Y40.73147
G01 X-27.18450 Y40.82631
G01 X-27.13424 Y40.97485
G01 X-27.10998 Y41.17073
G04 P0 ( dwell for no time -- G64 should not smooth over this point )
G00 Z10.00000 ( retract )

G00 X-6.79371 Y42.96067 ( rapid move to begin. )
G01 F30.00000
G01 Z-0.10000
G04 P0 ( dwell for no time -- G64 should not smooth over this point )
G01 F360.00000
G01 X-6.79371 Y42.96067
G01 X-6.81551 Y42.85546
G01 X-6.92074 Y42.83367
G01 X-8.42086 Y42.83367
G01 X-8.52607 Y42.85544
G01 X-8.54786 Y42.96067
G01 X-8.54786 Y44.46080
G01 X-8.52607 Y44.56600
G01 X-8.42086 Y44.58780
G01 X-6.92074 Y44.58780
G01 X-6.81551 Y44.56598
G01 X-6.79371 Y44.46080
G01 X-6.79371 Y42.96067
G01 X-0.05080 Y8.15073
G01 X-24.91918 Y5.90923
G01 X-25.34867 Y6.16041
G01 X-25.76855 Y6.35160
G01 X-26.18844 Y6.48691
G01 X-26.71417 Y6.58325
G01 X-27.24432 Y6.59397
G01 X-27.57866 Y6.55843
G01 X-27.98953 Y6.46623
G01 X-28.91686 Y6.45729
G01 X-30.88637 Y6.45930
G01 X-31.19648 Y6.53611
G01 X-31.50659 Y6.58195
G01 X-31.82892 Y6.60060
G01 X-32.53448 Y6.59613
G01 X-32.91037 Y6.55843
G01 X-33.24471 Y6.48691
G01 X-43.53296 Y3.05608
G01 X-43.71254 Y3.47772
G01 X-43.91617 Y3.88529
G01 X-43.90639 Y4.05968
G01 X-43.85267 Y4.23855
G01 X-43.84515 Y4.59626
G01 X-43.79702 Y4.74350
G01 X-43.78282 Y4.84886
G01 X-43.79021 Y6.46107
G01 X-46.00461 Y6.46621
G01 X-46.36183 Y6.44703
G01 X-46.71906 Y6.38993
G01 X-47.04931 Y6.30735
G01 X-47.35888 Y6.20098
G01 X-47.68914 Y6.05836
G01 X-48.01941 Y5.88366
G01 X-48.45969 Y5.60619
G01 X-48.85842 Y5.30649
G01 X-49.39937 Y4.82938
G01 X-49.96099 Y4.24477
G01 X-50.50376 Y3.59984
G01 X-51.04653 Y2.87068
G01 X-51.58930 Y2.05730
G01 X-52.13208 Y1.15971
G01 X-52.74391 Y0.05080
G01 X-71.17080 Y0.05080
G01 X-71.17080 Y48.79073
G01 X-0.05080 Y48.79073
G01 X-0.05080 Y8.15073
G01 X-20.37794 Y1.55054
G01 X-19.75041 Y0.95034
G01 X-18.85602 Y0.05080
G01 X-0.05080 Y0.05080
G01 X-0.05080 Y8.15073
G01 X-6.78995 Y41.17073
G01 X-6.81424 Y41.36659
G01 X-6.87502 Y41.53959
G01 X-6.95343 Y41.67538
G01 X-7.04901 Y41.79250
G01 X-7.21924 Y41.92562
G01 X-7.44317 Y42.02008
G01 X-7.59239 Y42.04432
G01 X-7.74916 Y42.04432
G01 X-7.89841 Y42.02008
G01 X-8.11106 Y41.93357
G01 X-8.29257 Y41.79250
G01 X-8.43186 Y41.60998
G01 X-8.47707 Y41.51513
G01 X-8.52734 Y41.36659
G01 X-8.55160 Y41.17073
G01 X-8.52734 Y40.97485
G01 X-8.47707 Y40.82631
G01 X-8.43186 Y40.73147
G01 X-8.29257 Y40.54894
G01 X-8.11106 Y40.40787
G01 X-7.95470 Y40.34031
G01 X-7.67077 Y40.29197
G01 X-7.38688 Y40.34031
G01 X-7.23052 Y40.40787
G01 X-7.04901 Y40.54894
G01 X-6.90971 Y40.73147
G01 X-6.86450 Y40.82631
G01 X-6.81424 Y40.97485
G01 X-6.78995 Y41.17073

G04 P0 ( dwell for no time -- G64 should not smooth over this point )
G00 Z50.000 ( retract )

M5 ( Spindle off. )
G04 P1.000000
M9 ( Coolant off. )
M2 ( Program end. )

