( pcb2gcode 1.3.2 )
( Software-independent Gcode )

G94 ( Millimeters per minute feed rate. )
G21 ( Units == Millimeters. )

G90 ( Absolute coordinates. )
G00 S10000 ( RPM spindle speed. )
G01 F360.00000 ( Feedrate. )

G01 F360.00000 ( Feedrate. )
M3 ( Spindle on clockwise. )
G04 P1.00000
G04 P0 ( dwell for no time -- G64 should not smooth over this point )
G00 Z10.00000 ( retract )

G00 X-18.85640 Y0.05080 ( rapid move to begin. )
G01 F30.00000
G01 Z-0.10000
G04 P0 ( dwell for no time -- G64 should not smooth over this point )
G01 F360.00000
G01 X-18.85640 Y0.05080
G01 X-0.05080 Y0.05080
G01 X-0.05080 Y48.79073
G01 X-71.17080 Y48.79073
G01 X-71.17080 Y0.05080
G01 X-52.74391 Y0.05080
G01 X-52.17366 Y1.08770
G01 X-51.58930 Y2.05730
G01 X-51.04653 Y2.87068
G01 X-50.50376 Y3.59984
G01 X-49.96099 Y4.24477
G01 X-49.39937 Y4.82938
G01 X-48.87930 Y5.28958
G01 X-48.45969 Y5.60619
G01 X-48.06099 Y5.85963
G01 X-47.68914 Y6.05836
G01 X-47.33801 Y6.20900
G01 X-47.04931 Y6.30735
G01 X-46.71906 Y6.38993
G01 X-46.36183 Y6.44703
G01 X-46.00461 Y6.46621
G01 X-43.32117 Y6.46623
G01 X-42.91035 Y6.55843
G01 X-42.53446 Y6.59613
G01 X-42.02499 Y6.58104
G01 X-41.41935 Y6.45935
G01 X-40.12595 Y6.46727
G01 X-39.60901 Y6.52927
G01 X-39.11674 Y6.51759
G01 X-38.62446 Y6.52927
G01 X-38.27785 Y6.49674
G01 X-37.79637 Y6.58165
G01 X-37.44364 Y6.60065
G01 X-36.71900 Y6.58399
G01 X-36.37493 Y6.53052
G01 X-35.88934 Y6.39608
G01 X-35.34575 Y6.46328
G01 X-33.32543 Y6.46504
G01 X-33.25170 Y6.15927
G01 X-32.99445 Y5.51480
G01 X-32.85744 Y5.23687
G01 X-32.65373 Y4.92128
G01 X-32.59171 Y4.76771
G01 X-32.58508 Y4.64231
G01 X-32.60468 Y4.55150
G01 X-32.53125 Y4.37419
G01 X-32.51576 Y4.28734
G01 X-32.57753 Y4.03535
G01 X-32.58231 Y3.43065
G01 X-32.21708 Y3.41650
G01 X-32.11581 Y3.43553
G01 X-31.90532 Y3.41874
G01 X-31.38038 Y3.45453
G01 X-31.05026 Y3.63456
G01 X-30.78287 Y3.50898
G01 X-30.64655 Y3.47099
G01 X-30.46136 Y3.43312
G01 X-30.04975 Y3.41727
G01 X-29.91660 Y3.38084
G01 X-29.62209 Y3.41721
G01 X-29.31851 Y4.25077
G01 X-29.31836 Y4.58026
G01 X-29.36837 Y4.74449
G01 X-29.38440 Y4.87858
G01 X-29.37698 Y6.46097
G01 X-27.98948 Y6.46623
G01 X-27.57866 Y6.55843
G01 X-27.20276 Y6.59613
G01 X-26.69329 Y6.58104
G01 X-26.18844 Y6.48691
G01 X-25.76853 Y6.35158
G01 X-25.34867 Y6.16041
G01 X-24.87473 Y5.88325
G01 X-24.40079 Y5.53497
G01 X-24.05494 Y5.24045
G01 X-22.95080 Y4.15074
G01 X-22.38731 Y3.54830
G01 X-21.75065 Y2.95059
G01 X-20.95081 Y2.15075
G01 X-20.37794 Y1.55054
G01 X-19.75041 Y0.95034
G01 X-18.85640 Y0.05080
G01 X-27.49436 Y0.05080
G01 X-27.60381 Y0.22281
G01 X-27.69517 Y0.43904
G01 X-27.71412 Y0.50470
G01 X-27.71831 Y0.70470
G01 X-27.73528 Y0.78090
G01 X-27.98689 Y1.28102
G01 X-28.02842 Y1.41440
G01 X-27.78483 Y1.52029
G01 X-27.31712 Y1.58006
G01 X-27.06119 Y1.54996
G01 X-20.37794 Y1.55054
G04 P0 ( dwell for no time -- G64 should not smooth over this point )
G00 Z10.00000 ( retract )

G00 X-22.38731 Y3.54830 ( rapid move to begin. )
G01 F30.00000
G01 Z-0.10000
G04 P0 ( dwell for no time -- G64 should not smooth over this point )
G01 F360.00000
G01 X-22.38731 Y3.54830
G01 X-27.44826 Y3.55067
G01 X-27.78369 Y3.52077
G01 X-27.77203 Y4.07840
G01 X-27.74846 Y4.15437
G01 X-27.51996 Y4.61935
G01 X-27.52598 Y4.81096
G01 X-27.98948 Y6.46623
G04 P0 ( dwell for no time -- G64 should not smooth over this point )
G00 Z10.00000 ( retract )

G00 X-28.45849 Y6.46107 ( rapid move to begin. )
G01 F30.00000
G01 Z-0.10000
G04 P0 ( dwell for no time -- G64 should not smooth over this point )
G01 F360.00000
G01 X-28.45849 Y6.46107
G01 X-28.45112 Y4.84883
G01 X-28.46540 Y4.74348
G01 X-28.51536 Y4.58399
G01 X-28.52110 Y4.23857
G01 X-28.57589 Y4.05003
G01 X-28.58460 Y3.88536
G01 X-28.34924 Y3.41356
G04 P0 ( dwell for no time -- G64 should not smooth over this point )
G00 Z10.00000 ( retract )

G00 X-30.88640 Y6.45930 ( rapid move to begin. )
G01 F30.00000
G01 Z-0.10000
G04 P0 ( dwell for no time -- G64 should not smooth over this point )
G01 F360.00000
G01 X-30.88640 Y6.45930
G01 X-31.19648 Y6.53608
G01 X-31.50657 Y6.58195
G01 X-31.82889 Y6.60057
G01 X-32.57603 Y6.59394
G01 X-32.91037 Y6.55843
G01 X-33.32543 Y6.46504
G04 P0 ( dwell for no time -- G64 should not smooth over this point )
G00 Z10.00000 ( retract )

G00 X-33.25170 Y6.15927 ( rapid move to begin. )
G01 F30.00000
G01 Z-0.10000
G04 P0 ( dwell for no time -- G64 should not smooth over this point )
G01 F360.00000
G01 X-33.25170 Y6.15927
G01 X-33.25005 Y4.85503
G01 X-33.31540 Y4.55054
G01 X-33.31312 Y3.42329
G04 P0 ( dwell for no time -- G64 should not smooth over this point )
G00 Z10.00000 ( retract )

G00 X-32.98314 Y3.40388 ( rapid move to begin. )
G01 F30.00000
G01 Z-0.10000
G04 P0 ( dwell for no time -- G64 should not smooth over this point )
G01 F360.00000
G01 X-32.98314 Y3.40388
G01 X-33.31312 Y3.42329
G01 X-33.58439 Y3.39832
G01 X-33.84852 Y3.32626
G01 X-34.18050 Y3.17581
G01 X-34.63600 Y2.82440
G01 X-34.84877 Y2.63027
G01 X-35.04458 Y2.41734
G01 X-33.08226 Y2.41714
G01 X-33.04891 Y2.28735
G01 X-33.04880 Y1.46395
G01 X-32.88340 Y1.41422
G04 P0 ( dwell for no time -- G64 should not smooth over this point )
G00 Z10.00000 ( retract )

G00 X-32.55996 Y1.42756 ( rapid move to begin. )
G01 F30.00000
G01 Z-0.10000
G04 P0 ( dwell for no time -- G64 should not smooth over this point )
G01 F360.00000
G01 X-32.55996 Y1.42756
G01 X-32.64901 Y1.44132
G01 X-32.88340 Y1.41422
G01 X-32.98127 Y1.01803
G01 X-32.98444 Y0.83388
G01 X-33.00344 Y0.72012
G01 X-33.11550 Y0.49710
G01 X-33.11667 Y0.25479
G01 X-33.16671 Y0.05080
G01 X-32.24985 Y0.05080
G04 P0 ( dwell for no time -- G64 should not smooth over this point )
G00 Z10.00000 ( retract )

G00 X-30.98259 Y0.05080 ( rapid move to begin. )
G01 F30.00000
G01 Z-0.10000
G04 P0 ( dwell for no time -- G64 should not smooth over this point )
G01 F360.00000
G01 X-30.98259 Y0.05080
G01 X-32.24985 Y0.05080
G01 X-32.25135 Y0.31732
G01 X-32.33758 Y0.55159
G01 X-32.31787 Y0.64224
G01 X-32.32432 Y0.76802
G01 X-32.44997 Y1.15214
G01 X-32.55996 Y1.42756
G01 X-32.18193 Y1.55057
G01 X-31.69305 Y1.55087
G01 X-31.44693 Y1.57310
G04 P0 ( dwell for no time -- G64 should not smooth over this point )
G00 Z10.00000 ( retract )

G00 X-32.18193 Y1.55057 ( rapid move to begin. )
G01 F30.00000
G01 Z-0.10000
G04 P0 ( dwell for no time -- G64 should not smooth over this point )
G01 F360.00000
G01 X-32.18193 Y1.55057
G01 X-32.18238 Y1.98491
G01 X-32.24738 Y2.25443
G01 X-32.24908 Y2.55034
G01 X-32.18363 Y2.85516
G01 X-32.18363 Y3.41699
G04 P0 ( dwell for no time -- G64 should not smooth over this point )
G00 Z10.00000 ( retract )

G00 X-31.05026 Y3.63456 ( rapid move to begin. )
G01 F30.00000
G01 Z-0.10000
G04 P0 ( dwell for no time -- G64 should not smooth over this point )
G01 F360.00000
G01 X-31.05026 Y3.63456
G01 X-31.04957 Y3.96565
G01 X-31.21101 Y4.38404
G01 X-31.24566 Y4.60040
G01 X-31.24368 Y4.79956
G01 X-30.88640 Y6.45930
G01 X-30.04812 Y6.46161
G04 P0 ( dwell for no time -- G64 should not smooth over this point )
G00 Z10.00000 ( retract )

G00 X-29.37698 Y6.46097 ( rapid move to begin. )
G01 F30.00000
G01 Z-0.10000
G04 P0 ( dwell for no time -- G64 should not smooth over this point )
G01 F360.00000
G01 X-29.37698 Y6.46097
G01 X-30.04812 Y6.46161
G01 X-30.05000 Y4.88173
G01 X-30.06476 Y4.74449
G01 X-30.11650 Y4.55013
G01 X-30.10642 Y4.34528
G01 X-30.04358 Y4.22112
G01 X-30.04975 Y3.41727
G04 P0 ( dwell for no time -- G64 should not smooth over this point )
G00 Z10.00000 ( retract )

G00 X-30.78287 Y3.50898 ( rapid move to begin. )
G01 F30.00000
G01 Z-0.10000
G04 P0 ( dwell for no time -- G64 should not smooth over this point )
G01 F360.00000
G01 X-30.78287 Y3.50898
G01 X-30.78114 Y2.48773
G01 X-30.80634 Y2.46906
G01 X-30.84492 Y2.34213
G01 X-30.74855 Y2.14747
G01 X-30.72521 Y2.06461
G01 X-30.71706 Y1.41765
G01 X-30.29882 Y1.48219
G01 X-29.91813 Y1.45806
G04 P0 ( dwell for no time -- G64 should not smooth over this point )
G00 Z10.00000 ( retract )

G00 X-29.81703 Y1.41740 ( rapid move to begin. )
G01 F30.00000
G01 Z-0.10000
G04 P0 ( dwell for no time -- G64 should not smooth over this point )
G01 F360.00000
G01 X-29.81703 Y1.41740
G01 X-29.91813 Y1.45806
G01 X-29.91660 Y2.35186
G01 X-29.87241 Y2.39469
G01 X-29.85021 Y2.56992
G01 X-29.91414 Y2.94269
G01 X-29.91660 Y3.38084
G04 P0 ( dwell for no time -- G64 should not smooth over this point )
G00 Z10.00000 ( retract )

G00 X-29.62209 Y3.41721 ( rapid move to begin. )
G01 F30.00000
G01 Z-0.10000
G04 P0 ( dwell for no time -- G64 should not smooth over this point )
G01 F360.00000
G01 X-29.62209 Y3.41721
G01 X-29.31343 Y3.30512
G04 P0 ( dwell for no time -- G64 should not smooth over this point )
G00 Z10.00000 ( retract )

G00 X-28.44965 Y3.35831 ( rapid move to begin. )
G01 F30.00000
G01 Z-0.10000
G04 P0 ( dwell for no time -- G64 should not smooth over this point )
G01 F360.00000
G01 X-28.44965 Y3.35831
G01 X-28.91686 Y3.25526
G01 X-29.31343 Y3.30512
G01 X-29.31686 Y2.63108
G01 X-29.34452 Y2.47183
G01 X-29.32229 Y2.37764
G01 X-29.23443 Y2.25118
G01 X-29.18996 Y2.10614
G01 X-29.18193 Y1.43482
G01 X-29.05008 Y1.39929
G04 P0 ( dwell for no time -- G64 should not smooth over this point )
G00 Z10.00000 ( retract )

G00 X-28.44797 Y1.41671 ( rapid move to begin. )
G01 F30.00000
G01 Z-0.10000
G04 P0 ( dwell for no time -- G64 should not smooth over this point )
G01 F360.00000
G01 X-28.44797 Y1.41671
G01 X-28.58155 Y1.45372
G01 X-28.58483 Y1.72926
G01 X-28.58282 Y2.01414
G01 X-28.56230 Y2.16108
G01 X-28.58130 Y2.35826
G01 X-28.53789 Y2.56136
G01 X-28.45857 Y2.78138
G01 X-28.44965 Y3.35831
G01 X-28.34924 Y3.41356
G01 X-28.02138 Y3.41815
G04 P0 ( dwell for no time -- G64 should not smooth over this point )
G00 Z10.00000 ( retract )

G00 X-27.78369 Y3.52077 ( rapid move to begin. )
G01 F30.00000
G01 Z-0.10000
G04 P0 ( dwell for no time -- G64 should not smooth over this point )
G01 F360.00000
G01 X-27.78369 Y3.52077
G01 X-28.02138 Y3.41815
G01 X-27.73596 Y2.65059
G01 X-27.70998 Y2.48966
G01 X-27.65699 Y2.35006
G01 X-27.77447 Y2.06634
G01 X-27.78483 Y1.52029
G04 P0 ( dwell for no time -- G64 should not smooth over this point )
G00 Z10.00000 ( retract )

G00 X-28.02842 Y1.41440 ( rapid move to begin. )
G01 F30.00000
G01 Z-0.10000
G04 P0 ( dwell for no time -- G64 should not smooth over this point )
G01 F360.00000
G01 X-28.02842 Y1.41440
G01 X-28.44797 Y1.41671
G01 X-28.45026 Y0.41730
G01 X-28.28267 Y0.29233
G01 X-28.25659 Y0.24923
G01 X-28.24955 Y0.05080
G01 X-27.49436 Y0.05080
G04 P0 ( dwell for no time -- G64 should not smooth over this point )
G00 Z10.00000 ( retract )

G00 X-28.24955 Y0.05080 ( rapid move to begin. )
G01 F30.00000
G01 Z-0.10000
G04 P0 ( dwell for no time -- G64 should not smooth over this point )
G01 F360.00000
G01 X-28.24955 Y0.05080
G01 X-29.11671 Y0.05080
G01 X-29.10698 Y0.23647
G01 X-29.04983 Y0.38113
G01 X-29.05008 Y1.39929
G01 X-28.58155 Y1.45372
G04 P0 ( dwell for no time -- G64 should not smooth over this point )
G00 Z10.00000 ( retract )

G00 X-29.18193 Y1.43482 ( rapid move to begin. )
G01 F30.00000
G01 Z-0.10000
G04 P0 ( dwell for no time -- G64 should not smooth over this point )
G01 F360.00000
G01 X-29.18193 Y1.43482
G01 X-29.45483 Y1.41704
G01 X-29.81703 Y1.41740
G01 X-29.91696 Y1.01681
G01 X-29.91914 Y0.83368
G01 X-29.93862 Y0.71989
G01 X-30.04985 Y0.49703
G01 X-30.05463 Y0.22553
G01 X-30.10093 Y0.05080
G01 X-29.11671 Y0.05080
G04 P0 ( dwell for no time -- G64 should not smooth over this point )
G00 Z10.00000 ( retract )

G00 X-30.10093 Y0.05080 ( rapid move to begin. )
G01 F30.00000
G01 Z-0.10000
G04 P0 ( dwell for no time -- G64 should not smooth over this point )
G01 F360.00000
G01 X-30.10093 Y0.05080
G01 X-30.98259 Y0.05080
G01 X-30.97370 Y0.29812
G01 X-30.95302 Y0.41801
G01 X-30.97710 Y0.56825
G01 X-30.98119 Y0.72591
G01 X-30.95762 Y0.92845
G01 X-30.87088 Y1.34010
G01 X-30.71706 Y1.41765
G04 P0 ( dwell for no time -- G64 should not smooth over this point )
G00 Z10.00000 ( retract )

G00 X-30.87088 Y1.34010 ( rapid move to begin. )
G01 F30.00000
G01 Z-0.10000
G04 P0 ( dwell for no time -- G64 should not smooth over this point )
G01 F360.00000
G01 X-30.87088 Y1.34010
G01 X-31.14291 Y1.47079
G01 X-31.44693 Y1.57310
G01 X-31.43857 Y2.02540
G01 X-31.31607 Y2.38133
G01 X-31.31990 Y2.62004
G01 X-31.38112 Y2.94340
G01 X-31.38038 Y3.45453
G04 P0 ( dwell for no time -- G64 should not smooth over this point )
G00 Z10.00000 ( retract )

G00 X-32.58231 Y3.43065 ( rapid move to begin. )
G01 F30.00000
G01 Z-0.10000
G04 P0 ( dwell for no time -- G64 should not smooth over this point )
G01 F360.00000
G01 X-32.58231 Y3.43065
G01 X-32.98314 Y3.40388
G01 X-32.98985 Y2.78465
G01 X-33.08226 Y2.41714
G01 X-33.04931 Y2.53975
G04 P0 ( dwell for no time -- G64 should not smooth over this point )
G00 Z10.00000 ( retract )

G00 X-33.04880 Y1.46395 ( rapid move to begin. )
G01 F30.00000
G01 Z-0.10000
G04 P0 ( dwell for no time -- G64 should not smooth over this point )
G01 F360.00000
G01 X-33.04880 Y1.46395
G01 X-33.33981 Y1.48417
G01 X-33.79640 Y1.48367
G01 X-33.71693 Y1.08547
G01 X-33.69958 Y0.78420
G01 X-33.58197 Y0.45403
G01 X-33.58197 Y0.39454
G01 X-33.69894 Y0.05080
G01 X-33.16671 Y0.05080
G04 P0 ( dwell for no time -- G64 should not smooth over this point )
G00 Z10.00000 ( retract )

G00 X-33.69894 Y0.05080 ( rapid move to begin. )
G01 F30.00000
G01 Z-0.10000
G04 P0 ( dwell for no time -- G64 should not smooth over this point )
G01 F360.00000
G01 X-33.69894 Y0.05080
G01 X-34.44885 Y0.05080
G01 X-34.44207 Y0.22126
G01 X-34.54842 Y0.41712
G01 X-34.44885 Y0.05080
G01 X-35.91601 Y0.05080
G01 X-35.92797 Y0.41735
G01 X-34.54842 Y0.41712
G01 X-34.46521 Y0.73868
G01 X-34.44969 Y0.85504
G01 X-34.44387 Y1.83741
G01 X-33.98190 Y1.56931
G01 X-33.79640 Y1.48367
G04 P0 ( dwell for no time -- G64 should not smooth over this point )
G00 Z10.00000 ( retract )

G00 X-34.44387 Y1.83741 ( rapid move to begin. )
G01 F30.00000
G01 Z-0.10000
G04 P0 ( dwell for no time -- G64 should not smooth over this point )
G01 F360.00000
G01 X-34.44387 Y1.83741
G01 X-35.05528 Y2.40736
G01 X-35.04458 Y2.41734
G04 P0 ( dwell for no time -- G64 should not smooth over this point )
G00 Z10.00000 ( retract )

G00 X-35.05528 Y2.40736 ( rapid move to begin. )
G01 F30.00000
G01 Z-0.10000
G04 P0 ( dwell for no time -- G64 should not smooth over this point )
G01 F360.00000
G01 X-35.05528 Y2.40736
G01 X-35.27951 Y2.38331
G01 X-35.86886 Y1.55230
G01 X-35.93965 Y0.48407
G01 X-35.92797 Y0.41735
G04 P0 ( dwell for no time -- G64 should not smooth over this point )
G00 Z10.00000 ( retract )

G00 X-35.91601 Y0.05080 ( rapid move to begin. )
G01 F30.00000
G01 Z-0.10000
G04 P0 ( dwell for no time -- G64 should not smooth over this point )
G01 F360.00000
G01 X-35.91601 Y0.05080
G01 X-37.56817 Y0.05080
G01 X-37.45141 Y0.38156
G01 X-37.46724 Y0.55065
G01 X-37.45080 Y0.83889
G01 X-37.51481 Y1.20907
G01 X-37.51837 Y1.50617
G01 X-37.20391 Y1.54958
G01 X-35.86886 Y1.55230
G04 P0 ( dwell for no time -- G64 should not smooth over this point )
G00 Z10.00000 ( retract )

G00 X-35.27951 Y2.38331 ( rapid move to begin. )
G01 F30.00000
G01 Z-0.10000
G04 P0 ( dwell for no time -- G64 should not smooth over this point )
G01 F360.00000
G01 X-35.27951 Y2.38331
G01 X-35.47306 Y2.60027
G01 X-35.63971 Y2.81724
G01 X-36.11651 Y3.48458
G01 X-36.11146 Y4.41734
G04 P0 ( dwell for no time -- G64 should not smooth over this point )
G00 Z10.00000 ( retract )

G00 X-35.88934 Y6.39608 ( rapid move to begin. )
G01 F30.00000
G01 Z-0.10000
G04 P0 ( dwell for no time -- G64 should not smooth over this point )
G01 F360.00000
G01 X-35.88934 Y6.39608
G01 X-36.09696 Y4.95005
G01 X-36.11519 Y4.71396
G01 X-36.11146 Y4.41734
G01 X-34.94735 Y4.41709
G01 X-34.88093 Y4.28315
G04 P0 ( dwell for no time -- G64 should not smooth over this point )
G00 Z10.00000 ( retract )

G00 X-34.18050 Y3.17581 ( rapid move to begin. )
G01 F30.00000
G01 Z-0.10000
G04 P0 ( dwell for no time -- G64 should not smooth over this point )
G01 F360.00000
G01 X-34.18050 Y3.17581
G01 X-34.18040 Y3.98094
G01 X-34.11512 Y4.28432
G01 X-34.11865 Y6.45701
G04 P0 ( dwell for no time -- G64 should not smooth over this point )
G00 Z10.00000 ( retract )

G00 X-34.84827 Y6.46151 ( rapid move to begin. )
G01 F30.00000
G01 Z-0.10000
G04 P0 ( dwell for no time -- G64 should not smooth over this point )
G01 F360.00000
G01 X-34.84827 Y6.46151
G01 X-34.84949 Y4.85503
G01 X-34.86442 Y4.73893
G01 X-34.94735 Y4.41709
G01 X-34.84250 Y4.22095
G01 X-34.84877 Y2.63027
G04 P0 ( dwell for no time -- G64 should not smooth over this point )
G00 Z10.00000 ( retract )

G00 X-36.11651 Y3.48458 ( rapid move to begin. )
G01 F30.00000
G01 Z-0.10000
G04 P0 ( dwell for no time -- G64 should not smooth over this point )
G01 F360.00000
G01 X-36.11651 Y3.48458
G01 X-36.53539 Y3.48884
G01 X-37.16122 Y3.55059
G01 X-37.71522 Y3.55069
G01 X-37.71697 Y2.80302
G01 X-37.74161 Y2.70231
G01 X-37.78329 Y2.62895
G01 X-37.78380 Y2.33891
G01 X-37.68316 Y2.14747
G01 X-37.66038 Y2.06505
G01 X-37.65108 Y1.55072
G01 X-37.51837 Y1.50617
G04 P0 ( dwell for no time -- G64 should not smooth over this point )
G00 Z10.00000 ( retract )

G00 X-37.65108 Y1.55072 ( rapid move to begin. )
G01 F30.00000
G01 Z-0.10000
G04 P0 ( dwell for no time -- G64 should not smooth over this point )
G01 F360.00000
G01 X-37.65108 Y1.55072
G01 X-38.31590 Y1.55080
G01 X-38.76035 Y1.39187
G01 X-38.65992 Y0.87907
G01 X-38.57193 Y0.66159
G01 X-38.50764 Y0.55113
G01 X-38.47089 Y0.41595
G01 X-38.35387 Y0.15560
G01 X-38.32494 Y0.05080
G01 X-37.56817 Y0.05080
G04 P0 ( dwell for no time -- G64 should not smooth over this point )
G00 Z10.00000 ( retract )

G00 X-38.76035 Y1.39187 ( rapid move to begin. )
G01 F30.00000
G01 Z-0.10000
G04 P0 ( dwell for no time -- G64 should not smooth over this point )
G01 F360.00000
G01 X-38.76035 Y1.39187
G01 X-38.83866 Y1.41379
G01 X-38.98316 Y1.50612
G01 X-38.96893 Y1.99766
G01 X-38.92131 Y2.21717
G01 X-38.90162 Y2.40932
G01 X-38.86236 Y2.52364
G01 X-38.78443 Y2.65854
G01 X-38.58504 Y2.88618
G01 X-38.38273 Y2.65925
G01 X-38.30477 Y2.52395
G01 X-38.26563 Y2.40939
G01 X-38.31565 Y2.18234
G01 X-38.31590 Y1.55080
G04 P0 ( dwell for no time -- G64 should not smooth over this point )
G00 Z10.00000 ( retract )

G00 X-38.58504 Y2.88618 ( rapid move to begin. )
G01 F30.00000
G01 Z-0.10000
G04 P0 ( dwell for no time -- G64 should not smooth over this point )
G01 F360.00000
G01 X-38.58504 Y2.88618
G01 X-38.64193 Y3.40317
G01 X-38.58463 Y3.44668
G04 P0 ( dwell for no time -- G64 should not smooth over this point )
G00 Z10.00000 ( retract )

G00 X-38.64193 Y3.40317 ( rapid move to begin. )
G01 F30.00000
G01 Z-0.10000
G04 P0 ( dwell for no time -- G64 should not smooth over this point )
G01 F360.00000
G01 X-38.64193 Y3.40317
G01 X-39.24988 Y3.59491
G01 X-39.23345 Y4.01290
G01 X-39.16644 Y4.28409
G01 X-39.11674 Y4.41960
G01 X-39.11674 Y6.51759
G04 P0 ( dwell for no time -- G64 should not smooth over this point )
G00 Z10.00000 ( retract )

G00 X-40.12595 Y6.46727 ( rapid move to begin. )
G01 F30.00000
G01 Z-0.10000
G04 P0 ( dwell for no time -- G64 should not smooth over this point )
G01 F360.00000
G01 X-40.12595 Y6.46727
G01 X-39.84981 Y5.08373
G01 X-39.83457 Y4.78744
G01 X-39.71714 Y4.45366
G01 X-39.71694 Y4.39468
G01 X-39.81620 Y4.11772
G01 X-39.84269 Y3.99539
G01 X-39.84780 Y3.55049
G04 P0 ( dwell for no time -- G64 should not smooth over this point )
G00 Z10.00000 ( retract )

G00 X-39.84823 Y3.55069 ( rapid move to begin. )
G01 F30.00000
G01 Z-0.10000
G04 P0 ( dwell for no time -- G64 should not smooth over this point )
G01 F360.00000
G01 X-39.84823 Y3.55069
G01 X-40.58247 Y3.55069
G01 X-40.58293 Y3.98490
G01 X-40.64792 Y4.25442
G01 X-40.64963 Y4.55033
G01 X-40.58417 Y4.85516
G01 X-40.58430 Y6.46143
G04 P0 ( dwell for no time -- G64 should not smooth over this point )
G00 Z10.00000 ( retract )

G00 X-38.27785 Y6.49674 ( rapid move to begin. )
G01 F30.00000
G01 Z-0.10000
G04 P0 ( dwell for no time -- G64 should not smooth over this point )
G01 F360.00000
G01 X-38.27785 Y6.49674
G01 X-38.22217 Y5.92917
G01 X-38.44597 Y5.03664
G01 X-38.47066 Y4.72369
G01 X-38.58341 Y4.49710
G01 X-38.58463 Y3.44668
G01 X-38.15222 Y3.53901
G01 X-37.71522 Y3.55069
G01 X-37.71676 Y4.43741
G01 X-37.68560 Y4.54985
G01 X-37.81336 Y4.83840
G01 X-37.98758 Y5.33634
G01 X-38.22217 Y5.92917
G04 P0 ( dwell for no time -- G64 should not smooth over this point )
G00 Z10.00000 ( retract )

G00 X-39.24988 Y3.59491 ( rapid move to begin. )
G01 F30.00000
G01 Z-0.10000
G04 P0 ( dwell for no time -- G64 should not smooth over this point )
G01 F360.00000
G01 X-39.24988 Y3.59491
G01 X-39.58001 Y3.55138
G01 X-39.84780 Y3.55049
G01 X-39.85283 Y2.77421
G01 X-39.89045 Y2.66979
G01 X-39.98946 Y2.54412
G01 X-39.79939 Y2.09575
G01 X-39.78445 Y1.97965
G01 X-39.78445 Y1.56540
G01 X-39.31666 Y1.54313
G01 X-38.98316 Y1.50612
G04 P0 ( dwell for no time -- G64 should not smooth over this point )
G00 Z10.00000 ( retract )

G00 X-38.83866 Y1.41379 ( rapid move to begin. )
G01 F30.00000
G01 Z-0.10000
G04 P0 ( dwell for no time -- G64 should not smooth over this point )
G01 F360.00000
G01 X-38.83866 Y1.41379
G01 X-39.14267 Y0.83198
G01 X-39.18278 Y0.69792
G01 X-39.16456 Y0.58486
G01 X-39.01524 Y0.20978
G01 X-38.98806 Y0.05080
G01 X-38.32494 Y0.05080
G04 P0 ( dwell for no time -- G64 should not smooth over this point )
G00 Z10.00000 ( retract )

G00 X-38.98806 Y0.05080 ( rapid move to begin. )
G01 F30.00000
G01 Z-0.10000
G04 P0 ( dwell for no time -- G64 should not smooth over this point )
G01 F360.00000
G01 X-38.98806 Y0.05080
G01 X-39.92397 Y0.05080
G01 X-39.94305 Y0.13127
G01 X-40.12311 Y0.54359
G01 X-40.02364 Y0.66982
G01 X-39.98603 Y0.77429
G01 X-39.98173 Y1.52057
G01 X-39.78445 Y1.56540
G04 P0 ( dwell for no time -- G64 should not smooth over this point )
G00 Z10.00000 ( retract )

G00 X-39.98173 Y1.52057 ( rapid move to begin. )
G01 F30.00000
G01 Z-0.10000
G04 P0 ( dwell for no time -- G64 should not smooth over this point )
G01 F360.00000
G01 X-39.98173 Y1.52057
G01 X-40.24986 Y1.55108
G01 X-41.18277 Y1.55308
G01 X-41.10218 Y1.06225
G01 X-41.03708 Y0.81727
G01 X-40.93177 Y0.58814
G01 X-40.77155 Y0.40678
G01 X-40.78249 Y0.05080
G01 X-39.92397 Y0.05080
G04 P0 ( dwell for no time -- G64 should not smooth over this point )
G00 Z10.00000 ( retract )

G00 X-41.18277 Y1.49946 ( rapid move to begin. )
G01 F30.00000
G01 Z-0.10000
G04 P0 ( dwell for no time -- G64 should not smooth over this point )
G01 F360.00000
G01 X-41.18277 Y1.49946
G01 X-41.38171 Y1.15214
G01 X-41.69052 Y0.53068
G01 X-41.45603 Y0.27958
G01 X-41.39326 Y0.17026
G01 X-41.35298 Y0.05080
G01 X-40.78249 Y0.05080
G04 P0 ( dwell for no time -- G64 should not smooth over this point )
G00 Z10.00000 ( retract )

G00 X-41.35298 Y0.05080 ( rapid move to begin. )
G01 F30.00000
G01 Z-0.10000
G04 P0 ( dwell for no time -- G64 should not smooth over this point )
G01 F360.00000
G01 X-41.35298 Y0.05080
G01 X-42.44078 Y0.05080
G01 X-42.40487 Y0.17323
G01 X-42.27998 Y0.38303
G01 X-42.36690 Y0.59390
G01 X-42.38234 Y0.68062
G01 X-42.37807 Y2.53909
G01 X-42.12168 Y2.56121
G04 P0 ( dwell for no time -- G64 should not smooth over this point )
G00 Z10.00000 ( retract )

G00 X-41.18277 Y1.55308 ( rapid move to begin. )
G01 F30.00000
G01 Z-0.10000
G04 P0 ( dwell for no time -- G64 should not smooth over this point )
G01 F360.00000
G01 X-41.18277 Y1.55308
G01 X-41.95780 Y2.41648
G01 X-42.12168 Y2.56121
G01 X-41.85059 Y2.92392
G04 P0 ( dwell for no time -- G64 should not smooth over this point )
G00 Z10.00000 ( retract )

G00 X-40.58247 Y3.55069 ( rapid move to begin. )
G01 F30.00000
G01 Z-0.10000
G04 P0 ( dwell for no time -- G64 should not smooth over this point )
G01 F360.00000
G01 X-40.58247 Y3.55069
G01 X-40.91783 Y3.43957
G01 X-41.18277 Y3.32410
G01 X-41.85059 Y2.92392
G01 X-41.84726 Y4.61292
G01 X-41.82336 Y4.78186
G01 X-41.69941 Y5.19240
G01 X-41.41935 Y6.45935
G04 P0 ( dwell for no time -- G64 should not smooth over this point )
G00 Z10.00000 ( retract )

G00 X-43.32117 Y6.46623 ( rapid move to begin. )
G01 F30.00000
G01 Z-0.10000
G04 P0 ( dwell for no time -- G64 should not smooth over this point )
G01 F360.00000
G01 X-43.32117 Y6.46623
G01 X-42.85755 Y4.81091
G01 X-42.85153 Y4.61922
G01 X-43.08005 Y4.15437
G01 X-43.10812 Y4.05356
G01 X-43.11505 Y2.55062
G01 X-42.37807 Y2.53909
G04 P0 ( dwell for no time -- G64 should not smooth over this point )
G00 Z10.00000 ( retract )

G00 X-43.11505 Y2.55062 ( rapid move to begin. )
G01 F30.00000
G01 Z-0.10000
G04 P0 ( dwell for no time -- G64 should not smooth over this point )
G01 F360.00000
G01 X-43.11505 Y2.55062
G01 X-43.18216 Y2.54257
G01 X-43.18297 Y0.78966
G01 X-43.20647 Y0.70254
G01 X-43.24820 Y0.62903
G01 X-43.24873 Y0.33884
G01 X-43.14805 Y0.14745
G01 X-43.12343 Y0.05080
G01 X-42.44078 Y0.05080
G04 P0 ( dwell for no time -- G64 should not smooth over this point )
G00 Z10.00000 ( retract )

G00 X-43.12343 Y0.05080 ( rapid move to begin. )
G01 F30.00000
G01 Z-0.10000
G04 P0 ( dwell for no time -- G64 should not smooth over this point )
G01 F360.00000
G01 X-43.12343 Y0.05080
G01 X-43.83283 Y0.05080
G01 X-43.71607 Y0.38156
G01 X-43.73189 Y0.55065
G01 X-43.71546 Y0.83889
G01 X-43.78079 Y1.23546
G01 X-43.78549 Y2.43467
G01 X-43.36100 Y2.54963
G01 X-43.18216 Y2.54257
G04 P0 ( dwell for no time -- G64 should not smooth over this point )
G00 Z10.00000 ( retract )

G00 X-43.36100 Y2.54963 ( rapid move to begin. )
G01 F30.00000
G01 Z-0.10000
G04 P0 ( dwell for no time -- G64 should not smooth over this point )
G01 F360.00000
G01 X-43.36100 Y2.54963
G01 X-43.56298 Y3.13698
G01 X-43.71254 Y3.47772
G01 X-43.91617 Y3.88529
G01 X-43.90746 Y4.04998
G01 X-43.85267 Y4.23855
G01 X-43.84515 Y4.59626
G01 X-43.79702 Y4.74350
G01 X-43.78282 Y4.84886
G01 X-43.79021 Y6.46107
G04 P0 ( dwell for no time -- G64 should not smooth over this point )
G00 Z10.00000 ( retract )

G00 X-44.70842 Y6.46097 ( rapid move to begin. )
G01 F30.00000
G01 Z-0.10000
G04 P0 ( dwell for no time -- G64 should not smooth over this point )
G01 F360.00000
G01 X-44.70842 Y6.46097
G01 X-44.71584 Y4.87858
G01 X-44.69989 Y4.74449
G01 X-44.64992 Y4.58023
G01 X-44.65188 Y4.23847
G01 X-44.85122 Y3.67624
G01 X-45.05335 Y3.17332
G01 X-45.31736 Y2.41628
G01 X-44.20834 Y2.41836
G01 X-43.78549 Y2.43467
G04 P0 ( dwell for no time -- G64 should not smooth over this point )
G00 Z10.00000 ( retract )

G00 X-43.83283 Y0.05080 ( rapid move to begin. )
G01 F30.00000
G01 Z-0.10000
G04 P0 ( dwell for no time -- G64 should not smooth over this point )
G01 F360.00000
G01 X-43.83283 Y0.05080
G01 X-52.54513 Y0.05080
G01 X-50.81293 Y0.64155
G01 X-45.90509 Y2.21003
G01 X-45.31736 Y2.41628
G04 P0 ( dwell for no time -- G64 should not smooth over this point )
G00 Z10.00000 ( retract )

G00 X-45.38904 Y2.39809 ( rapid move to begin. )
G01 F30.00000
G01 Z-0.10000
G04 P0 ( dwell for no time -- G64 should not smooth over this point )
G01 F360.00000
G01 X-45.38904 Y2.39809
G01 X-45.37512 Y4.22123
G01 X-45.43798 Y4.34533
G01 X-45.44807 Y4.55013
G01 X-45.39630 Y4.74447
G01 X-45.38157 Y4.88160
G01 X-45.37969 Y6.46161
G04 P0 ( dwell for no time -- G64 should not smooth over this point )
G00 Z10.00000 ( retract )

G00 X-52.54513 Y0.05080 ( rapid move to begin. )
G01 F30.00000
G01 Z-0.10000
G04 P0 ( dwell for no time -- G64 should not smooth over this point )
G01 F360.00000
G01 X-52.54513 Y0.05080
G01 X-52.74391 Y0.05080
G04 P0 ( dwell for no time -- G64 should not smooth over this point )
G00 Z10.00000 ( retract )

G00 X-55.04998 Y38.63073 ( rapid move to begin. )
G01 F30.00000
G01 Z-0.10000
G04 P0 ( dwell for no time -- G64 should not smooth over this point )
G01 F360.00000
G01 X-55.04998 Y38.63073
G01 X-55.08142 Y38.40310
G01 X-55.16971 Y38.19147
G01 X-55.30901 Y38.00894
G01 X-55.50281 Y37.86221
G01 X-55.70317 Y37.78136
G01 X-55.93077 Y37.75197
G01 X-56.03565 Y37.76025
G01 X-56.18945 Y37.79098
G01 X-56.35879 Y37.86221
G01 X-56.52867 Y37.98687
G01 X-56.69186 Y38.19147
G01 X-56.78015 Y38.40310
G01 X-56.81160 Y38.63073
G01 X-56.77182 Y38.91679
G01 X-56.81696 Y38.97671
G01 X-63.18016 Y45.33991
G01 X-63.21024 Y45.36580
G01 X-63.27343 Y45.37367
G01 X-64.30086 Y45.37367
G01 X-64.40607 Y45.39544
G01 X-64.42786 Y45.50067
G01 X-64.42786 Y47.00080
G01 X-64.40607 Y47.10600
G01 X-64.30086 Y47.12780
G01 X-62.80074 Y47.12780
G01 X-62.69551 Y47.10600
G01 X-62.67374 Y47.00080
G01 X-62.67374 Y45.97337
G01 X-62.66586 Y45.91017
G01 X-62.63998 Y45.88010
G01 X-56.27677 Y39.51689
G01 X-56.21980 Y39.47343
G01 X-55.93080 Y39.50947
G01 X-55.70317 Y39.48008
G01 X-55.49052 Y39.39357
G01 X-55.30901 Y39.25250
G01 X-55.16971 Y39.06998
G01 X-55.12450 Y38.97513
G01 X-55.07424 Y38.82659
G01 X-55.04998 Y38.63073
G04 P0 ( dwell for no time -- G64 should not smooth over this point )
G00 Z10.00000 ( retract )

G00 X-27.10998 Y41.17073 ( rapid move to begin. )
G01 F30.00000
G01 Z-0.10000
G04 P0 ( dwell for no time -- G64 should not smooth over this point )
G01 F360.00000
G01 X-27.10998 Y41.17073
G01 X-27.13424 Y40.97485
G01 X-27.18450 Y40.82631
G01 X-27.22971 Y40.73147
G01 X-27.36901 Y40.54894
G01 X-27.55052 Y40.40787
G01 X-27.70688 Y40.34031
G01 X-27.99080 Y40.29197
G01 X-28.27470 Y40.34031
G01 X-28.43106 Y40.40787
G01 X-28.61257 Y40.54894
G01 X-28.75186 Y40.73147
G01 X-28.79707 Y40.82631
G01 X-28.84734 Y40.97485
G01 X-28.87160 Y41.17073
G01 X-28.84734 Y41.36659
G01 X-28.79707 Y41.51513
G01 X-28.75186 Y41.60998
G01 X-28.61257 Y41.79250
G01 X-28.43106 Y41.93357
G01 X-28.27470 Y42.00114
G01 X-27.99077 Y42.04947
G01 X-27.70688 Y42.00114
G01 X-27.55052 Y41.93357
G01 X-27.36901 Y41.79250
G01 X-27.22971 Y41.60998
G01 X-27.18450 Y41.51513
G01 X-27.13424 Y41.36659
G01 X-27.10998 Y41.17073
G04 P0 ( dwell for no time -- G64 should not smooth over this point )
G00 Z10.00000 ( retract )

G00 X-6.79371 Y42.96067 ( rapid move to begin. )
G01 F30.00000
G01 Z-0.10000
G04 P0 ( dwell for no time -- G64 should not smooth over this point )
G01 F360.00000
G01 X-6.79371 Y42.96067
G01 X-6.79371 Y44.46080
G01 X-6.81551 Y44.56598
G01 X-6.92074 Y44.58780
G01 X-8.42086 Y44.58780
G01 X-8.52607 Y44.56600
G01 X-8.54786 Y44.46080
G01 X-8.54786 Y42.96067
G01 X-8.52607 Y42.85544
G01 X-8.42086 Y42.83367
G01 X-6.92074 Y42.83367
G01 X-6.81551 Y42.85546
G01 X-6.79371 Y42.96067
G04 P0 ( dwell for no time -- G64 should not smooth over this point )
G00 Z10.00000 ( retract )

G00 X-6.78995 Y41.17073 ( rapid move to begin. )
G01 F30.00000
G01 Z-0.10000
G04 P0 ( dwell for no time -- G64 should not smooth over this point )
G01 F360.00000
G01 X-6.78995 Y41.17073
G01 X-6.81424 Y40.97485
G01 X-6.86450 Y40.82631
G01 X-6.90971 Y40.73147
G01 X-7.04901 Y40.54894
G01 X-7.23052 Y40.40787
G01 X-7.38688 Y40.34031
G01 X-7.67077 Y40.29197
G01 X-7.95470 Y40.34031
G01 X-8.11106 Y40.40787
G01 X-8.29257 Y40.54894
G01 X-8.43186 Y40.73147
G01 X-8.47707 Y40.82631
G01 X-8.52734 Y40.97485
G01 X-8.55160 Y41.17073
G01 X-8.52734 Y41.36659
G01 X-8.47707 Y41.51513
G01 X-8.43186 Y41.60998
G01 X-8.29257 Y41.79250
G01 X-8.11106 Y41.93357
G01 X-7.95470 Y42.00114
G01 X-7.67077 Y42.04947
G01 X-7.38688 Y42.00114
G01 X-7.23052 Y41.93357
G01 X-7.04901 Y41.79250
G01 X-6.90971 Y41.60998
G01 X-6.86450 Y41.51513
G01 X-6.81424 Y41.36659
G01 X-6.78995 Y41.17073

G04 P0 ( dwell for no time -- G64 should not smooth over this point )
G00 Z50.000 ( retract )

M5 ( Spindle off. )
G04 P1.000000
M9 ( Coolant off. )
M2 ( Program end. )

