( pcb2gcode 2.4.0 )
( Software-independent Gcode )

G94 ( Millimeters per minute feed rate. )
G21 ( Units == Millimeters. )

G90 ( Absolute coordinates. )
G00 S10000 ( RPM spindle speed. )
G01 F360.00000 ( Feedrate. )


G00 Z50.00000 (Retract to tool change height)
T0
M5      (Spindle stop.)
G04 P1.00000 (Wait for spindle to stop)
(MSG, Change tool bit to mill diameter 0.50800mm)
M6      (Tool change.)
M0      (Temporary machine stop.)
M3 ( Spindle on clockwise. )
G04 P1.00000 (Wait for spindle to get up to speed)
G04 P0 ( dwell for no time -- G64 should not smooth over this point )
G00 Z10.00000 ( retract )

G00 X-18.59150 Y-0.25400 ( rapid move to begin. )
G01 F30.00000
( Mill infeed pass 1/1 )
G01 Z-0.10000
G04 P0 ( dwell for no time -- G64 should not smooth over this point )
G01 F360.00000
G01 X-18.59150 Y-0.25400
G01 X0.25400 Y-0.25400
G01 X0.25400 Y50.00993
G01 X-72.38997 Y50.00993
G01 X-72.38997 Y-0.25400
G01 X-53.87528 Y-0.25400
G01 X-53.24180 Y0.43249
G01 X-51.64003 Y0.96652
G01 X-51.21707 Y1.12121
G01 X-50.44041 Y1.36180
G01 X-46.34382 Y2.67305
G01 X-46.12747 Y2.74930
G01 X-45.83859 Y2.85806
G01 X-45.84075 Y4.07982
G01 X-45.83735 Y4.27548
G01 X-45.83857 Y4.62785
G01 X-45.83341 Y4.67749
G01 X-45.87763 Y4.75173
G01 X-45.90158 Y4.82514
G01 X-45.90527 Y4.85473
G01 X-45.90623 Y5.00731
G01 X-45.89513 Y5.08467
G01 X-45.86516 Y5.16062
G01 X-45.85155 Y5.20807
G01 X-45.83859 Y5.33865
G01 X-45.84342 Y6.22364
G01 X-45.83994 Y6.91863
G01 X-45.66940 Y6.92353
G01 X-45.38322 Y6.92447
G01 X-45.17344 Y6.91863
G01 X-45.17692 Y6.22163
G01 X-45.17210 Y5.34060
G01 X-45.16511 Y5.24652
G01 X-45.15571 Y5.19753
G01 X-45.10959 Y5.05330
G01 X-45.10537 Y5.00774
G01 X-45.10499 Y4.74129
G01 X-45.10908 Y4.69567
G01 X-45.12391 Y4.64119
G01 X-45.20522 Y4.44152
G01 X-45.30842 Y4.13344
G01 X-45.35246 Y4.01673
G01 X-45.51022 Y3.63085
G01 X-45.65820 Y3.22544
G01 X-45.77390 Y2.87442
G01 X-45.83859 Y2.85806
G01 X-45.77390 Y2.87442
G01 X-44.66895 Y2.87543
G01 X-44.24269 Y2.89179
G01 X-43.82381 Y3.00627
G01 X-43.63517 Y2.99944
G01 X-43.57479 Y3.00746
G01 X-43.07657 Y3.00718
G01 X-42.83527 Y2.99629
G01 X-42.58000 Y3.01897
G01 X-42.38318 Y3.27444
G01 X-42.30647 Y3.38125
G01 X-42.30550 Y5.02925
G01 X-42.29595 Y5.15612
G01 X-42.26248 Y5.31106
G01 X-42.19351 Y5.51637
G01 X-42.15501 Y5.65615
G01 X-41.87434 Y6.91670
G01 X-41.65948 Y6.92353
G01 X-41.24020 Y6.92450
G01 X-41.04018 Y6.91855
G01 X-40.84015 Y6.92450
G01 X-40.57886 Y6.92450
G01 X-40.24859 Y6.97421
G01 X-39.92669 Y6.99021
G01 X-39.57394 Y6.97502
G01 X-39.57394 Y4.87764
G01 X-39.60932 Y4.78859
G01 X-39.63319 Y4.70672
G01 X-39.68427 Y4.50360
G01 X-39.69944 Y4.41404
G01 X-39.70835 Y4.24823
G01 X-39.70729 Y4.05211
G01 X-39.26644 Y3.90624
G01 X-39.09903 Y3.85912
G01 X-39.04325 Y3.34269
G01 X-38.94966 Y3.24792
G01 X-38.84023 Y3.11572
G01 X-38.81417 Y3.07670
G01 X-38.76228 Y2.98084
G01 X-38.72708 Y2.88455
G01 X-38.71760 Y2.84419
G01 X-38.76170 Y2.70678
G01 X-38.77396 Y2.62748
G01 X-38.77422 Y2.00777
G01 X-38.95476 Y1.94848
G01 X-39.21712 Y1.84899
G01 X-39.14394 Y1.43434
G01 X-39.10371 Y1.29776
G01 X-39.01999 Y1.09875
G01 X-38.96517 Y1.00744
G01 X-38.95501 Y0.95618
G01 X-38.93726 Y0.89586
G01 X-38.87473 Y0.74216
G01 X-38.81674 Y0.62746
G01 X-38.79040 Y0.55291
G01 X-38.78148 Y0.50698
G01 X-38.77544 Y0.43673
G01 X-38.77335 Y0.34496
G01 X-38.77638 Y0.07953
G01 X-38.77422 Y-0.25400
G01 X-39.44071 Y-0.25400
G01 X-39.44170 Y0.44133
G01 X-39.44986 Y0.55705
G01 X-39.47102 Y0.66126
G01 X-39.48379 Y0.70353
G01 X-39.62509 Y1.05115
G01 X-39.63830 Y1.10800
G01 X-39.63891 Y1.17079
G01 X-39.62156 Y1.24087
G01 X-39.59296 Y1.30432
G01 X-39.47297 Y1.54427
G01 X-39.29670 Y1.87147
G01 X-39.21712 Y1.84899
G01 X-39.29670 Y1.87147
G01 X-39.44036 Y1.96332
G01 X-39.43949 Y2.30363
G01 X-39.43182 Y2.42354
G01 X-39.37922 Y2.66959
G01 X-39.36657 Y2.82750
G01 X-39.35882 Y2.86652
G01 X-39.33571 Y2.94188
G01 X-39.31956 Y2.98084
G01 X-39.27236 Y3.07040
G01 X-39.21023 Y3.15788
G01 X-39.04325 Y3.34269
G01 X-39.09903 Y3.85912
G01 X-39.04079 Y3.90411
G01 X-39.04082 Y4.95297
G01 X-38.96647 Y5.08805
G01 X-38.93492 Y5.16062
G01 X-38.92443 Y5.19587
G01 X-38.91529 Y5.24190
G01 X-38.90891 Y5.31221
G01 X-38.90648 Y5.47916
G01 X-38.67909 Y6.39290
G01 X-38.73569 Y6.95378
G01 X-38.67909 Y6.39290
G01 X-38.54356 Y6.03174
G01 X-38.44112 Y5.78795
G01 X-38.37048 Y5.59679
G01 X-38.26137 Y5.27294
G01 X-38.19187 Y5.10863
G01 X-38.14178 Y5.00870
G01 X-38.16718 Y4.93547
G01 X-38.17440 Y4.87423
G01 X-38.17447 Y3.25496
G01 X-38.17821 Y3.22494
G01 X-38.19276 Y3.17419
G01 X-38.24049 Y3.08572
G01 X-38.24100 Y2.79634
G01 X-38.20163 Y2.72926
G01 X-38.15024 Y2.62745
G01 X-38.12075 Y2.54099
G01 X-38.10785 Y2.41084
G01 X-38.10782 Y2.00777
G01 X-37.97341 Y1.96324
G01 X-37.97287 Y1.66698
G01 X-37.96149 Y1.56746
G01 X-37.92482 Y1.40754
G01 X-37.90945 Y1.30729
G01 X-37.90945 Y1.10833
G01 X-37.92487 Y1.00790
G01 X-37.91331 Y0.94653
G01 X-37.90805 Y0.83861
G01 X-37.94811 Y0.75392
G01 X-37.99065 Y0.62746
G01 X-38.02253 Y0.52250
G01 X-38.03371 Y0.45834
G01 X-38.04201 Y0.31077
G01 X-38.04117 Y-0.25397
G01 X-40.37376 Y-0.25397
G01 X-40.37292 Y0.34564
G01 X-40.38031 Y0.50226
G01 X-40.40025 Y0.58847
G01 X-40.47279 Y0.74155
G01 X-40.57973 Y1.00096
G01 X-40.51417 Y1.07584
G01 X-40.48897 Y1.11295
G01 X-40.46040 Y1.16906
G01 X-40.44180 Y1.24107
G01 X-40.44033 Y1.97813
G01 X-40.24043 Y2.02232
G01 X-40.24043 Y2.41043
G01 X-40.25339 Y2.54102
G01 X-40.28293 Y2.62748
G01 X-40.33959 Y2.74155
G01 X-40.44706 Y3.00231
G01 X-40.38750 Y3.06659
G01 X-40.35582 Y3.11287
G01 X-40.32547 Y3.17429
G01 X-40.30797 Y3.24455
G01 X-40.30850 Y4.17589
G01 X-40.30426 Y4.40835
G01 X-40.29956 Y4.45839
G01 X-40.28359 Y4.54444
G01 X-40.22885 Y4.71033
G01 X-40.17378 Y4.85173
G01 X-40.17378 Y4.91185
G01 X-40.21115 Y4.98846
G01 X-40.23296 Y5.04937
G01 X-40.28343 Y5.20934
G01 X-40.29608 Y5.26659
G01 X-40.30624 Y5.37185
G01 X-40.30711 Y5.54104
G01 X-40.41221 Y6.05442
G01 X-40.57886 Y6.92450
G01 X-40.84015 Y6.92450
G01 X-41.04018 Y6.91855
G01 X-41.04015 Y5.34114
G01 X-41.04719 Y5.24657
G01 X-41.05374 Y5.20791
G01 X-41.10032 Y5.06905
G01 X-41.10754 Y5.00774
G01 X-41.10708 Y4.74129
G01 X-41.10281 Y4.69570
G01 X-41.05664 Y4.55160
G01 X-41.04223 Y4.45229
G01 X-41.04015 Y4.00789
G01 X-41.37340 Y3.89722
G01 X-41.48712 Y3.84399
G01 X-41.63997 Y3.78071
G01 X-42.30647 Y3.38125
G01 X-41.63997 Y3.78071
G01 X-41.48712 Y3.84399
G01 X-41.37340 Y3.89722
G01 X-41.04015 Y4.00789
G01 X-40.03721 Y4.00787
G01 X-39.90279 Y4.01615
G01 X-39.70729 Y4.05211
G01 X-39.26644 Y3.90624
G01 X-39.09903 Y3.85912
G01 X-39.04079 Y3.90411
G01 X-38.62893 Y3.99298
G01 X-38.46060 Y4.00693
G01 X-37.61842 Y4.00693
G01 X-37.50793 Y4.00045
G01 X-37.04532 Y3.95059
G01 X-36.80333 Y3.94010
G01 X-36.57331 Y3.94122
G01 X-36.57328 Y4.61848
G01 X-36.56825 Y4.87779
G01 X-36.57328 Y5.01828
G01 X-36.57232 Y5.17116
G01 X-36.55405 Y5.40791
G01 X-36.34854 Y6.85386
G01 X-35.96993 Y6.90822
G01 X-35.61776 Y6.92442
G01 X-35.30547 Y6.91871
G01 X-35.13628 Y6.92353
G01 X-34.85010 Y6.92447
G01 X-34.57585 Y6.91421
G01 X-34.57199 Y4.74129
G01 X-34.57936 Y4.68048
G01 X-34.62254 Y4.55155
G01 X-34.63689 Y4.45237
G01 X-34.63897 Y3.63210
G01 X-34.30572 Y3.78341
G01 X-34.03915 Y3.85633
G01 X-33.77258 Y3.88061
G01 X-33.61182 Y3.87441
G01 X-33.43831 Y3.86108
G01 X-33.61182 Y3.87441
G01 X-33.77258 Y3.88061
G01 X-33.61182 Y3.87441
G01 X-33.43831 Y3.86108
G01 X-33.44149 Y3.66926
G01 X-33.43847 Y3.40393
G01 X-33.44454 Y3.25631
G01 X-33.45579 Y3.19745
G01 X-33.50189 Y3.05717
G01 X-33.50689 Y2.97787
G01 X-33.51251 Y2.94658
G01 X-33.53918 Y2.87536
G01 X-34.14037 Y2.87261
G01 X-34.51725 Y2.87924
G01 X-35.50529 Y2.87152
G01 X-35.51334 Y2.86398
G01 X-35.30547 Y3.08750
G01 X-35.30544 Y4.58803
G01 X-35.29968 Y4.67782
G01 X-35.34486 Y4.75333
G01 X-35.40503 Y4.87533
G01 X-35.39061 Y4.90766
G01 X-35.37646 Y4.95844
G01 X-35.36853 Y5.05343
G01 X-35.36142 Y5.08437
G01 X-35.32129 Y5.19758
G01 X-35.31029 Y5.25650
G01 X-35.30669 Y5.31223
G01 X-35.30547 Y6.91871
G01 X-35.30669 Y5.31223
G01 X-35.31029 Y5.25650
G01 X-35.32129 Y5.19758
G01 X-35.36645 Y5.06481
G01 X-35.37646 Y4.95844
G01 X-35.39993 Y4.88503
G01 X-35.40503 Y4.87533
G01 X-35.45444 Y4.87363
G01 X-36.00651 Y4.87261
G01 X-36.19193 Y4.87766
G01 X-36.56825 Y4.87779
G01 X-36.57328 Y4.61848
G01 X-36.57331 Y3.94122
G01 X-36.09691 Y3.27444
G01 X-35.93020 Y3.05745
G01 X-35.73661 Y2.84043
G01 X-35.51334 Y2.86398
G01 X-35.30547 Y3.08750
G01 X-35.12508 Y3.25214
G01 X-34.81936 Y3.50172
G01 X-34.63897 Y3.63210
G01 X-34.30572 Y3.78341
G01 X-34.19188 Y3.81561
G01 X-34.03915 Y3.85633
G01 X-33.77258 Y3.88061
G01 X-33.61182 Y3.87441
G01 X-33.43831 Y3.86108
G01 X-33.36414 Y3.86867
G01 X-33.11449 Y3.88069
G01 X-33.04052 Y3.88846
G01 X-32.85866 Y3.87551
G01 X-32.67428 Y3.87370
G01 X-32.63961 Y3.87421
G01 X-32.57304 Y3.89181
G01 X-32.43961 Y3.88059
G01 X-32.28701 Y3.87551
G01 X-32.17314 Y3.88061
G01 X-31.83989 Y3.91198
G01 X-31.83989 Y3.47436
G01 X-31.83567 Y3.38435
G01 X-31.83072 Y3.33416
G01 X-31.81289 Y3.23466
G01 X-31.77868 Y3.07952
G01 X-31.77324 Y3.00777
G01 X-31.77324 Y2.83848
G01 X-31.81751 Y2.74132
G01 X-31.88848 Y2.52235
G01 X-31.89902 Y2.45839
G01 X-31.90657 Y2.34498
G01 X-31.90657 Y2.03002
G01 X-31.90657 Y2.34498
G01 X-31.89902 Y2.45839
G01 X-31.88848 Y2.52235
G01 X-31.81751 Y2.74132
G01 X-31.77324 Y2.83848
G01 X-31.77324 Y3.00777
G01 X-31.77868 Y3.07952
G01 X-31.81289 Y3.23466
G01 X-31.83072 Y3.33416
G01 X-31.83567 Y3.38435
G01 X-31.83989 Y3.47436
G01 X-31.83989 Y3.91198
G01 X-31.50570 Y4.09209
G01 X-31.50756 Y4.42529
G01 X-31.58876 Y4.60939
G01 X-31.64487 Y4.75826
G01 X-31.69216 Y4.95325
G01 X-31.70631 Y5.12161
G01 X-31.69549 Y5.30951
G01 X-31.67304 Y5.42864
G01 X-31.34266 Y6.91624
G01 X-31.67304 Y5.42864
G01 X-31.69549 Y5.30951
G01 X-31.70636 Y5.16062
G01 X-31.69509 Y4.97284
G01 X-31.65676 Y4.79725
G01 X-31.58876 Y4.60939
G01 X-31.50756 Y4.42529
G01 X-31.50570 Y4.09209
G01 X-31.38315 Y4.03052
G01 X-31.24009 Y3.96479
G01 X-31.10687 Y3.92963
G01 X-30.93446 Y3.89237
G01 X-30.72653 Y3.87551
G01 X-30.50703 Y3.87421
G01 X-30.37380 Y3.83847
G01 X-30.24866 Y3.86055
G01 X-30.07921 Y3.87439
G01 X-29.91432 Y3.81028
G01 X-29.77563 Y3.76301
G01 X-29.50101 Y3.73283
G01 X-29.37452 Y3.71211
G01 X-28.90667 Y3.81554
G01 X-28.90919 Y3.58077
G01 X-28.90634 Y3.40357
G01 X-28.91488 Y3.23781
G01 X-28.92692 Y3.18348
G01 X-28.94079 Y3.14244
G01 X-28.97660 Y3.06918
G01 X-28.99509 Y3.01856
G01 X-29.03350 Y2.85397
G01 X-29.03974 Y2.80411
G01 X-29.03725 Y2.72006
G01 X-29.01894 Y2.62098
G01 X-29.03588 Y2.52268
G01 X-29.04061 Y2.44117
G01 X-29.04195 Y1.91107
G01 X-28.90746 Y1.87422
G01 X-28.90746 Y0.87620
G01 X-28.73967 Y0.74933
G01 X-28.71371 Y0.70505
G01 X-28.70700 Y0.58611
G01 X-28.70756 Y-0.25400
G01 X-27.90934 Y-0.25400
G01 X-27.90632 Y-0.02355
G01 X-27.90889 Y0.43990
G01 X-28.04010 Y0.64122
G01 X-28.06093 Y0.68016
G01 X-28.15976 Y0.91714
G01 X-28.16916 Y0.95037
G01 X-28.17505 Y1.00096
G01 X-28.17561 Y1.17097
G01 X-28.19276 Y1.24140
G01 X-28.33492 Y1.52883
G01 X-28.43720 Y1.72093
G01 X-28.48534 Y1.87267
G01 X-28.24112 Y1.97825
G01 X-28.24196 Y2.34495
G01 X-28.23972 Y2.43670
G01 X-28.23340 Y2.50703
G01 X-28.20937 Y2.60126
G01 X-28.14208 Y2.74132
G01 X-28.11450 Y2.80797
G01 X-28.16433 Y2.93550
G01 X-28.17211 Y2.97457
G01 X-28.17785 Y3.05346
G01 X-28.19296 Y3.10792
G01 X-28.26167 Y3.27363
G01 X-28.37050 Y3.59679
G01 X-28.44482 Y3.79710
G01 X-28.47762 Y3.87449
G01 X-28.24061 Y3.97810
G01 X-28.23987 Y4.43672
G01 X-28.23383 Y4.50698
G01 X-28.22491 Y4.55290
G01 X-28.19857 Y4.62745
G01 X-28.08585 Y4.84883
G01 X-27.98501 Y5.07091
G01 X-27.97675 Y5.07779
G01 X-27.97741 Y5.21332
G01 X-27.98120 Y5.25234
G01 X-28.01155 Y5.40461
G01 X-28.44688 Y6.92353
G01 X-28.72707 Y6.92353
G01 X-28.90881 Y6.91863
G01 X-28.91229 Y6.22364
G01 X-28.90746 Y5.76605
G01 X-28.90954 Y5.29671
G01 X-28.91450 Y5.24650
G01 X-28.92659 Y5.18571
G01 X-28.95585 Y5.10802
G01 X-28.97068 Y5.05346
G01 X-28.97475 Y5.00774
G01 X-28.97416 Y4.74144
G01 X-28.97830 Y4.69577
G01 X-29.02438 Y4.55155
G01 X-29.03377 Y4.50258
G01 X-29.04081 Y4.40807
G01 X-29.04081 Y4.34073
G01 X-28.80563 Y3.87198
G01 X-28.90667 Y3.81554
G01 X-28.80563 Y3.87198
G01 X-28.47762 Y3.87449
G01 X-28.24061 Y3.97810
G01 X-28.06235 Y3.99880
G01 X-27.92722 Y4.00766
G01 X-22.84722 Y4.00787
G01 X-22.20785 Y3.40779
G01 X-21.40801 Y2.60795
G01 X-20.83514 Y2.00777
G01 X-20.19082 Y1.39078
G01 X-19.37174 Y0.56977
G01 X-18.87604 Y0.05761
G01 X-18.59150 Y-0.25400
G01 X-34.90554 Y-0.25400
G01 X-34.90529 Y0.62784
G01 X-34.89975 Y0.67775
G01 X-34.94499 Y0.75334
G01 X-35.00509 Y0.87533
G01 X-34.94499 Y0.75334
G01 X-34.89975 Y0.67775
G01 X-34.90529 Y0.62784
G01 X-34.90554 Y-0.25400
G01 X-41.23639 Y-0.25400
G01 X-41.23705 Y0.05413
G01 X-41.24211 Y0.23988
G01 X-41.23931 Y0.37452
G01 X-41.24119 Y0.75629
G01 X-41.23007 Y0.86411
G01 X-41.32105 Y0.95542
G01 X-41.36827 Y1.01249
G01 X-41.41927 Y1.09875
G01 X-41.49451 Y1.27445
G01 X-41.52938 Y1.37869
G01 X-41.55882 Y1.51653
G01 X-41.60144 Y1.77005
G01 X-41.64066 Y1.96225
G01 X-41.64089 Y2.00884
G01 X-41.64066 Y1.96225
G01 X-41.83347 Y1.61981
G01 X-42.14960 Y0.98953
G01 X-41.97274 Y0.80838
G01 X-41.92364 Y0.75118
G01 X-41.88015 Y0.68664
G01 X-41.85061 Y0.62746
G01 X-41.80810 Y0.50744
G01 X-41.78336 Y0.37107
G01 X-41.77332 Y0.20980
G01 X-41.77332 Y-0.25400
G01 X-41.23639 Y-0.25400
G01 X-44.30583 Y-0.25397
G01 X-44.30667 Y0.31077
G01 X-44.29836 Y0.45834
G01 X-44.28719 Y0.52250
G01 X-44.25531 Y0.62746
G01 X-44.21276 Y0.75392
G01 X-44.17271 Y0.83861
G01 X-44.17797 Y0.94653
G01 X-44.18952 Y1.00790
G01 X-44.17411 Y1.10833
G01 X-44.17411 Y1.30729
G01 X-44.18947 Y1.40754
G01 X-44.22615 Y1.56746
G01 X-44.23898 Y1.69347
G01 X-44.24269 Y2.89179
G01 X-43.82381 Y3.00627
G01 X-43.85109 Y3.09690
G01 X-44.01899 Y3.59423
G01 X-44.18741 Y3.97157
G01 X-44.37238 Y4.34068
G01 X-44.37238 Y4.40794
G01 X-44.36534 Y4.50251
G01 X-44.35592 Y4.55155
G01 X-44.30987 Y4.69575
G01 X-44.30573 Y4.74144
G01 X-44.30631 Y5.00776
G01 X-44.30225 Y5.05343
G01 X-44.28747 Y5.10797
G01 X-44.25820 Y5.18574
G01 X-44.24614 Y5.24652
G01 X-44.24121 Y5.29674
G01 X-44.23700 Y5.66880
G01 X-44.24401 Y6.22358
G01 X-44.24050 Y6.91866
G01 X-44.05876 Y6.92353
G01 X-43.77858 Y6.92353
G01 X-43.31952 Y7.02274
G01 X-42.85910 Y7.05691
G01 X-42.51150 Y7.04157
G01 X-42.20286 Y6.99554
G01 X-41.87434 Y6.91670
G01 X-41.65948 Y6.92353
G01 X-41.24020 Y6.92450
G01 X-41.04018 Y6.91855
G01 X-40.84015 Y6.92450
G01 X-40.57886 Y6.92450
G01 X-40.24859 Y6.97421
G01 X-39.92669 Y6.99021
G01 X-39.57394 Y6.97502
G01 X-39.22121 Y6.99021
G01 X-38.73569 Y6.95378
G01 X-38.38923 Y7.02254
G01 X-37.92746 Y7.05691
G01 X-37.48842 Y7.05691
G01 X-37.00841 Y7.01987
G01 X-36.52718 Y6.91116
G01 X-36.34854 Y6.85386
G01 X-35.96993 Y6.90822
G01 X-35.61776 Y6.92442
G01 X-35.30547 Y6.91871
G01 X-35.13628 Y6.92353
G01 X-34.85010 Y6.92447
G01 X-34.57585 Y6.91421
G01 X-34.32520 Y6.92353
G01 X-33.78304 Y6.92226
G01 X-33.31954 Y7.02274
G01 X-32.85912 Y7.05691
G01 X-32.57301 Y7.04708
G01 X-32.45957 Y7.05409
G01 X-32.00278 Y7.04299
G01 X-31.65323 Y6.99323
G01 X-31.34266 Y6.91624
G01 X-31.08589 Y6.92442
G01 X-30.50837 Y6.91863
G01 X-30.33771 Y6.92353
G01 X-30.05178 Y6.92447
G01 X-29.84200 Y6.91863
G01 X-29.62125 Y6.92353
G01 X-29.37053 Y6.91421
G01 X-28.72707 Y6.92353
G01 X-28.44688 Y6.92353
G01 X-27.98783 Y7.02274
G01 X-27.52740 Y7.05691
G01 X-27.17980 Y7.04157
G01 X-26.83215 Y6.98774
G01 X-26.31775 Y6.84299
G01 X-26.04099 Y6.73176
G01 X-25.76426 Y6.59605
G01 X-25.27267 Y6.30085
G01 X-24.78113 Y5.92976
G01 X-24.20793 Y5.40791
G01 X-23.40800 Y4.60794
G01 X-22.84722 Y4.00787
G01 X-22.20785 Y3.40779
G01 X-21.40801 Y2.60795
G01 X-20.83514 Y2.00777
G01 X-27.52740 Y2.00777
G01 X-27.72727 Y2.02766
G01 X-27.77452 Y2.03708
G01 X-27.92720 Y2.01219
G01 X-28.24112 Y1.97825
G01 X-28.48534 Y1.87267
G01 X-28.90746 Y1.87422
G01 X-29.04195 Y1.91107
G01 X-29.11556 Y1.89735
G01 X-29.26817 Y1.87810
G01 X-29.50728 Y1.85649
G01 X-29.64053 Y1.89184
G01 X-29.90720 Y1.87455
G01 X-30.27429 Y1.87455
G01 X-30.37380 Y1.91473
G01 X-30.57634 Y1.93482
G01 X-30.72653 Y1.94061
G01 X-30.95285 Y1.91861
G01 X-31.17464 Y1.87439
G01 X-31.32800 Y1.79725
G01 X-31.41861 Y1.84597
G01 X-31.64002 Y1.94053
G01 X-31.90657 Y2.03002
G01 X-32.07431 Y2.01183
G01 X-32.17314 Y2.00716
G01 X-32.63961 Y2.00777
G01 X-33.01667 Y1.88432
G01 X-33.10621 Y1.89781
G01 X-33.25894 Y1.87805
G01 X-33.34169 Y1.87190
G01 X-33.50600 Y1.92123
G01 X-33.61974 Y1.93340
G01 X-33.75309 Y1.94122
G01 X-34.25439 Y1.94122
G01 X-34.44433 Y2.02885
G01 X-34.64248 Y2.13187
G01 X-34.90554 Y2.29913
G01 X-35.07100 Y2.44813
G01 X-35.42048 Y2.78039
G01 X-35.51334 Y2.86398
G01 X-35.73661 Y2.84043
G01 X-36.32708 Y2.00668
G01 X-36.37587 Y1.15542
G01 X-36.39706 Y0.94125
G01 X-36.38512 Y0.87610
G01 X-36.37430 Y0.62748
G01 X-36.37389 Y-0.25400
G01 X-36.37430 Y0.62748
G01 X-36.38512 Y0.87610
G01 X-35.98360 Y0.87925
G01 X-35.60671 Y0.87262
G01 X-35.00509 Y0.87533
G01 X-34.99071 Y0.90757
G01 X-34.97654 Y0.95839
G01 X-34.96653 Y1.06490
G01 X-34.92137 Y1.19761
G01 X-34.91037 Y1.25659
G01 X-34.90430 Y1.47378
G01 X-34.90770 Y1.66957
G01 X-34.90554 Y2.29913
G01 X-34.64248 Y2.13187
G01 X-34.44433 Y2.02885
G01 X-34.25439 Y1.94122
G01 X-34.17250 Y1.54104
G01 X-34.17164 Y1.37183
G01 X-34.16148 Y1.26660
G01 X-34.14883 Y1.20934
G01 X-34.09836 Y1.04938
G01 X-34.07654 Y0.98847
G01 X-34.03918 Y0.91186
G01 X-34.03918 Y0.85174
G01 X-34.07153 Y0.77358
G01 X-34.13902 Y0.57462
G01 X-34.15358 Y0.52261
G01 X-34.16440 Y0.45877
G01 X-34.17250 Y0.34140
G01 X-34.17364 Y0.24575
G01 X-34.17240 Y-0.25400
G01 X-33.63946 Y-0.25400
G01 X-33.63752 Y0.40767
G01 X-33.63260 Y0.45786
G01 X-33.61690 Y0.53947
G01 X-33.58792 Y0.63149
G01 X-33.57750 Y0.68268
G01 X-33.57270 Y0.74130
G01 X-33.57270 Y0.95291
G01 X-33.49821 Y1.08811
G01 X-33.46668 Y1.16063
G01 X-33.45619 Y1.19583
G01 X-33.44705 Y1.24186
G01 X-33.44067 Y1.31209
G01 X-33.43826 Y1.47968
G01 X-33.34169 Y1.87190
G01 X-33.50600 Y1.92123
G01 X-33.50572 Y2.74089
G01 X-33.51660 Y2.81798
G01 X-33.53918 Y2.87536
G01 X-33.51251 Y2.94658
G01 X-33.50689 Y2.97787
G01 X-33.50189 Y3.05717
G01 X-33.45579 Y3.19745
G01 X-33.44454 Y3.25631
G01 X-33.43847 Y3.40393
G01 X-33.44149 Y3.66926
G01 X-33.43831 Y3.86108
G01 X-33.36414 Y3.86867
G01 X-33.11449 Y3.88069
G01 X-33.04052 Y3.88846
G01 X-32.85866 Y3.87551
G01 X-32.67428 Y3.87370
G01 X-32.63961 Y3.87421
G01 X-32.57304 Y3.89181
G01 X-32.43961 Y3.88059
G01 X-32.28701 Y3.87551
G01 X-32.17314 Y3.88061
G01 X-31.83989 Y3.91198
G01 X-31.50570 Y4.09209
G01 X-31.38315 Y4.03052
G01 X-31.24009 Y3.96479
G01 X-31.24007 Y2.94427
G01 X-31.26387 Y2.92494
G01 X-31.29404 Y2.84000
G01 X-31.30207 Y2.79961
G01 X-31.20268 Y2.59392
G01 X-31.18218 Y2.51694
G01 X-31.17339 Y2.40807
G01 X-31.17464 Y1.87439
G01 X-31.32800 Y1.79725
G01 X-31.33085 Y1.76413
G01 X-31.41033 Y1.40754
G01 X-31.43128 Y1.27871
G01 X-31.43512 Y1.23972
G01 X-31.43512 Y1.04244
G01 X-31.40994 Y0.87307
G01 X-31.41927 Y0.82639
G01 X-31.43882 Y0.65593
G01 X-31.44147 Y-0.25400
G01 X-29.57058 Y-0.25400
G01 X-29.57520 Y0.27549
G01 X-29.57304 Y0.62746
G01 X-29.56141 Y0.70670
G01 X-29.54716 Y0.75352
G01 X-29.50769 Y0.83871
G01 X-29.50728 Y1.85649
G01 X-29.64053 Y1.89184
G01 X-29.63969 Y2.47609
G01 X-29.64866 Y2.57645
G01 X-29.66273 Y2.63665
G01 X-29.69176 Y2.71201
G01 X-29.72537 Y2.76984
G01 X-29.77845 Y2.83487
G01 X-29.80004 Y2.92626
G01 X-29.78287 Y2.99009
G01 X-29.77342 Y3.06459
G01 X-29.77545 Y3.33667
G01 X-29.77218 Y3.54673
G01 X-29.77563 Y3.76301
G01 X-29.91432 Y3.81028
G01 X-30.07921 Y3.87439
G01 X-29.97700 Y4.13342
G01 X-29.87385 Y4.44127
G01 X-29.79240 Y4.64116
G01 X-29.78061 Y4.68020
G01 X-29.77375 Y4.73464
G01 X-29.77380 Y5.00774
G01 X-29.77802 Y5.05330
G01 X-29.82422 Y5.19750
G01 X-29.83362 Y5.24650
G01 X-29.84066 Y5.34101
G01 X-29.84548 Y6.22364
G01 X-29.84200 Y6.91863
G01 X-30.05178 Y6.92447
G01 X-30.33771 Y6.92353
G01 X-30.50837 Y6.91863
G01 X-30.51185 Y6.22430
G01 X-30.50703 Y5.33880
G01 X-30.51360 Y5.24688
G01 X-30.52285 Y5.19760
G01 X-30.56275 Y5.08432
G01 X-30.56969 Y5.05338
G01 X-30.57395 Y5.00733
G01 X-30.57324 Y4.85473
G01 X-30.56699 Y4.81350
G01 X-30.55523 Y4.77446
G01 X-30.52501 Y4.71282
G01 X-30.50169 Y4.67749
G01 X-30.50695 Y4.62788
G01 X-30.50703 Y3.87421
G01 X-30.37380 Y3.83847
G01 X-30.37487 Y3.50086
G01 X-30.37091 Y3.38526
G01 X-30.36595 Y3.33505
G01 X-30.34414 Y3.22143
G01 X-30.31470 Y3.09382
G01 X-30.30753 Y3.02397
G01 X-30.31261 Y2.93586
G01 X-30.33001 Y2.85166
G01 X-30.37246 Y2.80911
G01 X-30.37380 Y1.91473
G01 X-30.27429 Y1.87455
G01 X-30.37274 Y1.47968
G01 X-30.37515 Y1.31211
G01 X-30.38147 Y1.24188
G01 X-30.39059 Y1.19586
G01 X-30.42072 Y1.11356
G01 X-30.46804 Y1.01808
G01 X-30.50624 Y0.95225
G01 X-30.50672 Y0.74130
G01 X-30.51165 Y0.68270
G01 X-30.52219 Y0.63149
G01 X-30.55122 Y0.53947
G01 X-30.56687 Y0.45784
G01 X-30.57180 Y0.40764
G01 X-30.57368 Y-0.25400
G01 X-32.70639 Y-0.25400
G01 X-32.70529 Y0.65839
G01 X-32.71037 Y0.78689
G01 X-32.72158 Y0.83119
G01 X-32.79463 Y1.01079
G01 X-32.77718 Y1.08232
G01 X-32.77329 Y1.12128
G01 X-32.77697 Y1.19995
G01 X-32.78553 Y1.24290
G01 X-32.90700 Y1.60919
G01 X-33.01667 Y1.88432
G01 X-32.63961 Y2.00777
G01 X-32.64169 Y2.45229
G01 X-32.65609 Y2.55161
G01 X-32.70227 Y2.69570
G01 X-32.70654 Y2.74132
G01 X-32.70700 Y3.00777
G01 X-32.69978 Y3.06906
G01 X-32.65320 Y3.20792
G01 X-32.64169 Y3.29679
G01 X-32.63961 Y3.87421
G01 X-32.85866 Y3.87551
G01 X-33.04052 Y3.88846
G01 X-33.03768 Y4.45209
G01 X-33.02376 Y4.55143
G01 X-32.97900 Y4.68450
G01 X-32.97319 Y4.74784
G01 X-32.97900 Y4.79814
G01 X-32.98825 Y4.83095
G01 X-33.06176 Y5.01071
G01 X-33.04436 Y5.08246
G01 X-33.04052 Y5.12143
G01 X-33.04433 Y5.19976
G01 X-33.05289 Y5.24228
G01 X-33.06470 Y5.28130
G01 X-33.10778 Y5.37332
G01 X-33.29689 Y5.66339
G01 X-33.41639 Y5.89377
G01 X-33.52564 Y6.14967
G01 X-33.70887 Y6.62064
G01 X-33.78304 Y6.92226
G01 X-33.70887 Y6.62064
G01 X-33.71088 Y6.22358
G01 X-33.70387 Y5.66880
G01 X-33.70603 Y5.34060
G01 X-33.71301 Y5.24652
G01 X-33.72508 Y5.18574
G01 X-33.76610 Y5.06900
G01 X-33.77329 Y5.00774
G01 X-33.77258 Y3.88061
G01 X-34.03915 Y3.85633
G01 X-34.30572 Y3.78341
G01 X-34.63897 Y3.63210
G01 X-34.81936 Y3.50172
G01 X-35.12508 Y3.25214
G01 X-35.30547 Y3.08750
G01 X-35.51334 Y2.86398
G01 X-35.73661 Y2.84043
G01 X-36.32708 Y2.00668
G01 X-37.66111 Y2.00678
G01 X-37.80958 Y1.99575
G01 X-37.97341 Y1.96324
G01 X-38.10782 Y2.00777
G01 X-38.77422 Y2.00777
G01 X-38.95476 Y1.94848
G01 X-39.21712 Y1.84899
G01 X-39.29670 Y1.87147
G01 X-39.44036 Y1.96332
G01 X-39.77383 Y2.00035
G01 X-39.88438 Y2.00683
G01 X-40.04056 Y2.00731
G01 X-40.24043 Y2.02232
G01 X-40.44033 Y1.97813
G01 X-40.56997 Y1.99913
G01 X-40.70703 Y2.00777
G01 X-41.64089 Y2.00884
G01 X-42.07279 Y2.48714
G01 X-42.41993 Y2.87922
G01 X-42.58000 Y3.01897
G01 X-42.83527 Y2.99629
G01 X-42.83961 Y1.14110
G01 X-42.83545 Y1.09553
G01 X-42.82410 Y1.05110
G01 X-42.73720 Y0.84026
G01 X-42.79743 Y0.75773
G01 X-42.86377 Y0.62746
G01 X-42.88785 Y0.56312
G01 X-42.89963 Y0.50226
G01 X-42.90616 Y0.41085
G01 X-42.90619 Y-0.25397
G01 X-43.56928 Y-0.25400
G01 X-43.57266 Y0.41044
G01 X-43.57924 Y0.50229
G01 X-43.59105 Y0.56314
G01 X-43.61515 Y0.62746
G01 X-43.66659 Y0.72926
G01 X-43.70593 Y0.79624
G01 X-43.70542 Y1.08732
G01 X-43.67334 Y1.13840
G01 X-43.65940 Y1.16914
G01 X-43.64860 Y1.20213
G01 X-43.63850 Y1.27127
G01 X-43.64164 Y2.09852
G01 X-43.63517 Y2.99944
G01 X-43.57479 Y3.00746
G01 X-43.57743 Y3.52844
G01 X-43.57050 Y4.07982
G01 X-43.57390 Y4.27548
G01 X-43.57144 Y4.43685
G01 X-43.56542 Y4.50703
G01 X-43.55650 Y4.55295
G01 X-43.53016 Y4.62745
G01 X-43.41734 Y4.84878
G01 X-43.31645 Y5.07091
G01 X-43.30835 Y5.07766
G01 X-43.30898 Y5.21330
G01 X-43.31274 Y5.25231
G01 X-43.34312 Y5.40454
G01 X-43.77858 Y6.92353
G01 X-44.05876 Y6.92353
G01 X-44.70209 Y6.91424
G01 X-44.95272 Y6.92353
G01 X-45.17344 Y6.91863
G01 X-45.38322 Y6.92447
G01 X-45.66940 Y6.92353
G01 X-45.83994 Y6.91863
G01 X-46.41759 Y6.92442
G01 X-46.76976 Y6.90822
G01 X-47.15444 Y6.85267
G01 X-47.53917 Y6.75368
G01 X-47.93198 Y6.61185
G01 X-48.36381 Y6.40370
G01 X-48.71855 Y6.19572
G01 X-49.09287 Y5.93649
G01 X-49.53838 Y5.57733
G01 X-50.02291 Y5.12161
G01 X-50.63051 Y4.46105
G01 X-51.25773 Y3.66817
G01 X-51.71511 Y3.02151
G01 X-52.17251 Y2.31516
G01 X-52.62987 Y1.54910
G01 X-53.08727 Y0.72339
G01 X-53.24180 Y0.43249
G01 X-53.87528 Y-0.25400
G01 X-44.30583 Y-0.25397
G04 P0 ( dwell for no time -- G64 should not smooth over this point )
G00 Z10.00000 ( retract )

G00 X-55.50718 Y39.08793 ( rapid move to begin. )
G01 F30.00000
( Mill infeed pass 1/1 )
G01 Z-0.10000
G04 P0 ( dwell for no time -- G64 should not smooth over this point )
G01 F360.00000
G01 X-55.50718 Y39.08793
G01 X-55.52686 Y38.91857
G01 X-55.53860 Y38.86030
G01 X-55.58170 Y38.74348
G01 X-55.62691 Y38.64867
G01 X-55.68658 Y38.56187
G01 X-55.76621 Y38.46614
G01 X-55.81078 Y38.42685
G01 X-55.93644 Y38.33299
G01 X-55.95998 Y38.31941
G01 X-56.10405 Y38.25751
G01 X-56.16037 Y38.23853
G01 X-56.28310 Y38.21745
G01 X-56.38797 Y38.20917
G01 X-56.49285 Y38.21742
G01 X-56.61561 Y38.23853
G01 X-56.64662 Y38.24818
G01 X-56.81596 Y38.31938
G01 X-56.83954 Y38.33302
G01 X-56.98587 Y38.44404
G01 X-57.00977 Y38.46614
G01 X-57.08937 Y38.56187
G01 X-57.14906 Y38.64867
G01 X-57.19425 Y38.74348
G01 X-57.23735 Y38.86030
G01 X-57.24909 Y38.91857
G01 X-57.26880 Y39.08793
G01 X-57.24911 Y39.25727
G01 X-57.22902 Y39.37399
G01 X-57.27416 Y39.43391
G01 X-63.63736 Y45.79711
G01 X-63.66741 Y45.82300
G01 X-63.73063 Y45.83085
G01 X-64.75806 Y45.83085
G01 X-64.86327 Y45.85264
G01 X-64.88504 Y45.95787
G01 X-64.88504 Y47.45797
G01 X-64.86327 Y47.56320
G01 X-64.75806 Y47.58499
G01 X-63.25791 Y47.58499
G01 X-63.15271 Y47.56320
G01 X-63.13094 Y47.45797
G01 X-63.13094 Y46.43056
G01 X-63.12306 Y46.36734
G01 X-63.09718 Y46.33730
G01 X-56.73397 Y39.97409
G01 X-56.67700 Y39.93063
G01 X-56.62341 Y39.93596
G01 X-56.49285 Y39.95839
G01 X-56.38800 Y39.96667
G01 X-56.28310 Y39.95839
G01 X-56.16037 Y39.93728
G01 X-56.10405 Y39.91834
G01 X-55.94772 Y39.85077
G01 X-55.81078 Y39.74899
G01 X-55.76621 Y39.70970
G01 X-55.68658 Y39.61394
G01 X-55.62691 Y39.52718
G01 X-55.58170 Y39.43233
G01 X-55.53862 Y39.31554
G01 X-55.53144 Y39.28379
G01 X-55.50718 Y39.08793
G04 P0 ( dwell for no time -- G64 should not smooth over this point )
G00 Z10.00000 ( retract )

G00 X-27.56718 Y41.62793 ( rapid move to begin. )
G01 F30.00000
( Mill infeed pass 1/1 )
G01 Z-0.10000
G04 P0 ( dwell for no time -- G64 should not smooth over this point )
G01 F360.00000
G01 X-27.56718 Y41.62793
G01 X-27.59144 Y41.43202
G01 X-27.59860 Y41.40030
G01 X-27.64170 Y41.28348
G01 X-27.68691 Y41.18867
G01 X-27.74658 Y41.10187
G01 X-27.82621 Y41.00614
G01 X-27.87078 Y40.96685
G01 X-28.00769 Y40.86504
G01 X-28.16405 Y40.79751
G01 X-28.22037 Y40.77853
G01 X-28.34310 Y40.75745
G01 X-28.44797 Y40.74917
G01 X-28.55285 Y40.75742
G01 X-28.67561 Y40.77853
G01 X-28.73190 Y40.79748
G01 X-28.88828 Y40.86504
G01 X-29.02516 Y40.96685
G01 X-29.06977 Y41.00614
G01 X-29.14937 Y41.10187
G01 X-29.20906 Y41.18867
G01 X-29.25425 Y41.28348
G01 X-29.29735 Y41.40030
G01 X-29.30454 Y41.43202
G01 X-29.32880 Y41.62793
G01 X-29.30454 Y41.82379
G01 X-29.29735 Y41.85554
G01 X-29.25427 Y41.97233
G01 X-29.20906 Y42.06718
G01 X-29.14940 Y42.15397
G01 X-29.06977 Y42.24970
G01 X-29.02516 Y42.28899
G01 X-28.88826 Y42.39077
G01 X-28.73190 Y42.45834
G01 X-28.67561 Y42.47728
G01 X-28.55285 Y42.49839
G01 X-28.44797 Y42.50667
G01 X-28.34310 Y42.49839
G01 X-28.22037 Y42.47728
G01 X-28.16405 Y42.45834
G01 X-28.00772 Y42.39077
G01 X-27.87078 Y42.28899
G01 X-27.82621 Y42.24970
G01 X-27.74658 Y42.15394
G01 X-27.68691 Y42.06718
G01 X-27.64170 Y41.97233
G01 X-27.59862 Y41.85554
G01 X-27.59144 Y41.82379
G01 X-27.56718 Y41.62793
G04 P0 ( dwell for no time -- G64 should not smooth over this point )
G00 Z10.00000 ( retract )

G00 X-7.25091 Y43.41785 ( rapid move to begin. )
G01 F30.00000
( Mill infeed pass 1/1 )
G01 Z-0.10000
G04 P0 ( dwell for no time -- G64 should not smooth over this point )
G01 F360.00000
G01 X-7.25091 Y43.41785
G01 X-7.25091 Y44.91799
G01 X-7.27271 Y45.02318
G01 X-7.37794 Y45.04497
G01 X-8.87806 Y45.04497
G01 X-8.98327 Y45.02320
G01 X-9.00506 Y44.91799
G01 X-9.00506 Y43.41785
G01 X-8.98327 Y43.31264
G01 X-8.87806 Y43.29087
G01 X-7.37794 Y43.29087
G01 X-7.27271 Y43.31266
G01 X-7.25091 Y43.41785
G04 P0 ( dwell for no time -- G64 should not smooth over this point )
G00 Z10.00000 ( retract )

G00 X-7.24715 Y41.62793 ( rapid move to begin. )
G01 F30.00000
( Mill infeed pass 1/1 )
G01 Z-0.10000
G04 P0 ( dwell for no time -- G64 should not smooth over this point )
G01 F360.00000
G01 X-7.24715 Y41.62793
G01 X-7.27144 Y41.43202
G01 X-7.27860 Y41.40030
G01 X-7.32170 Y41.28348
G01 X-7.36691 Y41.18867
G01 X-7.42658 Y41.10187
G01 X-7.50621 Y41.00614
G01 X-7.55079 Y40.96685
G01 X-7.68769 Y40.86504
G01 X-7.84405 Y40.79751
G01 X-7.90037 Y40.77853
G01 X-8.02310 Y40.75745
G01 X-8.12800 Y40.74917
G01 X-8.23285 Y40.75742
G01 X-8.35561 Y40.77853
G01 X-8.41190 Y40.79748
G01 X-8.56828 Y40.86504
G01 X-8.70516 Y40.96685
G01 X-8.74977 Y41.00614
G01 X-8.82937 Y41.10187
G01 X-8.88906 Y41.18867
G01 X-8.93425 Y41.28348
G01 X-8.97735 Y41.40030
G01 X-8.98454 Y41.43202
G01 X-9.00880 Y41.62793
G01 X-8.98454 Y41.82379
G01 X-8.97735 Y41.85554
G01 X-8.93427 Y41.97233
G01 X-8.88906 Y42.06718
G01 X-8.82940 Y42.15397
G01 X-8.74977 Y42.24970
G01 X-8.70516 Y42.28899
G01 X-8.56826 Y42.39077
G01 X-8.41190 Y42.45834
G01 X-8.35561 Y42.47728
G01 X-8.23285 Y42.49839
G01 X-8.12800 Y42.50667
G01 X-8.02310 Y42.49839
G01 X-7.90037 Y42.47728
G01 X-7.84405 Y42.45834
G01 X-7.68772 Y42.39077
G01 X-7.55079 Y42.28899
G01 X-7.50621 Y42.24970
G01 X-7.42658 Y42.15394
G01 X-7.36691 Y42.06718
G01 X-7.32170 Y41.97233
G01 X-7.27862 Y41.85554
G01 X-7.27144 Y41.82379
G01 X-7.24715 Y41.62793

G04 P0 ( dwell for no time -- G64 should not smooth over this point )
G00 Z50.000000 ( retract )

M5 ( Spindle off. )
G04 P1.000000
M9 ( Coolant off. )
M2 ( Program end. )

