( pcb2gcode 2.1.0 )
( Software-independent Gcode )

G94 ( Millimeters per minute feed rate. )
G21 ( Units == Millimeters. )

G90 ( Absolute coordinates. )
G00 S10000 ( RPM spindle speed. )
G01 F360.00000 ( Feedrate. )


G00 Z50.00000 (Retract to tool change height)
T0
M5      (Spindle stop.)
G04 P1.00000 (Wait for spindle to stop)
(MSG, Change tool bit to mill diameter 0.50800mm)
M6      (Tool change.)
M0      (Temporary machine stop.)
M3 ( Spindle on clockwise. )
G04 P1.00000 (Wait for spindle to get up to speed)
G04 P0 ( dwell for no time -- G64 should not smooth over this point )
G00 Z10.00000 ( retract )

G00 X-18.59064 Y-0.25400 ( rapid move to begin. )
G01 F30.00000
( Mill infeed pass 1/1 )
G01 Z-0.10000
G04 P0 ( dwell for no time -- G64 should not smooth over this point )
G01 F360.00000
G01 X-18.59064 Y-0.25400
G01 X-19.40801 Y0.60797
G01 X-20.20761 Y1.40754
G01 X-20.83608 Y2.00861
G01 X-21.35022 Y2.54813
G01 X-22.20785 Y3.40779
G01 X-22.69094 Y3.86845
G01 X-22.84661 Y4.00789
G01 X-22.99777 Y4.17670
G01 X-23.40800 Y4.60794
G01 X-24.20793 Y5.40791
G01 X-24.50556 Y5.69168
G01 X-24.90508 Y6.03133
G01 X-25.32403 Y6.33392
G01 X-25.72316 Y6.57525
G01 X-26.16129 Y6.78205
G01 X-26.49670 Y6.90296
G01 X-26.83215 Y6.98774
G01 X-27.17980 Y7.04157
G01 X-27.48844 Y7.05691
G01 X-27.83604 Y7.04157
G01 X-28.14467 Y6.99554
G01 X-28.44902 Y6.92366
G01 X-28.69636 Y6.92447
G01 X-28.90614 Y6.91866
G01 X-28.69636 Y6.92447
G01 X-28.44902 Y6.92366
G01 X-28.22303 Y6.15053
G01 X-28.15184 Y5.89021
G01 X-28.00563 Y5.38500
G01 X-27.98120 Y5.25234
G01 X-27.97741 Y5.21332
G01 X-27.97688 Y5.07634
G01 X-27.98249 Y5.07167
G01 X-28.06136 Y4.89819
G01 X-28.19857 Y4.62745
G01 X-28.22491 Y4.55290
G01 X-28.23383 Y4.50698
G01 X-28.23987 Y4.43672
G01 X-28.24061 Y3.97858
G01 X-28.47914 Y3.87386
G01 X-28.41836 Y3.72765
G01 X-28.35641 Y3.55801
G01 X-28.26692 Y3.28691
G01 X-28.18935 Y3.09799
G01 X-28.17599 Y3.04124
G01 X-28.17269 Y2.97802
G01 X-28.16715 Y2.94688
G01 X-28.15145 Y2.89715
G01 X-28.11447 Y2.80797
G01 X-28.21396 Y2.58841
G01 X-28.23411 Y2.50673
G01 X-28.24084 Y2.43561
G01 X-28.24160 Y1.97820
G01 X-28.48417 Y1.87175
G01 X-28.44099 Y1.73909
G01 X-28.36116 Y1.58585
G01 X-28.19347 Y1.24092
G01 X-28.17858 Y1.18669
G01 X-28.17442 Y1.14099
G01 X-28.17434 Y1.00112
G01 X-28.16857 Y0.95067
G01 X-28.15928 Y0.91760
G01 X-28.06080 Y0.68031
G01 X-28.04003 Y0.64132
G01 X-27.90784 Y0.43835
G01 X-27.90934 Y-0.25400
G01 X-28.70606 Y-0.25400
G01 X-28.70909 Y-0.02334
G01 X-28.70700 Y0.58611
G01 X-28.71371 Y0.70505
G01 X-28.73967 Y0.74933
G01 X-28.90746 Y0.87473
G01 X-28.90746 Y1.87422
G01 X-29.03962 Y1.91097
G01 X-29.04000 Y2.44912
G01 X-29.03847 Y2.49197
G01 X-29.01912 Y2.61681
G01 X-29.03581 Y2.70734
G01 X-29.04015 Y2.77101
G01 X-29.03863 Y2.81386
G01 X-29.03322 Y2.85519
G01 X-28.99258 Y3.02725
G01 X-28.93093 Y3.17116
G01 X-28.91767 Y3.22674
G01 X-28.91114 Y3.27536
G01 X-28.90647 Y3.47398
G01 X-28.90957 Y3.81386
G01 X-28.80538 Y3.87160
G01 X-29.04175 Y4.34353
G01 X-29.03946 Y4.43697
G01 X-29.03202 Y4.51693
G01 X-29.02438 Y4.55155
G01 X-28.97830 Y4.69577
G01 X-28.97416 Y4.74144
G01 X-28.97475 Y5.00774
G01 X-28.97068 Y5.05346
G01 X-28.95585 Y5.10802
G01 X-28.92433 Y5.19582
G01 X-28.90931 Y5.29095
G01 X-28.90622 Y5.47360
G01 X-28.90962 Y5.66925
G01 X-28.90263 Y6.22290
G01 X-28.90614 Y6.91866
G01 X-29.12687 Y6.92353
G01 X-29.37406 Y6.91446
G01 X-29.62125 Y6.92353
G01 X-29.84066 Y6.91871
G01 X-30.00985 Y6.92353
G01 X-30.29580 Y6.92447
G01 X-30.50568 Y6.91863
G01 X-30.68757 Y6.92353
G01 X-31.12635 Y6.92353
G01 X-31.34121 Y6.91670
G01 X-31.67695 Y5.40791
G01 X-31.69468 Y5.30929
G01 X-31.70573 Y5.16062
G01 X-31.70573 Y5.12161
G01 X-31.68589 Y4.92229
G01 X-31.67812 Y4.88328
G01 X-31.62620 Y4.70233
G01 X-31.50677 Y4.42524
G01 X-31.50677 Y4.09151
G01 X-31.50677 Y4.42524
G01 X-31.62620 Y4.70233
G01 X-31.67812 Y4.88328
G01 X-31.68589 Y4.92229
G01 X-31.70573 Y5.12161
G01 X-31.70573 Y5.16062
G01 X-31.69468 Y5.30929
G01 X-31.67695 Y5.40791
G01 X-31.34121 Y6.91670
G01 X-31.48985 Y6.95660
G01 X-31.96379 Y7.03918
G01 X-32.00278 Y7.04299
G01 X-32.45957 Y7.05409
G01 X-32.57301 Y7.04708
G01 X-32.68863 Y7.05419
G01 X-33.14461 Y7.04286
G01 X-33.18360 Y7.03903
G01 X-33.65632 Y6.95658
G01 X-33.78634 Y6.92206
G01 X-34.32520 Y6.92353
G01 X-34.57230 Y6.91449
G01 X-34.80816 Y6.92353
G01 X-35.09437 Y6.92447
G01 X-35.30415 Y6.91866
G01 X-35.52637 Y6.92442
G01 X-35.67920 Y6.92348
G01 X-36.00386 Y6.90580
G01 X-36.34651 Y6.85328
G01 X-36.69121 Y6.95658
G01 X-37.16414 Y7.03905
G01 X-37.51496 Y7.05787
G01 X-37.93452 Y7.05691
G01 X-38.24039 Y7.04113
G01 X-38.54628 Y6.99524
G01 X-38.73569 Y6.95378
G01 X-39.08318 Y6.98734
G01 X-39.56898 Y6.97454
G01 X-39.74968 Y6.98734
G01 X-40.22529 Y6.97553
G01 X-40.58384 Y6.92450
G01 X-40.84015 Y6.92450
G01 X-41.03881 Y6.91863
G01 X-41.19969 Y6.92348
G01 X-41.65948 Y6.92353
G01 X-41.87434 Y6.91670
G01 X-41.65948 Y6.92353
G01 X-41.19969 Y6.92348
G01 X-41.03881 Y6.91863
G01 X-40.84015 Y6.92450
G01 X-40.58384 Y6.92450
G01 X-40.30881 Y5.54962
G01 X-40.30576 Y5.37875
G01 X-40.29573 Y5.26796
G01 X-40.28658 Y5.22194
G01 X-40.21115 Y4.98846
G01 X-40.17378 Y4.91061
G01 X-40.17378 Y4.85173
G01 X-40.21115 Y4.76062
G01 X-40.25966 Y4.61975
G01 X-40.28346 Y4.53972
G01 X-40.29967 Y4.45834
G01 X-40.30825 Y4.24574
G01 X-40.30502 Y4.00883
G01 X-40.30937 Y3.24132
G01 X-40.32258 Y3.18427
G01 X-40.35392 Y3.11688
G01 X-40.40759 Y3.04254
G01 X-40.44699 Y3.00055
G01 X-40.33129 Y2.72161
G01 X-40.27736 Y2.61412
G01 X-40.25684 Y2.55306
G01 X-40.24744 Y2.50693
G01 X-40.24069 Y2.43589
G01 X-40.24043 Y2.02291
G01 X-40.43893 Y1.97780
G01 X-40.44180 Y1.24107
G01 X-40.45524 Y1.18379
G01 X-40.48689 Y1.11638
G01 X-40.54079 Y1.04221
G01 X-40.58018 Y1.00051
G01 X-40.47094 Y0.73495
G01 X-40.40454 Y0.60119
G01 X-40.38100 Y0.50703
G01 X-40.37292 Y0.34564
G01 X-40.37594 Y0.07981
G01 X-40.37038 Y-0.25400
G01 X-38.04097 Y-0.25400
G01 X-38.04232 Y0.24575
G01 X-38.03373 Y0.45834
G01 X-38.01753 Y0.53972
G01 X-37.98585 Y0.64209
G01 X-37.94603 Y0.76131
G01 X-37.90861 Y0.83934
G01 X-37.90853 Y0.89418
G01 X-37.91511 Y0.96109
G01 X-37.92444 Y1.00785
G01 X-37.90892 Y1.10823
G01 X-37.90800 Y1.29609
G01 X-37.91455 Y1.36378
G01 X-37.95933 Y1.56035
G01 X-37.97201 Y1.66627
G01 X-37.97557 Y1.96337
G01 X-38.10782 Y2.00777
G01 X-38.10785 Y2.41084
G01 X-38.11438 Y2.50226
G01 X-38.12360 Y2.55148
G01 X-38.14681 Y2.62006
G01 X-38.20249 Y2.73042
G01 X-38.24100 Y2.79634
G01 X-38.24049 Y3.08572
G01 X-38.19454 Y3.16890
G01 X-38.18372 Y3.20197
G01 X-38.17447 Y3.25496
G01 X-38.17440 Y4.87423
G01 X-38.16718 Y4.93547
G01 X-38.14178 Y5.00870
G01 X-38.19187 Y5.10863
G01 X-38.26137 Y5.27294
G01 X-38.37620 Y5.60885
G01 X-38.44110 Y5.78467
G01 X-38.55095 Y6.04939
G01 X-38.68016 Y6.39366
G01 X-38.73569 Y6.95378
G01 X-38.68016 Y6.39366
G01 X-38.90757 Y5.46997
G01 X-38.90965 Y5.29679
G01 X-38.92405 Y5.19745
G01 X-38.93688 Y5.15516
G01 X-38.95677 Y5.10863
G01 X-39.00889 Y5.00543
G01 X-39.04082 Y4.95450
G01 X-39.03932 Y4.07619
G01 X-39.04209 Y3.90383
G01 X-39.09911 Y3.85991
G01 X-39.04224 Y3.34335
G01 X-39.13218 Y3.24795
G01 X-39.24163 Y3.11574
G01 X-39.26769 Y3.07673
G01 X-39.31956 Y2.98084
G01 X-39.33571 Y2.94188
G01 X-39.35882 Y2.86652
G01 X-39.37279 Y2.77736
G01 X-39.37917 Y2.66959
G01 X-39.38791 Y2.61752
G01 X-39.42659 Y2.45468
G01 X-39.43949 Y2.30363
G01 X-39.44071 Y1.96355
G01 X-39.29619 Y1.87119
G01 X-39.21585 Y1.84965
G01 X-39.29619 Y1.87119
G01 X-39.43066 Y1.62758
G01 X-39.59296 Y1.30432
G01 X-39.62684 Y1.22649
G01 X-39.63967 Y1.16063
G01 X-39.63830 Y1.10800
G01 X-39.62509 Y1.05115
G01 X-39.49029 Y0.72337
G01 X-39.46431 Y0.63419
G01 X-39.45522 Y0.58819
G01 X-39.44170 Y0.44133
G01 X-39.44084 Y-0.25400
G01 X-38.77084 Y-0.25400
G01 X-38.77638 Y0.07953
G01 X-38.77297 Y0.27531
G01 X-38.77556 Y0.43685
G01 X-38.78194 Y0.50719
G01 X-38.79108 Y0.55321
G01 X-38.81882 Y0.63005
G01 X-38.86482 Y0.72108
G01 X-38.92873 Y0.87313
G01 X-38.95143 Y0.94323
G01 X-38.96510 Y1.00835
G01 X-38.98976 Y1.04531
G01 X-39.02898 Y1.11879
G01 X-39.09286 Y1.27086
G01 X-39.11625 Y1.33609
G01 X-39.15476 Y1.49235
G01 X-39.21585 Y1.84965
G01 X-38.95743 Y1.94671
G01 X-38.77422 Y2.00810
G01 X-38.77320 Y2.63746
G01 X-38.76210 Y2.70693
G01 X-38.71859 Y2.84518
G01 X-38.74587 Y2.94213
G01 X-38.76197 Y2.98115
G01 X-38.80917 Y3.07096
G01 X-38.90343 Y3.19799
G01 X-39.04224 Y3.34335
G01 X-39.09911 Y3.85991
G01 X-39.26698 Y3.90571
G01 X-39.70729 Y4.05204
G01 X-39.70729 Y4.30228
G01 X-39.69535 Y4.44734
G01 X-39.62354 Y4.74129
G01 X-39.60279 Y4.80832
G01 X-39.57394 Y4.87693
G01 X-39.57246 Y5.80624
G01 X-39.57625 Y6.12407
G01 X-39.56898 Y6.97454
G01 X-39.74968 Y6.98734
G01 X-40.22529 Y6.97553
G01 X-40.58384 Y6.92450
G01 X-40.84015 Y6.92450
G01 X-41.03881 Y6.91863
G01 X-41.03533 Y6.22356
G01 X-41.04231 Y5.66956
G01 X-41.03891 Y5.47378
G01 X-41.04150 Y5.31221
G01 X-41.04787 Y5.24190
G01 X-41.05702 Y5.19587
G01 X-41.09961 Y5.06857
G01 X-41.10685 Y5.00774
G01 X-41.10685 Y4.74129
G01 X-41.10266 Y4.69572
G01 X-41.05664 Y4.55160
G01 X-41.04223 Y4.45229
G01 X-41.03891 Y4.27530
G01 X-41.04112 Y4.00754
G01 X-41.37340 Y3.89707
G01 X-41.48714 Y3.84317
G01 X-41.63997 Y3.78125
G01 X-42.30647 Y3.38292
G01 X-42.30550 Y5.02925
G01 X-42.28833 Y5.20004
G01 X-42.24152 Y5.37926
G01 X-42.20502 Y5.47982
G01 X-42.15562 Y5.65676
G01 X-41.87434 Y6.91670
G01 X-42.20286 Y6.99554
G01 X-42.51150 Y7.04157
G01 X-42.82013 Y7.05691
G01 X-43.16773 Y7.04157
G01 X-43.47637 Y6.99554
G01 X-43.78071 Y6.92366
G01 X-44.02806 Y6.92447
G01 X-44.23783 Y6.91866
G01 X-44.45856 Y6.92353
G01 X-44.70563 Y6.91449
G01 X-44.95272 Y6.92353
G01 X-45.17210 Y6.91871
G01 X-45.34126 Y6.92353
G01 X-45.62749 Y6.92447
G01 X-45.83862 Y6.91855
G01 X-45.62749 Y6.92447
G01 X-45.34126 Y6.92353
G01 X-45.17210 Y6.91871
G01 X-45.17210 Y5.33824
G01 X-45.16557 Y5.24683
G01 X-45.15637 Y5.19765
G01 X-45.11553 Y5.07985
G01 X-45.10644 Y5.03060
G01 X-45.10499 Y4.74129
G01 X-45.10908 Y4.69567
G01 X-45.12391 Y4.64119
G01 X-45.20110 Y4.45475
G01 X-45.30989 Y4.13195
G01 X-45.37575 Y3.95310
G01 X-45.50771 Y3.63342
G01 X-45.66704 Y3.19860
G01 X-45.77420 Y2.87348
G01 X-45.83859 Y2.85712
G01 X-45.83938 Y4.43062
G01 X-45.83852 Y4.62747
G01 X-45.83260 Y4.67711
G01 X-45.86359 Y4.72420
G01 X-45.89021 Y4.78406
G01 X-45.90481 Y4.85518
G01 X-45.90313 Y5.04096
G01 X-45.89158 Y5.09321
G01 X-45.85505 Y5.19745
G01 X-45.84563 Y5.24650
G01 X-45.83859 Y5.34101
G01 X-45.83862 Y6.91855
G01 X-46.41759 Y6.92442
G01 X-46.76976 Y6.90822
G01 X-46.80875 Y6.90438
G01 X-47.34166 Y6.80992
G01 X-47.61865 Y6.72920
G01 X-47.93465 Y6.60966
G01 X-48.36765 Y6.40281
G01 X-48.80064 Y6.14101
G01 X-49.41179 Y5.68526
G01 X-49.98392 Y5.16062
G01 X-50.45593 Y4.66169
G01 X-50.88895 Y4.14800
G01 X-51.32200 Y3.58049
G01 X-51.79403 Y2.90083
G01 X-52.52080 Y1.73802
G01 X-53.24754 Y0.42525
G01 X-53.86819 Y-0.25400
G01 X-72.38997 Y-0.25400
G01 X-72.38997 Y50.00993
G01 X0.25400 Y50.00993
G01 X0.25400 Y-0.25400
G01 X-53.86819 Y-0.25400
G01 X-53.24754 Y0.42525
G01 X-52.17409 Y0.78496
G01 X-51.28189 Y1.09497
G01 X-48.54359 Y1.96736
G01 X-46.36221 Y2.66715
G01 X-45.83859 Y2.85712
G01 X-45.77420 Y2.87348
G01 X-44.66895 Y2.87543
G01 X-44.24269 Y2.89197
G01 X-43.82054 Y3.00665
G01 X-43.96892 Y3.45867
G01 X-44.12973 Y3.85597
G01 X-44.37332 Y4.34345
G01 X-44.37101 Y4.43687
G01 X-44.36359 Y4.51688
G01 X-44.35592 Y4.55155
G01 X-44.30987 Y4.69575
G01 X-44.30573 Y4.74144
G01 X-44.30631 Y5.00776
G01 X-44.30225 Y5.05343
G01 X-44.28747 Y5.10797
G01 X-44.25594 Y5.19585
G01 X-44.24101 Y5.29097
G01 X-44.23788 Y5.47312
G01 X-44.24131 Y5.66928
G01 X-44.23433 Y6.22089
G01 X-44.23783 Y6.91866
G01 X-44.02806 Y6.92447
G01 X-43.78071 Y6.92366
G01 X-43.55462 Y6.15043
G01 X-43.48338 Y5.88998
G01 X-43.33720 Y5.38493
G01 X-43.31274 Y5.25231
G01 X-43.30898 Y5.21330
G01 X-43.30847 Y5.07624
G01 X-43.31393 Y5.07167
G01 X-43.39306 Y4.89773
G01 X-43.53016 Y4.62745
G01 X-43.55650 Y4.55295
G01 X-43.56542 Y4.50703
G01 X-43.57144 Y4.43685
G01 X-43.57390 Y4.27548
G01 X-43.57050 Y4.07982
G01 X-43.57743 Y3.52844
G01 X-43.57479 Y3.00746
G01 X-43.63938 Y2.99888
G01 X-43.64025 Y1.25509
G01 X-43.64926 Y1.20241
G01 X-43.65988 Y1.16954
G01 X-43.67370 Y1.13883
G01 X-43.70570 Y1.08753
G01 X-43.70507 Y0.79665
G01 X-43.66699 Y0.73089
G01 X-43.60174 Y0.59388
G01 X-43.57893 Y0.50208
G01 X-43.57373 Y0.45169
G01 X-43.57266 Y-0.25400
G01 X-42.90276 Y-0.25400
G01 X-42.90703 Y0.34564
G01 X-42.90494 Y0.43685
G01 X-42.89793 Y0.51664
G01 X-42.87787 Y0.59367
G01 X-42.86131 Y0.63312
G01 X-42.78569 Y0.77734
G01 X-42.73720 Y0.84026
G01 X-42.82410 Y1.05110
G01 X-42.83857 Y1.11824
G01 X-42.84088 Y1.83965
G01 X-42.83723 Y2.09763
G01 X-42.84370 Y2.99629
G01 X-42.58008 Y3.01742
G01 X-42.48315 Y3.14112
G01 X-42.30647 Y3.38292
G01 X-41.63997 Y3.78125
G01 X-41.48714 Y3.84317
G01 X-41.37340 Y3.89707
G01 X-41.04112 Y4.00754
G01 X-39.99118 Y4.00909
G01 X-39.82161 Y4.02869
G01 X-39.70729 Y4.05204
G01 X-39.26698 Y3.90571
G01 X-39.09911 Y3.85991
G01 X-39.04209 Y3.90383
G01 X-38.62893 Y3.99298
G01 X-38.46060 Y4.00693
G01 X-37.61842 Y4.00693
G01 X-37.50793 Y4.00045
G01 X-37.04532 Y3.95059
G01 X-36.80333 Y3.94010
G01 X-36.57420 Y3.94246
G01 X-36.57328 Y4.73075
G01 X-36.56848 Y4.87454
G01 X-35.63831 Y4.87370
G01 X-35.40453 Y4.87454
G01 X-35.40308 Y4.87792
G01 X-35.38129 Y4.93525
G01 X-35.37354 Y4.97426
G01 X-35.37003 Y5.04096
G01 X-35.36249 Y5.08008
G01 X-35.32233 Y5.19582
G01 X-35.31319 Y5.24185
G01 X-35.30681 Y5.31211
G01 X-35.30422 Y5.47360
G01 X-35.30763 Y5.66925
G01 X-35.30064 Y6.22290
G01 X-35.30415 Y6.91866
G01 X-35.30064 Y6.22290
G01 X-35.30763 Y5.66925
G01 X-35.30422 Y5.47360
G01 X-35.30681 Y5.31211
G01 X-35.31319 Y5.24185
G01 X-35.32233 Y5.19582
G01 X-35.36249 Y5.08008
G01 X-35.37003 Y5.04096
G01 X-35.37354 Y4.97426
G01 X-35.38129 Y4.93525
G01 X-35.40453 Y4.87454
G01 X-35.33046 Y4.72420
G01 X-35.29904 Y4.67733
G01 X-35.30463 Y4.62745
G01 X-35.30625 Y4.43062
G01 X-35.30547 Y3.08785
G01 X-35.51298 Y2.86441
G01 X-35.49896 Y2.87752
G01 X-33.53880 Y2.87454
G01 X-33.51538 Y2.93533
G01 X-33.50750 Y2.97431
G01 X-33.50390 Y3.04096
G01 X-33.49635 Y3.08008
G01 X-33.46630 Y3.16154
G01 X-33.44705 Y3.24185
G01 X-33.44067 Y3.31208
G01 X-33.43847 Y3.40393
G01 X-33.44149 Y3.66926
G01 X-33.43831 Y3.86108
G01 X-33.55785 Y3.87279
G01 X-33.77258 Y3.87980
G01 X-34.03915 Y3.85562
G01 X-34.30572 Y3.78341
G01 X-34.63897 Y3.63210
G01 X-34.63790 Y4.45168
G01 X-34.62297 Y4.55148
G01 X-34.57936 Y4.68048
G01 X-34.57199 Y4.74129
G01 X-34.57230 Y6.91449
G01 X-34.80816 Y6.92353
G01 X-35.09437 Y6.92447
G01 X-35.30415 Y6.91866
G01 X-35.52637 Y6.92442
G01 X-35.67920 Y6.92348
G01 X-36.00386 Y6.90580
G01 X-36.34651 Y6.85328
G01 X-36.55141 Y5.43126
G01 X-36.57178 Y5.22354
G01 X-36.57232 Y4.97771
G01 X-36.56848 Y4.87454
G01 X-36.57328 Y4.73075
G01 X-36.57420 Y3.94246
G01 X-36.09691 Y3.27444
G01 X-35.81524 Y2.92499
G01 X-35.73706 Y2.84002
G01 X-35.51298 Y2.86441
G01 X-35.30547 Y3.08785
G01 X-35.09277 Y3.28155
G01 X-34.84580 Y3.48143
G01 X-34.63897 Y3.63210
G01 X-34.30572 Y3.78341
G01 X-34.03915 Y3.85562
G01 X-33.77258 Y3.87980
G01 X-33.77258 Y5.00774
G01 X-33.76536 Y5.06852
G01 X-33.72282 Y5.19585
G01 X-33.71370 Y5.24187
G01 X-33.70737 Y5.31211
G01 X-33.70476 Y5.47312
G01 X-33.70819 Y5.66928
G01 X-33.70120 Y6.22089
G01 X-33.70308 Y6.59430
G01 X-33.78634 Y6.92206
G01 X-33.70308 Y6.59430
G01 X-33.46023 Y6.00090
G01 X-33.35927 Y5.77842
G01 X-33.25802 Y5.60233
G01 X-33.11627 Y5.38744
G01 X-33.08271 Y5.32541
G01 X-33.04984 Y5.23133
G01 X-33.04052 Y5.16075
G01 X-33.04052 Y5.12143
G01 X-33.04436 Y5.08246
G01 X-33.06176 Y5.01071
G01 X-32.98825 Y4.83095
G01 X-32.97517 Y4.77444
G01 X-32.97296 Y4.74454
G01 X-32.97517 Y4.70819
G01 X-32.98294 Y4.66918
G01 X-33.02338 Y4.55292
G01 X-33.03229 Y4.50700
G01 X-33.03831 Y4.43659
G01 X-33.03956 Y3.88813
G01 X-32.96384 Y3.88000
G01 X-32.81726 Y3.87378
G01 X-32.63837 Y3.87485
G01 X-32.64096 Y3.31224
G01 X-32.64733 Y3.24190
G01 X-32.65648 Y3.19588
G01 X-32.69907 Y3.06857
G01 X-32.70631 Y3.00777
G01 X-32.70631 Y2.74132
G01 X-32.70212 Y2.69573
G01 X-32.65609 Y2.55161
G01 X-32.64169 Y2.45229
G01 X-32.63837 Y2.27531
G01 X-32.64057 Y2.00741
G01 X-33.01456 Y1.88427
G01 X-32.90959 Y1.61676
G01 X-32.78736 Y1.25146
G01 X-32.77700 Y1.20000
G01 X-32.77329 Y1.12123
G01 X-32.77720 Y1.08227
G01 X-32.79463 Y1.01079
G01 X-32.72158 Y0.83119
G01 X-32.70855 Y0.77452
G01 X-32.70608 Y-0.25400
G01 X-30.57385 Y-0.25400
G01 X-30.57180 Y0.40764
G01 X-30.56687 Y0.45784
G01 X-30.55122 Y0.53947
G01 X-30.51962 Y0.64275
G01 X-30.50799 Y0.71196
G01 X-30.50624 Y0.95377
G01 X-30.47428 Y1.00457
G01 X-30.42072 Y1.11356
G01 X-30.39021 Y1.19746
G01 X-30.37586 Y1.29675
G01 X-30.37380 Y1.47051
G01 X-30.27248 Y1.87414
G01 X-30.37380 Y1.91442
G01 X-30.37380 Y2.80787
G01 X-30.33039 Y2.85260
G01 X-30.32638 Y2.86568
G01 X-30.31213 Y2.93576
G01 X-30.30804 Y3.04063
G01 X-30.32074 Y3.13159
G01 X-30.35960 Y3.29443
G01 X-30.37169 Y3.40017
G01 X-30.37528 Y3.67289
G01 X-30.37261 Y3.83817
G01 X-30.50827 Y3.87454
G01 X-30.50487 Y4.07952
G01 X-30.50827 Y4.27530
G01 X-30.50705 Y4.58808
G01 X-30.50012 Y4.67751
G01 X-30.53151 Y4.72491
G01 X-30.55811 Y4.78447
G01 X-30.57276 Y4.85516
G01 X-30.57192 Y5.04116
G01 X-30.56057 Y5.09374
G01 X-30.52389 Y5.19587
G01 X-30.51475 Y5.24190
G01 X-30.50837 Y5.31221
G01 X-30.50220 Y6.22356
G01 X-30.50568 Y6.91863
G01 X-30.29580 Y6.92447
G01 X-30.00985 Y6.92353
G01 X-29.84066 Y6.91871
G01 X-29.84066 Y5.33865
G01 X-29.83408 Y5.24680
G01 X-29.82486 Y5.19763
G01 X-29.78399 Y5.07992
G01 X-29.77487 Y5.03060
G01 X-29.77375 Y4.73464
G01 X-29.78061 Y4.68020
G01 X-29.79240 Y4.64116
G01 X-29.86964 Y4.45475
G01 X-29.99768 Y4.07454
G01 X-30.07713 Y3.87358
G01 X-29.91432 Y3.81028
G01 X-29.77822 Y3.76387
G01 X-29.77236 Y3.44769
G01 X-29.77449 Y3.06502
G01 X-29.78109 Y3.00286
G01 X-29.80154 Y2.92824
G01 X-29.77937 Y2.83439
G01 X-29.75270 Y2.80413
G01 X-29.69918 Y2.72349
G01 X-29.66372 Y2.63647
G01 X-29.64975 Y2.57665
G01 X-29.64086 Y2.47452
G01 X-29.63893 Y1.89291
G01 X-29.50728 Y1.85577
G01 X-29.50700 Y0.83891
G01 X-29.53367 Y0.78704
G01 X-29.55166 Y0.74105
G01 X-29.57274 Y0.63744
G01 X-29.57396 Y-0.25400
G01 X-31.43997 Y-0.25400
G01 X-31.43880 Y0.65593
G01 X-31.42798 Y0.77605
G01 X-31.40994 Y0.87602
G01 X-31.41916 Y0.92232
G01 X-31.43900 Y1.12161
G01 X-31.43900 Y1.16063
G01 X-31.41916 Y1.35992
G01 X-31.33093 Y1.76675
G01 X-31.32788 Y1.79733
G01 X-31.17464 Y1.87409
G01 X-31.17124 Y2.07983
G01 X-31.17339 Y2.40807
G01 X-31.18043 Y2.50259
G01 X-31.20268 Y2.59392
G01 X-31.30207 Y2.79961
G01 X-31.29404 Y2.84000
G01 X-31.26362 Y2.92557
G01 X-31.24007 Y2.94302
G01 X-31.24009 Y3.96484
G01 X-31.50677 Y4.09151
G01 X-31.83758 Y3.91109
G01 X-32.18155 Y3.88069
G01 X-32.36912 Y3.87607
G01 X-32.57111 Y3.89235
G01 X-32.63837 Y3.87485
G01 X-32.81726 Y3.87378
G01 X-32.96384 Y3.88000
G01 X-33.03956 Y3.88813
G01 X-33.11444 Y3.88041
G01 X-33.36414 Y3.86867
G01 X-33.43831 Y3.86108
G01 X-33.44149 Y3.66926
G01 X-33.43847 Y3.40393
G01 X-33.44067 Y3.31208
G01 X-33.44705 Y3.24185
G01 X-33.46630 Y3.16154
G01 X-33.49635 Y3.08008
G01 X-33.50390 Y3.04096
G01 X-33.50750 Y2.97431
G01 X-33.51538 Y2.93533
G01 X-33.53880 Y2.87454
G01 X-33.51563 Y2.81363
G01 X-33.50661 Y2.76123
G01 X-33.50600 Y1.92021
G01 X-33.33862 Y1.87170
G01 X-33.43933 Y1.47051
G01 X-33.44141 Y1.29672
G01 X-33.45579 Y1.19746
G01 X-33.46864 Y1.15514
G01 X-33.48855 Y1.10858
G01 X-33.54062 Y1.00554
G01 X-33.57270 Y0.95438
G01 X-33.57387 Y0.71199
G01 X-33.58540 Y0.64267
G01 X-33.61690 Y0.53947
G01 X-33.62965 Y0.48179
G01 X-33.63935 Y0.36896
G01 X-33.63935 Y-0.25400
G01 X-34.17270 Y-0.25400
G01 X-34.17225 Y0.36921
G01 X-34.16569 Y0.45801
G01 X-34.14903 Y0.53967
G01 X-34.12505 Y0.61976
G01 X-34.07654 Y0.76063
G01 X-34.03918 Y0.85174
G01 X-34.03918 Y0.91062
G01 X-34.07654 Y0.98847
G01 X-34.15287 Y1.22232
G01 X-34.16178 Y1.26825
G01 X-34.17128 Y1.37892
G01 X-34.17250 Y1.54790
G01 X-34.21324 Y1.73708
G01 X-34.25063 Y1.94033
G01 X-34.41441 Y2.01468
G01 X-34.69935 Y2.16814
G01 X-34.90554 Y2.29738
G01 X-34.90689 Y1.31224
G01 X-34.91327 Y1.24191
G01 X-34.92241 Y1.19588
G01 X-34.96257 Y1.08014
G01 X-34.97011 Y1.04102
G01 X-34.97362 Y0.97422
G01 X-34.98139 Y0.93520
G01 X-35.00458 Y0.87455
G01 X-34.93051 Y0.72405
G01 X-34.89912 Y0.67727
G01 X-34.90554 Y0.57851
G01 X-34.90554 Y-0.25400
G01 X-34.90554 Y0.57851
G01 X-34.89912 Y0.67727
G01 X-34.93051 Y0.72405
G01 X-35.00458 Y0.87455
G01 X-35.04499 Y0.87546
G01 X-36.38568 Y0.87455
G01 X-36.37267 Y0.57539
G01 X-36.37389 Y-0.25400
G01 X-36.37267 Y0.57539
G01 X-36.38568 Y0.87455
G01 X-36.39663 Y0.94110
G01 X-36.37821 Y1.12799
G01 X-36.32700 Y2.00792
G01 X-35.73706 Y2.84002
G01 X-35.51298 Y2.86441
G01 X-35.12121 Y2.49504
G01 X-34.90554 Y2.29738
G01 X-34.69935 Y2.16814
G01 X-34.41441 Y2.01468
G01 X-34.25063 Y1.94033
G01 X-33.75309 Y1.94036
G01 X-33.61243 Y1.93256
G01 X-33.50600 Y1.92021
G01 X-33.33862 Y1.87170
G01 X-33.23519 Y1.88100
G01 X-33.10621 Y1.89911
G01 X-33.01456 Y1.88427
G01 X-32.64057 Y2.00741
G01 X-32.17314 Y2.00777
G01 X-32.07446 Y2.01262
G01 X-31.90489 Y2.02928
G01 X-31.66326 Y1.94975
G01 X-31.56232 Y1.91259
G01 X-31.37792 Y1.82527
G01 X-31.32788 Y1.79733
G01 X-31.17464 Y1.87409
G01 X-30.91495 Y1.92578
G01 X-30.72653 Y1.94122
G01 X-30.55422 Y1.93340
G01 X-30.37380 Y1.91442
G01 X-30.27248 Y1.87414
G01 X-29.91150 Y1.87394
G01 X-29.78208 Y1.87983
G01 X-29.63893 Y1.89291
G01 X-29.50728 Y1.85577
G01 X-29.26817 Y1.87744
G01 X-29.17101 Y1.88910
G01 X-29.03962 Y1.91097
G01 X-28.90746 Y1.87422
G01 X-28.48417 Y1.87175
G01 X-28.24160 Y1.97820
G01 X-27.92948 Y2.01198
G01 X-27.77602 Y2.03713
G01 X-27.64572 Y2.01618
G01 X-27.51021 Y2.00777
G01 X-20.83608 Y2.00861
G01 X-21.35022 Y2.54813
G01 X-22.20785 Y3.40779
G01 X-22.69094 Y3.86845
G01 X-22.84661 Y4.00789
G01 X-27.92948 Y4.00693
G01 X-28.04109 Y4.00045
G01 X-28.24061 Y3.97858
G01 X-28.47914 Y3.87386
G01 X-28.70335 Y3.87513
G01 X-28.80538 Y3.87160
G01 X-28.90957 Y3.81386
G01 X-29.37360 Y3.71211
G01 X-29.50101 Y3.73273
G01 X-29.77822 Y3.76387
G01 X-29.91432 Y3.81028
G01 X-30.07713 Y3.87358
G01 X-30.31289 Y3.84932
G01 X-30.37261 Y3.83817
G01 X-30.50827 Y3.87454
G01 X-30.70708 Y3.87452
G01 X-30.83212 Y3.88069
G01 X-31.06456 Y3.91833
G01 X-31.24009 Y3.96484
G01 X-31.50677 Y4.09151
G01 X-31.83758 Y3.91109
G01 X-31.84136 Y3.67289
G01 X-31.83743 Y3.39989
G01 X-31.82485 Y3.29408
G01 X-31.77789 Y3.07978
G01 X-31.77258 Y3.00777
G01 X-31.77294 Y2.83891
G01 X-31.79961 Y2.78704
G01 X-31.82567 Y2.71856
G01 X-31.86499 Y2.60109
G01 X-31.89554 Y2.48249
G01 X-31.90522 Y2.37030
G01 X-31.90796 Y2.17589
G01 X-31.90489 Y2.02928
G01 X-31.90796 Y2.17589
G01 X-31.90522 Y2.37030
G01 X-31.89554 Y2.48249
G01 X-31.86499 Y2.60109
G01 X-31.82567 Y2.71856
G01 X-31.79961 Y2.78704
G01 X-31.77294 Y2.83891
G01 X-31.77258 Y3.00777
G01 X-31.77789 Y3.07978
G01 X-31.82485 Y3.29408
G01 X-31.83743 Y3.39989
G01 X-31.84136 Y3.67289
G01 X-31.83758 Y3.91109
G01 X-32.18155 Y3.88069
G01 X-32.36912 Y3.87607
G01 X-32.57111 Y3.89235
G01 X-32.63837 Y3.87485
G01 X-32.81726 Y3.87378
G01 X-32.96384 Y3.88000
G01 X-33.03956 Y3.88813
G01 X-33.11444 Y3.88041
G01 X-33.36414 Y3.86867
G01 X-33.43831 Y3.86108
G01 X-33.55785 Y3.87279
G01 X-33.77258 Y3.87980
G01 X-33.55785 Y3.87279
G01 X-33.43831 Y3.86108
G01 X-33.55785 Y3.87279
G01 X-33.77258 Y3.87980
G01 X-34.03915 Y3.85562
G01 X-34.30572 Y3.78341
G01 X-34.63897 Y3.63210
G01 X-34.84580 Y3.48143
G01 X-35.09277 Y3.28155
G01 X-35.30547 Y3.08785
G01 X-35.51298 Y2.86441
G01 X-35.73706 Y2.84002
G01 X-36.32700 Y2.00792
G01 X-37.69076 Y2.00652
G01 X-37.86040 Y1.98692
G01 X-37.97557 Y1.96337
G01 X-38.10782 Y2.00777
G01 X-38.77422 Y2.00810
G01 X-38.95743 Y1.94671
G01 X-39.21585 Y1.84965
G01 X-39.29619 Y1.87119
G01 X-39.44071 Y1.96355
G01 X-39.75087 Y1.99845
G01 X-39.88438 Y2.00731
G01 X-40.09001 Y2.00871
G01 X-40.24043 Y2.02291
G01 X-40.43893 Y1.97780
G01 X-40.56997 Y1.99913
G01 X-40.71038 Y2.00774
G01 X-41.63969 Y2.00924
G01 X-41.63946 Y1.96195
G01 X-41.76855 Y1.73652
G01 X-41.90733 Y1.47602
G01 X-42.14988 Y0.98887
G01 X-41.95930 Y0.79355
G01 X-41.91302 Y0.73685
G01 X-41.85989 Y0.64849
G01 X-41.82511 Y0.56403
G01 X-41.79176 Y0.42883
G01 X-41.77464 Y0.23706
G01 X-41.77332 Y-0.25400
G01 X-41.23639 Y-0.25400
G01 X-41.23705 Y0.05413
G01 X-41.24211 Y0.23988
G01 X-41.24107 Y0.61135
G01 X-41.24010 Y0.76881
G01 X-41.22986 Y0.86408
G01 X-41.32085 Y0.95560
G01 X-41.38905 Y1.04531
G01 X-41.42890 Y1.11910
G01 X-41.49367 Y1.27445
G01 X-41.52831 Y1.37846
G01 X-41.55404 Y1.49235
G01 X-41.59240 Y1.72593
G01 X-41.63946 Y1.96195
G01 X-41.63969 Y2.00924
G01 X-42.10538 Y2.52319
G01 X-42.41676 Y2.87454
G01 X-42.58008 Y3.01742
G01 X-42.84370 Y2.99629
G01 X-43.10609 Y3.00777
G01 X-43.57479 Y3.00746
G01 X-43.63938 Y2.99888
G01 X-43.82054 Y3.00665
G01 X-44.24269 Y2.89197
G01 X-44.23679 Y2.25641
G01 X-44.24060 Y1.93977
G01 X-44.23799 Y1.69266
G01 X-44.22399 Y1.56035
G01 X-44.17921 Y1.36378
G01 X-44.17266 Y1.29609
G01 X-44.17357 Y1.10823
G01 X-44.18909 Y1.00785
G01 X-44.17977 Y0.96109
G01 X-44.17319 Y0.89418
G01 X-44.17327 Y0.83934
G01 X-44.21068 Y0.76131
G01 X-44.25051 Y0.64209
G01 X-44.28218 Y0.53972
G01 X-44.29839 Y0.45834
G01 X-44.30697 Y0.24575
G01 X-44.30563 Y-0.25400
G04 P0 ( dwell for no time -- G64 should not smooth over this point )
G00 Z10.00000 ( retract )

G00 X-55.50718 Y39.08793 ( rapid move to begin. )
G01 F30.00000
( Mill infeed pass 1/1 )
G01 Z-0.10000
G04 P0 ( dwell for no time -- G64 should not smooth over this point )
G01 F360.00000
G01 X-55.50718 Y39.08793
G01 X-55.53144 Y39.28379
G01 X-55.53862 Y39.31554
G01 X-55.58170 Y39.43233
G01 X-55.62691 Y39.52718
G01 X-55.68658 Y39.61394
G01 X-55.76621 Y39.70970
G01 X-55.81078 Y39.74899
G01 X-55.94772 Y39.85077
G01 X-56.10405 Y39.91834
G01 X-56.16037 Y39.93728
G01 X-56.28310 Y39.95839
G01 X-56.38800 Y39.96667
G01 X-56.49285 Y39.95839
G01 X-56.62341 Y39.93596
G01 X-56.67700 Y39.93063
G01 X-56.73397 Y39.97409
G01 X-63.09718 Y46.33730
G01 X-63.12306 Y46.36734
G01 X-63.13094 Y46.43056
G01 X-63.13094 Y47.45797
G01 X-63.15271 Y47.56320
G01 X-63.25791 Y47.58499
G01 X-64.75806 Y47.58499
G01 X-64.86327 Y47.56320
G01 X-64.88504 Y47.45797
G01 X-64.88504 Y45.95787
G01 X-64.86327 Y45.85264
G01 X-64.75806 Y45.83085
G01 X-63.73063 Y45.83085
G01 X-63.66744 Y45.82300
G01 X-63.63736 Y45.79711
G01 X-57.27416 Y39.43391
G01 X-57.22902 Y39.37399
G01 X-57.24911 Y39.25727
G01 X-57.26880 Y39.08793
G01 X-57.24909 Y38.91857
G01 X-57.23735 Y38.86030
G01 X-57.19425 Y38.74348
G01 X-57.14906 Y38.64867
G01 X-57.08937 Y38.56187
G01 X-57.00977 Y38.46614
G01 X-56.98587 Y38.44404
G01 X-56.83954 Y38.33302
G01 X-56.81596 Y38.31938
G01 X-56.64662 Y38.24818
G01 X-56.61561 Y38.23853
G01 X-56.49285 Y38.21742
G01 X-56.38797 Y38.20917
G01 X-56.28310 Y38.21745
G01 X-56.16037 Y38.23853
G01 X-56.10405 Y38.25751
G01 X-55.95998 Y38.31941
G01 X-55.93644 Y38.33299
G01 X-55.81078 Y38.42685
G01 X-55.76621 Y38.46614
G01 X-55.68658 Y38.56187
G01 X-55.62691 Y38.64867
G01 X-55.58170 Y38.74348
G01 X-55.53860 Y38.86030
G01 X-55.52686 Y38.91857
G01 X-55.50718 Y39.08793
G04 P0 ( dwell for no time -- G64 should not smooth over this point )
G00 Z10.00000 ( retract )

G00 X-27.56718 Y41.62793 ( rapid move to begin. )
G01 F30.00000
( Mill infeed pass 1/1 )
G01 Z-0.10000
G04 P0 ( dwell for no time -- G64 should not smooth over this point )
G01 F360.00000
G01 X-27.56718 Y41.62793
G01 X-27.59144 Y41.82379
G01 X-27.59862 Y41.85554
G01 X-27.64170 Y41.97233
G01 X-27.68691 Y42.06718
G01 X-27.74658 Y42.15394
G01 X-27.82621 Y42.24970
G01 X-27.87078 Y42.28899
G01 X-28.00772 Y42.39077
G01 X-28.16405 Y42.45834
G01 X-28.22037 Y42.47728
G01 X-28.34310 Y42.49839
G01 X-28.44797 Y42.50667
G01 X-28.55285 Y42.49839
G01 X-28.67561 Y42.47728
G01 X-28.73190 Y42.45834
G01 X-28.88826 Y42.39077
G01 X-29.02516 Y42.28899
G01 X-29.06977 Y42.24970
G01 X-29.14940 Y42.15397
G01 X-29.20906 Y42.06718
G01 X-29.25427 Y41.97233
G01 X-29.29735 Y41.85554
G01 X-29.30454 Y41.82379
G01 X-29.32880 Y41.62793
G01 X-29.30454 Y41.43202
G01 X-29.29735 Y41.40030
G01 X-29.25425 Y41.28348
G01 X-29.20906 Y41.18867
G01 X-29.14937 Y41.10187
G01 X-29.06977 Y41.00614
G01 X-29.02516 Y40.96685
G01 X-28.88828 Y40.86504
G01 X-28.73190 Y40.79748
G01 X-28.67561 Y40.77853
G01 X-28.55285 Y40.75742
G01 X-28.44797 Y40.74917
G01 X-28.34310 Y40.75745
G01 X-28.22037 Y40.77853
G01 X-28.16405 Y40.79751
G01 X-28.00769 Y40.86504
G01 X-27.87078 Y40.96685
G01 X-27.82621 Y41.00614
G01 X-27.74658 Y41.10187
G01 X-27.68691 Y41.18867
G01 X-27.64170 Y41.28348
G01 X-27.59860 Y41.40030
G01 X-27.59144 Y41.43202
G01 X-27.56718 Y41.62793
G04 P0 ( dwell for no time -- G64 should not smooth over this point )
G00 Z10.00000 ( retract )

G00 X-7.25091 Y43.41785 ( rapid move to begin. )
G01 F30.00000
( Mill infeed pass 1/1 )
G01 Z-0.10000
G04 P0 ( dwell for no time -- G64 should not smooth over this point )
G01 F360.00000
G01 X-7.25091 Y43.41785
G01 X-7.27268 Y43.31264
G01 X-7.37794 Y43.29085
G01 X-8.87806 Y43.29085
G01 X-8.98327 Y43.31264
G01 X-9.00506 Y43.41785
G01 X-9.00506 Y44.91799
G01 X-8.98327 Y45.02320
G01 X-8.87806 Y45.04497
G01 X-7.37794 Y45.04497
G01 X-7.27271 Y45.02318
G01 X-7.25091 Y44.91799
G01 X-7.25091 Y43.41785
G04 P0 ( dwell for no time -- G64 should not smooth over this point )
G00 Z10.00000 ( retract )

G00 X-7.24715 Y41.62793 ( rapid move to begin. )
G01 F30.00000
( Mill infeed pass 1/1 )
G01 Z-0.10000
G04 P0 ( dwell for no time -- G64 should not smooth over this point )
G01 F360.00000
G01 X-7.24715 Y41.62793
G01 X-7.27144 Y41.82379
G01 X-7.27862 Y41.85554
G01 X-7.32170 Y41.97233
G01 X-7.36691 Y42.06718
G01 X-7.42658 Y42.15394
G01 X-7.50621 Y42.24970
G01 X-7.55079 Y42.28899
G01 X-7.68772 Y42.39077
G01 X-7.84405 Y42.45834
G01 X-7.90037 Y42.47728
G01 X-8.02310 Y42.49839
G01 X-8.12800 Y42.50667
G01 X-8.23285 Y42.49839
G01 X-8.35561 Y42.47728
G01 X-8.41190 Y42.45834
G01 X-8.56826 Y42.39077
G01 X-8.70516 Y42.28899
G01 X-8.74977 Y42.24970
G01 X-8.82940 Y42.15397
G01 X-8.88906 Y42.06718
G01 X-8.93427 Y41.97233
G01 X-8.97735 Y41.85554
G01 X-8.98454 Y41.82379
G01 X-9.00880 Y41.62793
G01 X-8.98454 Y41.43202
G01 X-8.97735 Y41.40030
G01 X-8.93425 Y41.28348
G01 X-8.88906 Y41.18867
G01 X-8.82937 Y41.10187
G01 X-8.74977 Y41.00614
G01 X-8.70516 Y40.96685
G01 X-8.56828 Y40.86504
G01 X-8.41190 Y40.79748
G01 X-8.35561 Y40.77853
G01 X-8.23285 Y40.75742
G01 X-8.12800 Y40.74917
G01 X-8.02310 Y40.75745
G01 X-7.90037 Y40.77853
G01 X-7.84405 Y40.79751
G01 X-7.68769 Y40.86504
G01 X-7.55079 Y40.96685
G01 X-7.50621 Y41.00614
G01 X-7.42658 Y41.10187
G01 X-7.36691 Y41.18867
G01 X-7.32170 Y41.28348
G01 X-7.27860 Y41.40030
G01 X-7.27144 Y41.43202
G01 X-7.24715 Y41.62793

G04 P0 ( dwell for no time -- G64 should not smooth over this point )
G00 Z50.000000 ( retract )

M5 ( Spindle off. )
G04 P1.000000
M9 ( Coolant off. )
M2 ( Program end. )

