( pcb2gcode 1.3.2 )
( Software-independent Gcode )
( This file uses a mill head of 0.10000inch to drill the 3 bit sizes. )
( Bit sizes: [0.015748 inch] [0.0394094 inch] [0.11811 inch] )

G94       (Inches per minute feed rate.)
G20       (Units == INCHES.)
G91.1     (Incremental arc distance mode.)
G90       (Absolute coordinates.)
S10000    (RPM spindle speed.)
G01 F100.00000 (Feedrate)
M3        (Spindle on clockwise.)
G04 P1.00000
G00 Z0.08000

G0 X3.40000 Y-2.85000
G1 Z-0.06299 F50.00000
G0 Z0.08000

G0 X3.49843 Y-2.85000
G1 Z-0.06299 F50.00000
G0 Z0.08000

G0 X3.40000 Y-3.17126
G1 Z-0.06299 F50.00000
G0 Z0.08000

G0 X3.40000 Y-3.25000
G1 Z-0.06299 F50.00000
G0 Z0.08000

G0 X3.40000 Y-3.32874
G1 Z-0.06299 F50.00000
G0 Z0.08000

G0 X3.25000 Y-2.55000
G1 Z-0.06299 F50.00000
G0 Z0.08000

G0 X3.65000 Y-2.55000
G1 Z-0.06299 F50.00000
G0 Z0.08000

G0 X3.81500 Y-2.66535
G1 Z0.02100 F50.00000
F100.00000
G1 X3.81500 Y-2.58665 Z0.01050
G1 X3.81500 Y-2.66535 Z-0.00000
G1 X3.81500 Y-2.58665 Z-0.01050
G1 X3.81500 Y-2.66535 Z-0.02100
G1 X3.81500 Y-2.58665 Z-0.03150
G1 X3.81500 Y-2.66535 Z-0.04199
G1 X3.81500 Y-2.58665 Z-0.05249
G1 X3.81500 Y-2.66535 Z-0.06299
G1 X3.81500 Y-2.58665
G0 Z0.08000

G0 X3.96067 Y-2.50791
G1 Z0.02100 F50.00000
F100.00000
G1 X4.03933 Y-2.50791 Z0.01050
G1 X3.96067 Y-2.50791 Z-0.00000
G1 X4.03933 Y-2.50791 Z-0.01050
G1 X3.96067 Y-2.50791 Z-0.02100
G1 X4.03933 Y-2.50791 Z-0.03150
G1 X3.96067 Y-2.50791 Z-0.04199
G1 X4.03933 Y-2.50791 Z-0.05249
G1 X3.96067 Y-2.50791 Z-0.06299
G1 X4.03933 Y-2.50791
G0 Z0.08000

G0 X4.30000 Y-2.55000
G1 Z-0.06299 F50.00000
G0 Z0.08000

G0 X4.70000 Y-2.55000
G1 Z-0.06299 F50.00000
G0 Z0.08000

G0 X4.70000 Y-2.95000
G1 Z-0.06299 F50.00000
G0 Z0.08000

G0 X4.30000 Y-2.95000
G1 Z-0.06299 F50.00000
G0 Z0.08000

G0 X4.15000 Y-3.30000
G1 Z-0.06299 F50.00000
G0 Z0.08000

G0 X4.05000 Y-3.30000
G1 Z-0.06299 F50.00000
G0 Z0.08000

G0 X3.85000 Y-3.30000
G1 Z-0.06299 F50.00000
G0 Z0.08000

G0 X3.75000 Y-3.30000
G1 Z-0.06299 F50.00000
G0 Z0.08000

G0 X3.65000 Y-2.95000
G1 Z-0.06299 F50.00000
G0 Z0.08000

G0 X3.25000 Y-2.95000
G1 Z-0.06299 F50.00000
G0 Z0.08000

G0 X3.95183 Y-2.39173
G1 Z0.02100 F50.00000
F100.00000
G2 X3.96951 Y-2.38780 Z0.02023 I0.00884 J0.00196
G1 X4.04817 Y-2.74213 Z0.01050
G2 X4.03049 Y-2.74606 Z0.00974 I-0.00884 J-0.00196
G1 X3.95183 Y-2.39173 Z-0.00000
G2 X3.96951 Y-2.38780 Z-0.00076 I0.00884 J0.00196
G1 X4.04817 Y-2.74213 Z-0.01050
G2 X4.03049 Y-2.74606 Z-0.01126 I-0.00884 J-0.00196
G1 X3.95183 Y-2.39173 Z-0.02100
G2 X3.96951 Y-2.38780 Z-0.02176 I0.00884 J0.00196
G1 X4.04817 Y-2.74213 Z-0.03150
G2 X4.03049 Y-2.74606 Z-0.03226 I-0.00884 J-0.00196
G1 X3.95183 Y-2.39173 Z-0.04199
G2 X3.96951 Y-2.38780 Z-0.04276 I0.00884 J0.00196
G1 X4.04817 Y-2.74213 Z-0.05249
G2 X4.03049 Y-2.74606 Z-0.05326 I-0.00884 J-0.00196
G1 X3.95183 Y-2.39173 Z-0.06299
G2 X3.96951 Y-2.38780 I0.00884 J0.00196
G1 X4.04817 Y-2.74213
G2 X4.03049 Y-2.74606 I-0.00884 J-0.00196
G1 X3.95183 Y-2.39173
G0 Z0.08000

G0 X4.46063 Y-2.85000
G1 Z0.02100 F50.00000
F100.00000
G2 X4.46063 Y-2.85000 Z-0.00000 I-0.00906 J0.00000
G2 X4.46063 Y-2.85000 Z-0.02100 I-0.00906 J0.00000
G2 X4.46063 Y-2.85000 Z-0.04199 I-0.00906 J0.00000
G2 X4.46063 Y-2.85000 Z-0.06299 I-0.00906 J0.00000
G2 X4.46063 Y-2.85000 I-0.00906 J0.00000
G0 Z0.08000

G0 X4.55906 Y-2.85000
G1 Z0.02100 F50.00000
F100.00000
G2 X4.55906 Y-2.85000 Z-0.00000 I-0.00906 J0.00000
G2 X4.55906 Y-2.85000 Z-0.02100 I-0.00906 J0.00000
G2 X4.55906 Y-2.85000 Z-0.04199 I-0.00906 J0.00000
G2 X4.55906 Y-2.85000 Z-0.06299 I-0.00906 J0.00000
G2 X4.55906 Y-2.85000 I-0.00906 J0.00000
G0 Z0.08000

G0 X4.50906 Y-3.17126
G1 Z0.02100 F50.00000
F100.00000
G2 X4.50906 Y-3.17126 Z-0.00000 I-0.00906 J0.00000
G2 X4.50906 Y-3.17126 Z-0.02100 I-0.00906 J0.00000
G2 X4.50906 Y-3.17126 Z-0.04199 I-0.00906 J0.00000
G2 X4.50906 Y-3.17126 Z-0.06299 I-0.00906 J0.00000
G2 X4.50906 Y-3.17126 I-0.00906 J0.00000
G0 Z0.08000

G0 X4.50906 Y-3.25000
G1 Z0.02100 F50.00000
F100.00000
G2 X4.50906 Y-3.25000 Z-0.00000 I-0.00906 J0.00000
G2 X4.50906 Y-3.25000 Z-0.02100 I-0.00906 J0.00000
G2 X4.50906 Y-3.25000 Z-0.04199 I-0.00906 J0.00000
G2 X4.50906 Y-3.25000 Z-0.06299 I-0.00906 J0.00000
G2 X4.50906 Y-3.25000 I-0.00906 J0.00000
G0 Z0.08000

G0 X4.50906 Y-3.32874
G1 Z0.02100 F50.00000
F100.00000
G2 X4.50906 Y-3.32874 Z-0.00000 I-0.00906 J0.00000
G2 X4.50906 Y-3.32874 Z-0.02100 I-0.00906 J0.00000
G2 X4.50906 Y-3.32874 Z-0.04199 I-0.00906 J0.00000
G2 X4.50906 Y-3.32874 Z-0.06299 I-0.00906 J0.00000
G2 X4.50906 Y-3.32874 I-0.00906 J0.00000
G0 Z0.08000

G00 Z1.000 ( All done -- retract )

M5      (Spindle off.)
G04 P1.000000
M9      (Coolant off.)
M2      (Program end.)

