( pcb2gcode 1.3.2 )
( Software-independent Gcode )
( This file uses a mill head of 0.10000inch to drill the 3 bit sizes. )
( Bit sizes: [0.015748 inch] [0.0394094 inch] [0.11811 inch] )

G94       (Inches per minute feed rate.)
G20       (Units == INCHES.)
G91.1     (Incremental arc distance mode.)
G90       (Absolute coordinates.)
S10000    (RPM spindle speed.)
G01 F100.00000 (Feedrate)
M3        (Spindle on clockwise.)
G04 P1.00000
G00 Z0.08000

G0 X3.40000 Y-2.85000
G1 Z-1.60000
G0 Z0.08000

G0 X3.49843 Y-2.85000
G1 Z-1.60000
G0 Z0.08000

G0 X3.40000 Y-3.17126
G1 Z-1.60000
G0 Z0.08000

G0 X3.40000 Y-3.25000
G1 Z-1.60000
G0 Z0.08000

G0 X3.40000 Y-3.32874
G1 Z-1.60000
G0 Z0.08000

G0 X3.25000 Y-2.55000
G1 Z-1.60000
G0 Z0.08000

G0 X3.65000 Y-2.55000
G1 Z-1.60000
G0 Z0.08000

G0 X3.81500 Y-2.66535
G1 Z0.02963 F50.00000
G1 F100.00000
G1 X3.81500 Y-2.58665 Z0.01481
G1 X3.81500 Y-2.66535 Z-0.00000
G1 X3.81500 Y-2.58665 Z-0.01481
G1 X3.81500 Y-2.66535 Z-0.02963
G1 X3.81500 Y-2.58665 Z-0.04444
G1 X3.81500 Y-2.66535 Z-0.05926
G1 X3.81500 Y-2.58665 Z-0.07407
G1 X3.81500 Y-2.66535 Z-0.08889
G1 X3.81500 Y-2.58665 Z-0.10370
G1 X3.81500 Y-2.66535 Z-0.11852
G1 X3.81500 Y-2.58665 Z-0.13333
G1 X3.81500 Y-2.66535 Z-0.14815
G1 X3.81500 Y-2.58665 Z-0.16296
G1 X3.81500 Y-2.66535 Z-0.17778
G1 X3.81500 Y-2.58665 Z-0.19259
G1 X3.81500 Y-2.66535 Z-0.20741
G1 X3.81500 Y-2.58665 Z-0.22222
G1 X3.81500 Y-2.66535 Z-0.23704
G1 X3.81500 Y-2.58665 Z-0.25185
G1 X3.81500 Y-2.66535 Z-0.26667
G1 X3.81500 Y-2.58665 Z-0.28148
G1 X3.81500 Y-2.66535 Z-0.29630
G1 X3.81500 Y-2.58665 Z-0.31111
G1 X3.81500 Y-2.66535 Z-0.32593
G1 X3.81500 Y-2.58665 Z-0.34074
G1 X3.81500 Y-2.66535 Z-0.35556
G1 X3.81500 Y-2.58665 Z-0.37037
G1 X3.81500 Y-2.66535 Z-0.38519
G1 X3.81500 Y-2.58665 Z-0.40000
G1 X3.81500 Y-2.66535 Z-0.41481
G1 X3.81500 Y-2.58665 Z-0.42963
G1 X3.81500 Y-2.66535 Z-0.44444
G1 X3.81500 Y-2.58665 Z-0.45926
G1 X3.81500 Y-2.66535 Z-0.47407
G1 X3.81500 Y-2.58665 Z-0.48889
G1 X3.81500 Y-2.66535 Z-0.50370
G1 X3.81500 Y-2.58665 Z-0.51852
G1 X3.81500 Y-2.66535 Z-0.53333
G1 X3.81500 Y-2.58665 Z-0.54815
G1 X3.81500 Y-2.66535 Z-0.56296
G1 X3.81500 Y-2.58665 Z-0.57778
G1 X3.81500 Y-2.66535 Z-0.59259
G1 X3.81500 Y-2.58665 Z-0.60741
G1 X3.81500 Y-2.66535 Z-0.62222
G1 X3.81500 Y-2.58665 Z-0.63704
G1 X3.81500 Y-2.66535 Z-0.65185
G1 X3.81500 Y-2.58665 Z-0.66667
G1 X3.81500 Y-2.66535 Z-0.68148
G1 X3.81500 Y-2.58665 Z-0.69630
G1 X3.81500 Y-2.66535 Z-0.71111
G1 X3.81500 Y-2.58665 Z-0.72593
G1 X3.81500 Y-2.66535 Z-0.74074
G1 X3.81500 Y-2.58665 Z-0.75556
G1 X3.81500 Y-2.66535 Z-0.77037
G1 X3.81500 Y-2.58665 Z-0.78519
G1 X3.81500 Y-2.66535 Z-0.80000
G1 X3.81500 Y-2.58665 Z-0.81481
G1 X3.81500 Y-2.66535 Z-0.82963
G1 X3.81500 Y-2.58665 Z-0.84444
G1 X3.81500 Y-2.66535 Z-0.85926
G1 X3.81500 Y-2.58665 Z-0.87407
G1 X3.81500 Y-2.66535 Z-0.88889
G1 X3.81500 Y-2.58665 Z-0.90370
G1 X3.81500 Y-2.66535 Z-0.91852
G1 X3.81500 Y-2.58665 Z-0.93333
G1 X3.81500 Y-2.66535 Z-0.94815
G1 X3.81500 Y-2.58665 Z-0.96296
G1 X3.81500 Y-2.66535 Z-0.97778
G1 X3.81500 Y-2.58665 Z-0.99259
G1 X3.81500 Y-2.66535 Z-1.00741
G1 X3.81500 Y-2.58665 Z-1.02222
G1 X3.81500 Y-2.66535 Z-1.03704
G1 X3.81500 Y-2.58665 Z-1.05185
G1 X3.81500 Y-2.66535 Z-1.06667
G1 X3.81500 Y-2.58665 Z-1.08148
G1 X3.81500 Y-2.66535 Z-1.09630
G1 X3.81500 Y-2.58665 Z-1.11111
G1 X3.81500 Y-2.66535 Z-1.12593
G1 X3.81500 Y-2.58665 Z-1.14074
G1 X3.81500 Y-2.66535 Z-1.15556
G1 X3.81500 Y-2.58665 Z-1.17037
G1 X3.81500 Y-2.66535 Z-1.18519
G1 X3.81500 Y-2.58665 Z-1.20000
G1 X3.81500 Y-2.66535 Z-1.21481
G1 X3.81500 Y-2.58665 Z-1.22963
G1 X3.81500 Y-2.66535 Z-1.24444
G1 X3.81500 Y-2.58665 Z-1.25926
G1 X3.81500 Y-2.66535 Z-1.27407
G1 X3.81500 Y-2.58665 Z-1.28889
G1 X3.81500 Y-2.66535 Z-1.30370
G1 X3.81500 Y-2.58665 Z-1.31852
G1 X3.81500 Y-2.66535 Z-1.33333
G1 X3.81500 Y-2.58665 Z-1.34815
G1 X3.81500 Y-2.66535 Z-1.36296
G1 X3.81500 Y-2.58665 Z-1.37778
G1 X3.81500 Y-2.66535 Z-1.39259
G1 X3.81500 Y-2.58665 Z-1.40741
G1 X3.81500 Y-2.66535 Z-1.42222
G1 X3.81500 Y-2.58665 Z-1.43704
G1 X3.81500 Y-2.66535 Z-1.45185
G1 X3.81500 Y-2.58665 Z-1.46667
G1 X3.81500 Y-2.66535 Z-1.48148
G1 X3.81500 Y-2.58665 Z-1.49630
G1 X3.81500 Y-2.66535 Z-1.51111
G1 X3.81500 Y-2.58665 Z-1.52593
G1 X3.81500 Y-2.66535 Z-1.54074
G1 X3.81500 Y-2.58665 Z-1.55556
G1 X3.81500 Y-2.66535 Z-1.57037
G1 X3.81500 Y-2.58665 Z-1.58519
G1 X3.81500 Y-2.66535 Z-1.60000
G1 X3.81500 Y-2.58665
G0 Z0.08000

G0 X3.96067 Y-2.50791
G1 Z0.02963 F50.00000
G1 F100.00000
G1 X4.03933 Y-2.50791 Z0.01481
G1 X3.96067 Y-2.50791 Z-0.00000
G1 X4.03933 Y-2.50791 Z-0.01481
G1 X3.96067 Y-2.50791 Z-0.02963
G1 X4.03933 Y-2.50791 Z-0.04444
G1 X3.96067 Y-2.50791 Z-0.05926
G1 X4.03933 Y-2.50791 Z-0.07407
G1 X3.96067 Y-2.50791 Z-0.08889
G1 X4.03933 Y-2.50791 Z-0.10370
G1 X3.96067 Y-2.50791 Z-0.11852
G1 X4.03933 Y-2.50791 Z-0.13333
G1 X3.96067 Y-2.50791 Z-0.14815
G1 X4.03933 Y-2.50791 Z-0.16296
G1 X3.96067 Y-2.50791 Z-0.17778
G1 X4.03933 Y-2.50791 Z-0.19259
G1 X3.96067 Y-2.50791 Z-0.20741
G1 X4.03933 Y-2.50791 Z-0.22222
G1 X3.96067 Y-2.50791 Z-0.23704
G1 X4.03933 Y-2.50791 Z-0.25185
G1 X3.96067 Y-2.50791 Z-0.26667
G1 X4.03933 Y-2.50791 Z-0.28148
G1 X3.96067 Y-2.50791 Z-0.29630
G1 X4.03933 Y-2.50791 Z-0.31111
G1 X3.96067 Y-2.50791 Z-0.32593
G1 X4.03933 Y-2.50791 Z-0.34074
G1 X3.96067 Y-2.50791 Z-0.35556
G1 X4.03933 Y-2.50791 Z-0.37037
G1 X3.96067 Y-2.50791 Z-0.38519
G1 X4.03933 Y-2.50791 Z-0.40000
G1 X3.96067 Y-2.50791 Z-0.41481
G1 X4.03933 Y-2.50791 Z-0.42963
G1 X3.96067 Y-2.50791 Z-0.44444
G1 X4.03933 Y-2.50791 Z-0.45926
G1 X3.96067 Y-2.50791 Z-0.47407
G1 X4.03933 Y-2.50791 Z-0.48889
G1 X3.96067 Y-2.50791 Z-0.50370
G1 X4.03933 Y-2.50791 Z-0.51852
G1 X3.96067 Y-2.50791 Z-0.53333
G1 X4.03933 Y-2.50791 Z-0.54815
G1 X3.96067 Y-2.50791 Z-0.56296
G1 X4.03933 Y-2.50791 Z-0.57778
G1 X3.96067 Y-2.50791 Z-0.59259
G1 X4.03933 Y-2.50791 Z-0.60741
G1 X3.96067 Y-2.50791 Z-0.62222
G1 X4.03933 Y-2.50791 Z-0.63704
G1 X3.96067 Y-2.50791 Z-0.65185
G1 X4.03933 Y-2.50791 Z-0.66667
G1 X3.96067 Y-2.50791 Z-0.68148
G1 X4.03933 Y-2.50791 Z-0.69630
G1 X3.96067 Y-2.50791 Z-0.71111
G1 X4.03933 Y-2.50791 Z-0.72593
G1 X3.96067 Y-2.50791 Z-0.74074
G1 X4.03933 Y-2.50791 Z-0.75556
G1 X3.96067 Y-2.50791 Z-0.77037
G1 X4.03933 Y-2.50791 Z-0.78519
G1 X3.96067 Y-2.50791 Z-0.80000
G1 X4.03933 Y-2.50791 Z-0.81481
G1 X3.96067 Y-2.50791 Z-0.82963
G1 X4.03933 Y-2.50791 Z-0.84444
G1 X3.96067 Y-2.50791 Z-0.85926
G1 X4.03933 Y-2.50791 Z-0.87407
G1 X3.96067 Y-2.50791 Z-0.88889
G1 X4.03933 Y-2.50791 Z-0.90370
G1 X3.96067 Y-2.50791 Z-0.91852
G1 X4.03933 Y-2.50791 Z-0.93333
G1 X3.96067 Y-2.50791 Z-0.94815
G1 X4.03933 Y-2.50791 Z-0.96296
G1 X3.96067 Y-2.50791 Z-0.97778
G1 X4.03933 Y-2.50791 Z-0.99259
G1 X3.96067 Y-2.50791 Z-1.00741
G1 X4.03933 Y-2.50791 Z-1.02222
G1 X3.96067 Y-2.50791 Z-1.03704
G1 X4.03933 Y-2.50791 Z-1.05185
G1 X3.96067 Y-2.50791 Z-1.06667
G1 X4.03933 Y-2.50791 Z-1.08148
G1 X3.96067 Y-2.50791 Z-1.09630
G1 X4.03933 Y-2.50791 Z-1.11111
G1 X3.96067 Y-2.50791 Z-1.12593
G1 X4.03933 Y-2.50791 Z-1.14074
G1 X3.96067 Y-2.50791 Z-1.15556
G1 X4.03933 Y-2.50791 Z-1.17037
G1 X3.96067 Y-2.50791 Z-1.18519
G1 X4.03933 Y-2.50791 Z-1.20000
G1 X3.96067 Y-2.50791 Z-1.21481
G1 X4.03933 Y-2.50791 Z-1.22963
G1 X3.96067 Y-2.50791 Z-1.24444
G1 X4.03933 Y-2.50791 Z-1.25926
G1 X3.96067 Y-2.50791 Z-1.27407
G1 X4.03933 Y-2.50791 Z-1.28889
G1 X3.96067 Y-2.50791 Z-1.30370
G1 X4.03933 Y-2.50791 Z-1.31852
G1 X3.96067 Y-2.50791 Z-1.33333
G1 X4.03933 Y-2.50791 Z-1.34815
G1 X3.96067 Y-2.50791 Z-1.36296
G1 X4.03933 Y-2.50791 Z-1.37778
G1 X3.96067 Y-2.50791 Z-1.39259
G1 X4.03933 Y-2.50791 Z-1.40741
G1 X3.96067 Y-2.50791 Z-1.42222
G1 X4.03933 Y-2.50791 Z-1.43704
G1 X3.96067 Y-2.50791 Z-1.45185
G1 X4.03933 Y-2.50791 Z-1.46667
G1 X3.96067 Y-2.50791 Z-1.48148
G1 X4.03933 Y-2.50791 Z-1.49630
G1 X3.96067 Y-2.50791 Z-1.51111
G1 X4.03933 Y-2.50791 Z-1.52593
G1 X3.96067 Y-2.50791 Z-1.54074
G1 X4.03933 Y-2.50791 Z-1.55556
G1 X3.96067 Y-2.50791 Z-1.57037
G1 X4.03933 Y-2.50791 Z-1.58519
G1 X3.96067 Y-2.50791 Z-1.60000
G1 X4.03933 Y-2.50791
G0 Z0.08000

G0 X4.30000 Y-2.55000
G1 Z-1.60000
G0 Z0.08000

G0 X4.70000 Y-2.55000
G1 Z-1.60000
G0 Z0.08000

G0 X4.70000 Y-2.95000
G1 Z-1.60000
G0 Z0.08000

G0 X4.30000 Y-2.95000
G1 Z-1.60000
G0 Z0.08000

G0 X4.15000 Y-3.30000
G1 Z-1.60000
G0 Z0.08000

G0 X4.05000 Y-3.30000
G1 Z-1.60000
G0 Z0.08000

G0 X3.85000 Y-3.30000
G1 Z-1.60000
G0 Z0.08000

G0 X3.75000 Y-3.30000
G1 Z-1.60000
G0 Z0.08000

G0 X3.65000 Y-2.95000
G1 Z-1.60000
G0 Z0.08000

G0 X3.25000 Y-2.95000
G1 Z-1.60000
G0 Z0.08000

G0 X3.95183 Y-2.39173
G1 Z0.02963 F50.00000
G1 F100.00000
G2 X3.96951 Y-2.38780 Z0.02855 I0.00884 J0.00196
G1 X4.04817 Y-2.74213 Z0.01481
G2 X4.03049 Y-2.74606 Z0.01374 I-0.00884 J-0.00196
G1 X3.95183 Y-2.39173 Z-0.00000
G2 X3.96951 Y-2.38780 Z-0.00108 I0.00884 J0.00196
G1 X4.04817 Y-2.74213 Z-0.01481
G2 X4.03049 Y-2.74606 Z-0.01589 I-0.00884 J-0.00196
G1 X3.95183 Y-2.39173 Z-0.02963
G2 X3.96951 Y-2.38780 Z-0.03071 I0.00884 J0.00196
G1 X4.04817 Y-2.74213 Z-0.04444
G2 X4.03049 Y-2.74606 Z-0.04552 I-0.00884 J-0.00196
G1 X3.95183 Y-2.39173 Z-0.05926
G2 X3.96951 Y-2.38780 Z-0.06034 I0.00884 J0.00196
G1 X4.04817 Y-2.74213 Z-0.07407
G2 X4.03049 Y-2.74606 Z-0.07515 I-0.00884 J-0.00196
G1 X3.95183 Y-2.39173 Z-0.08889
G2 X3.96951 Y-2.38780 Z-0.08997 I0.00884 J0.00196
G1 X4.04817 Y-2.74213 Z-0.10370
G2 X4.03049 Y-2.74606 Z-0.10478 I-0.00884 J-0.00196
G1 X3.95183 Y-2.39173 Z-0.11852
G2 X3.96951 Y-2.38780 Z-0.11960 I0.00884 J0.00196
G1 X4.04817 Y-2.74213 Z-0.13333
G2 X4.03049 Y-2.74606 Z-0.13441 I-0.00884 J-0.00196
G1 X3.95183 Y-2.39173 Z-0.14815
G2 X3.96951 Y-2.38780 Z-0.14922 I0.00884 J0.00196
G1 X4.04817 Y-2.74213 Z-0.16296
G2 X4.03049 Y-2.74606 Z-0.16404 I-0.00884 J-0.00196
G1 X3.95183 Y-2.39173 Z-0.17778
G2 X3.96951 Y-2.38780 Z-0.17885 I0.00884 J0.00196
G1 X4.04817 Y-2.74213 Z-0.19259
G2 X4.03049 Y-2.74606 Z-0.19367 I-0.00884 J-0.00196
G1 X3.95183 Y-2.39173 Z-0.20741
G2 X3.96951 Y-2.38780 Z-0.20848 I0.00884 J0.00196
G1 X4.04817 Y-2.74213 Z-0.22222
G2 X4.03049 Y-2.74606 Z-0.22330 I-0.00884 J-0.00196
G1 X3.95183 Y-2.39173 Z-0.23704
G2 X3.96951 Y-2.38780 Z-0.23811 I0.00884 J0.00196
G1 X4.04817 Y-2.74213 Z-0.25185
G2 X4.03049 Y-2.74606 Z-0.25293 I-0.00884 J-0.00196
G1 X3.95183 Y-2.39173 Z-0.26667
G2 X3.96951 Y-2.38780 Z-0.26774 I0.00884 J0.00196
G1 X4.04817 Y-2.74213 Z-0.28148
G2 X4.03049 Y-2.74606 Z-0.28256 I-0.00884 J-0.00196
G1 X3.95183 Y-2.39173 Z-0.29630
G2 X3.96951 Y-2.38780 Z-0.29737 I0.00884 J0.00196
G1 X4.04817 Y-2.74213 Z-0.31111
G2 X4.03049 Y-2.74606 Z-0.31219 I-0.00884 J-0.00196
G1 X3.95183 Y-2.39173 Z-0.32593
G2 X3.96951 Y-2.38780 Z-0.32700 I0.00884 J0.00196
G1 X4.04817 Y-2.74213 Z-0.34074
G2 X4.03049 Y-2.74606 Z-0.34182 I-0.00884 J-0.00196
G1 X3.95183 Y-2.39173 Z-0.35556
G2 X3.96951 Y-2.38780 Z-0.35663 I0.00884 J0.00196
G1 X4.04817 Y-2.74213 Z-0.37037
G2 X4.03049 Y-2.74606 Z-0.37145 I-0.00884 J-0.00196
G1 X3.95183 Y-2.39173 Z-0.38519
G2 X3.96951 Y-2.38780 Z-0.38626 I0.00884 J0.00196
G1 X4.04817 Y-2.74213 Z-0.40000
G2 X4.03049 Y-2.74606 Z-0.40108 I-0.00884 J-0.00196
G1 X3.95183 Y-2.39173 Z-0.41481
G2 X3.96951 Y-2.38780 Z-0.41589 I0.00884 J0.00196
G1 X4.04817 Y-2.74213 Z-0.42963
G2 X4.03049 Y-2.74606 Z-0.43071 I-0.00884 J-0.00196
G1 X3.95183 Y-2.39173 Z-0.44444
G2 X3.96951 Y-2.38780 Z-0.44552 I0.00884 J0.00196
G1 X4.04817 Y-2.74213 Z-0.45926
G2 X4.03049 Y-2.74606 Z-0.46034 I-0.00884 J-0.00196
G1 X3.95183 Y-2.39173 Z-0.47407
G2 X3.96951 Y-2.38780 Z-0.47515 I0.00884 J0.00196
G1 X4.04817 Y-2.74213 Z-0.48889
G2 X4.03049 Y-2.74606 Z-0.48997 I-0.00884 J-0.00196
G1 X3.95183 Y-2.39173 Z-0.50370
G2 X3.96951 Y-2.38780 Z-0.50478 I0.00884 J0.00196
G1 X4.04817 Y-2.74213 Z-0.51852
G2 X4.03049 Y-2.74606 Z-0.51960 I-0.00884 J-0.00196
G1 X3.95183 Y-2.39173 Z-0.53333
G2 X3.96951 Y-2.38780 Z-0.53441 I0.00884 J0.00196
G1 X4.04817 Y-2.74213 Z-0.54815
G2 X4.03049 Y-2.74606 Z-0.54922 I-0.00884 J-0.00196
G1 X3.95183 Y-2.39173 Z-0.56296
G2 X3.96951 Y-2.38780 Z-0.56404 I0.00884 J0.00196
G1 X4.04817 Y-2.74213 Z-0.57778
G2 X4.03049 Y-2.74606 Z-0.57885 I-0.00884 J-0.00196
G1 X3.95183 Y-2.39173 Z-0.59259
G2 X3.96951 Y-2.38780 Z-0.59367 I0.00884 J0.00196
G1 X4.04817 Y-2.74213 Z-0.60741
G2 X4.03049 Y-2.74606 Z-0.60848 I-0.00884 J-0.00196
G1 X3.95183 Y-2.39173 Z-0.62222
G2 X3.96951 Y-2.38780 Z-0.62330 I0.00884 J0.00196
G1 X4.04817 Y-2.74213 Z-0.63704
G2 X4.03049 Y-2.74606 Z-0.63811 I-0.00884 J-0.00196
G1 X3.95183 Y-2.39173 Z-0.65185
G2 X3.96951 Y-2.38780 Z-0.65293 I0.00884 J0.00196
G1 X4.04817 Y-2.74213 Z-0.66667
G2 X4.03049 Y-2.74606 Z-0.66774 I-0.00884 J-0.00196
G1 X3.95183 Y-2.39173 Z-0.68148
G2 X3.96951 Y-2.38780 Z-0.68256 I0.00884 J0.00196
G1 X4.04817 Y-2.74213 Z-0.69630
G2 X4.03049 Y-2.74606 Z-0.69737 I-0.00884 J-0.00196
G1 X3.95183 Y-2.39173 Z-0.71111
G2 X3.96951 Y-2.38780 Z-0.71219 I0.00884 J0.00196
G1 X4.04817 Y-2.74213 Z-0.72593
G2 X4.03049 Y-2.74606 Z-0.72700 I-0.00884 J-0.00196
G1 X3.95183 Y-2.39173 Z-0.74074
G2 X3.96951 Y-2.38780 Z-0.74182 I0.00884 J0.00196
G1 X4.04817 Y-2.74213 Z-0.75556
G2 X4.03049 Y-2.74606 Z-0.75663 I-0.00884 J-0.00196
G1 X3.95183 Y-2.39173 Z-0.77037
G2 X3.96951 Y-2.38780 Z-0.77145 I0.00884 J0.00196
G1 X4.04817 Y-2.74213 Z-0.78519
G2 X4.03049 Y-2.74606 Z-0.78626 I-0.00884 J-0.00196
G1 X3.95183 Y-2.39173 Z-0.80000
G2 X3.96951 Y-2.38780 Z-0.80108 I0.00884 J0.00196
G1 X4.04817 Y-2.74213 Z-0.81481
G2 X4.03049 Y-2.74606 Z-0.81589 I-0.00884 J-0.00196
G1 X3.95183 Y-2.39173 Z-0.82963
G2 X3.96951 Y-2.38780 Z-0.83071 I0.00884 J0.00196
G1 X4.04817 Y-2.74213 Z-0.84444
G2 X4.03049 Y-2.74606 Z-0.84552 I-0.00884 J-0.00196
G1 X3.95183 Y-2.39173 Z-0.85926
G2 X3.96951 Y-2.38780 Z-0.86034 I0.00884 J0.00196
G1 X4.04817 Y-2.74213 Z-0.87407
G2 X4.03049 Y-2.74606 Z-0.87515 I-0.00884 J-0.00196
G1 X3.95183 Y-2.39173 Z-0.88889
G2 X3.96951 Y-2.38780 Z-0.88997 I0.00884 J0.00196
G1 X4.04817 Y-2.74213 Z-0.90370
G2 X4.03049 Y-2.74606 Z-0.90478 I-0.00884 J-0.00196
G1 X3.95183 Y-2.39173 Z-0.91852
G2 X3.96951 Y-2.38780 Z-0.91960 I0.00884 J0.00196
G1 X4.04817 Y-2.74213 Z-0.93333
G2 X4.03049 Y-2.74606 Z-0.93441 I-0.00884 J-0.00196
G1 X3.95183 Y-2.39173 Z-0.94815
G2 X3.96951 Y-2.38780 Z-0.94922 I0.00884 J0.00196
G1 X4.04817 Y-2.74213 Z-0.96296
G2 X4.03049 Y-2.74606 Z-0.96404 I-0.00884 J-0.00196
G1 X3.95183 Y-2.39173 Z-0.97778
G2 X3.96951 Y-2.38780 Z-0.97885 I0.00884 J0.00196
G1 X4.04817 Y-2.74213 Z-0.99259
G2 X4.03049 Y-2.74606 Z-0.99367 I-0.00884 J-0.00196
G1 X3.95183 Y-2.39173 Z-1.00741
G2 X3.96951 Y-2.38780 Z-1.00848 I0.00884 J0.00196
G1 X4.04817 Y-2.74213 Z-1.02222
G2 X4.03049 Y-2.74606 Z-1.02330 I-0.00884 J-0.00196
G1 X3.95183 Y-2.39173 Z-1.03704
G2 X3.96951 Y-2.38780 Z-1.03811 I0.00884 J0.00196
G1 X4.04817 Y-2.74213 Z-1.05185
G2 X4.03049 Y-2.74606 Z-1.05293 I-0.00884 J-0.00196
G1 X3.95183 Y-2.39173 Z-1.06667
G2 X3.96951 Y-2.38780 Z-1.06774 I0.00884 J0.00196
G1 X4.04817 Y-2.74213 Z-1.08148
G2 X4.03049 Y-2.74606 Z-1.08256 I-0.00884 J-0.00196
G1 X3.95183 Y-2.39173 Z-1.09630
G2 X3.96951 Y-2.38780 Z-1.09737 I0.00884 J0.00196
G1 X4.04817 Y-2.74213 Z-1.11111
G2 X4.03049 Y-2.74606 Z-1.11219 I-0.00884 J-0.00196
G1 X3.95183 Y-2.39173 Z-1.12593
G2 X3.96951 Y-2.38780 Z-1.12700 I0.00884 J0.00196
G1 X4.04817 Y-2.74213 Z-1.14074
G2 X4.03049 Y-2.74606 Z-1.14182 I-0.00884 J-0.00196
G1 X3.95183 Y-2.39173 Z-1.15556
G2 X3.96951 Y-2.38780 Z-1.15663 I0.00884 J0.00196
G1 X4.04817 Y-2.74213 Z-1.17037
G2 X4.03049 Y-2.74606 Z-1.17145 I-0.00884 J-0.00196
G1 X3.95183 Y-2.39173 Z-1.18519
G2 X3.96951 Y-2.38780 Z-1.18626 I0.00884 J0.00196
G1 X4.04817 Y-2.74213 Z-1.20000
G2 X4.03049 Y-2.74606 Z-1.20108 I-0.00884 J-0.00196
G1 X3.95183 Y-2.39173 Z-1.21481
G2 X3.96951 Y-2.38780 Z-1.21589 I0.00884 J0.00196
G1 X4.04817 Y-2.74213 Z-1.22963
G2 X4.03049 Y-2.74606 Z-1.23071 I-0.00884 J-0.00196
G1 X3.95183 Y-2.39173 Z-1.24444
G2 X3.96951 Y-2.38780 Z-1.24552 I0.00884 J0.00196
G1 X4.04817 Y-2.74213 Z-1.25926
G2 X4.03049 Y-2.74606 Z-1.26034 I-0.00884 J-0.00196
G1 X3.95183 Y-2.39173 Z-1.27407
G2 X3.96951 Y-2.38780 Z-1.27515 I0.00884 J0.00196
G1 X4.04817 Y-2.74213 Z-1.28889
G2 X4.03049 Y-2.74606 Z-1.28997 I-0.00884 J-0.00196
G1 X3.95183 Y-2.39173 Z-1.30370
G2 X3.96951 Y-2.38780 Z-1.30478 I0.00884 J0.00196
G1 X4.04817 Y-2.74213 Z-1.31852
G2 X4.03049 Y-2.74606 Z-1.31960 I-0.00884 J-0.00196
G1 X3.95183 Y-2.39173 Z-1.33333
G2 X3.96951 Y-2.38780 Z-1.33441 I0.00884 J0.00196
G1 X4.04817 Y-2.74213 Z-1.34815
G2 X4.03049 Y-2.74606 Z-1.34922 I-0.00884 J-0.00196
G1 X3.95183 Y-2.39173 Z-1.36296
G2 X3.96951 Y-2.38780 Z-1.36404 I0.00884 J0.00196
G1 X4.04817 Y-2.74213 Z-1.37778
G2 X4.03049 Y-2.74606 Z-1.37885 I-0.00884 J-0.00196
G1 X3.95183 Y-2.39173 Z-1.39259
G2 X3.96951 Y-2.38780 Z-1.39367 I0.00884 J0.00196
G1 X4.04817 Y-2.74213 Z-1.40741
G2 X4.03049 Y-2.74606 Z-1.40848 I-0.00884 J-0.00196
G1 X3.95183 Y-2.39173 Z-1.42222
G2 X3.96951 Y-2.38780 Z-1.42330 I0.00884 J0.00196
G1 X4.04817 Y-2.74213 Z-1.43704
G2 X4.03049 Y-2.74606 Z-1.43811 I-0.00884 J-0.00196
G1 X3.95183 Y-2.39173 Z-1.45185
G2 X3.96951 Y-2.38780 Z-1.45293 I0.00884 J0.00196
G1 X4.04817 Y-2.74213 Z-1.46667
G2 X4.03049 Y-2.74606 Z-1.46774 I-0.00884 J-0.00196
G1 X3.95183 Y-2.39173 Z-1.48148
G2 X3.96951 Y-2.38780 Z-1.48256 I0.00884 J0.00196
G1 X4.04817 Y-2.74213 Z-1.49630
G2 X4.03049 Y-2.74606 Z-1.49737 I-0.00884 J-0.00196
G1 X3.95183 Y-2.39173 Z-1.51111
G2 X3.96951 Y-2.38780 Z-1.51219 I0.00884 J0.00196
G1 X4.04817 Y-2.74213 Z-1.52593
G2 X4.03049 Y-2.74606 Z-1.52700 I-0.00884 J-0.00196
G1 X3.95183 Y-2.39173 Z-1.54074
G2 X3.96951 Y-2.38780 Z-1.54182 I0.00884 J0.00196
G1 X4.04817 Y-2.74213 Z-1.55556
G2 X4.03049 Y-2.74606 Z-1.55663 I-0.00884 J-0.00196
G1 X3.95183 Y-2.39173 Z-1.57037
G2 X3.96951 Y-2.38780 Z-1.57145 I0.00884 J0.00196
G1 X4.04817 Y-2.74213 Z-1.58519
G2 X4.03049 Y-2.74606 Z-1.58626 I-0.00884 J-0.00196
G1 X3.95183 Y-2.39173 Z-1.60000
G2 X3.96951 Y-2.38780 I0.00884 J0.00196
G1 X4.04817 Y-2.74213
G2 X4.03049 Y-2.74606 I-0.00884 J-0.00196
G1 X3.95183 Y-2.39173
G0 Z0.08000

G0 X4.46063 Y-2.85000
G1 Z0.02963 F50.00000
G1 F100.00000
G2 X4.46063 Y-2.85000 Z-0.00000 I-0.00906 J0.00000
G2 X4.46063 Y-2.85000 Z-0.02963 I-0.00906 J0.00000
G2 X4.46063 Y-2.85000 Z-0.05926 I-0.00906 J0.00000
G2 X4.46063 Y-2.85000 Z-0.08889 I-0.00906 J0.00000
G2 X4.46063 Y-2.85000 Z-0.11852 I-0.00906 J0.00000
G2 X4.46063 Y-2.85000 Z-0.14815 I-0.00906 J0.00000
G2 X4.46063 Y-2.85000 Z-0.17778 I-0.00906 J0.00000
G2 X4.46063 Y-2.85000 Z-0.20741 I-0.00906 J0.00000
G2 X4.46063 Y-2.85000 Z-0.23704 I-0.00906 J0.00000
G2 X4.46063 Y-2.85000 Z-0.26667 I-0.00906 J0.00000
G2 X4.46063 Y-2.85000 Z-0.29630 I-0.00906 J0.00000
G2 X4.46063 Y-2.85000 Z-0.32593 I-0.00906 J0.00000
G2 X4.46063 Y-2.85000 Z-0.35556 I-0.00906 J0.00000
G2 X4.46063 Y-2.85000 Z-0.38519 I-0.00906 J0.00000
G2 X4.46063 Y-2.85000 Z-0.41481 I-0.00906 J0.00000
G2 X4.46063 Y-2.85000 Z-0.44444 I-0.00906 J0.00000
G2 X4.46063 Y-2.85000 Z-0.47407 I-0.00906 J0.00000
G2 X4.46063 Y-2.85000 Z-0.50370 I-0.00906 J0.00000
G2 X4.46063 Y-2.85000 Z-0.53333 I-0.00906 J0.00000
G2 X4.46063 Y-2.85000 Z-0.56296 I-0.00906 J0.00000
G2 X4.46063 Y-2.85000 Z-0.59259 I-0.00906 J0.00000
G2 X4.46063 Y-2.85000 Z-0.62222 I-0.00906 J0.00000
G2 X4.46063 Y-2.85000 Z-0.65185 I-0.00906 J0.00000
G2 X4.46063 Y-2.85000 Z-0.68148 I-0.00906 J0.00000
G2 X4.46063 Y-2.85000 Z-0.71111 I-0.00906 J0.00000
G2 X4.46063 Y-2.85000 Z-0.74074 I-0.00906 J0.00000
G2 X4.46063 Y-2.85000 Z-0.77037 I-0.00906 J0.00000
G2 X4.46063 Y-2.85000 Z-0.80000 I-0.00906 J0.00000
G2 X4.46063 Y-2.85000 Z-0.82963 I-0.00906 J0.00000
G2 X4.46063 Y-2.85000 Z-0.85926 I-0.00906 J0.00000
G2 X4.46063 Y-2.85000 Z-0.88889 I-0.00906 J0.00000
G2 X4.46063 Y-2.85000 Z-0.91852 I-0.00906 J0.00000
G2 X4.46063 Y-2.85000 Z-0.94815 I-0.00906 J0.00000
G2 X4.46063 Y-2.85000 Z-0.97778 I-0.00906 J0.00000
G2 X4.46063 Y-2.85000 Z-1.00741 I-0.00906 J0.00000
G2 X4.46063 Y-2.85000 Z-1.03704 I-0.00906 J0.00000
G2 X4.46063 Y-2.85000 Z-1.06667 I-0.00906 J0.00000
G2 X4.46063 Y-2.85000 Z-1.09630 I-0.00906 J0.00000
G2 X4.46063 Y-2.85000 Z-1.12593 I-0.00906 J0.00000
G2 X4.46063 Y-2.85000 Z-1.15556 I-0.00906 J0.00000
G2 X4.46063 Y-2.85000 Z-1.18519 I-0.00906 J0.00000
G2 X4.46063 Y-2.85000 Z-1.21481 I-0.00906 J0.00000
G2 X4.46063 Y-2.85000 Z-1.24444 I-0.00906 J0.00000
G2 X4.46063 Y-2.85000 Z-1.27407 I-0.00906 J0.00000
G2 X4.46063 Y-2.85000 Z-1.30370 I-0.00906 J0.00000
G2 X4.46063 Y-2.85000 Z-1.33333 I-0.00906 J0.00000
G2 X4.46063 Y-2.85000 Z-1.36296 I-0.00906 J0.00000
G2 X4.46063 Y-2.85000 Z-1.39259 I-0.00906 J0.00000
G2 X4.46063 Y-2.85000 Z-1.42222 I-0.00906 J0.00000
G2 X4.46063 Y-2.85000 Z-1.45185 I-0.00906 J0.00000
G2 X4.46063 Y-2.85000 Z-1.48148 I-0.00906 J0.00000
G2 X4.46063 Y-2.85000 Z-1.51111 I-0.00906 J0.00000
G2 X4.46063 Y-2.85000 Z-1.54074 I-0.00906 J0.00000
G2 X4.46063 Y-2.85000 Z-1.57037 I-0.00906 J0.00000
G2 X4.46063 Y-2.85000 Z-1.60000 I-0.00906 J0.00000
G2 X4.46063 Y-2.85000 I-0.00906 J0.00000
G0 Z0.08000

G0 X4.55906 Y-2.85000
G1 Z0.02963 F50.00000
G1 F100.00000
G2 X4.55906 Y-2.85000 Z-0.00000 I-0.00906 J0.00000
G2 X4.55906 Y-2.85000 Z-0.02963 I-0.00906 J0.00000
G2 X4.55906 Y-2.85000 Z-0.05926 I-0.00906 J0.00000
G2 X4.55906 Y-2.85000 Z-0.08889 I-0.00906 J0.00000
G2 X4.55906 Y-2.85000 Z-0.11852 I-0.00906 J0.00000
G2 X4.55906 Y-2.85000 Z-0.14815 I-0.00906 J0.00000
G2 X4.55906 Y-2.85000 Z-0.17778 I-0.00906 J0.00000
G2 X4.55906 Y-2.85000 Z-0.20741 I-0.00906 J0.00000
G2 X4.55906 Y-2.85000 Z-0.23704 I-0.00906 J0.00000
G2 X4.55906 Y-2.85000 Z-0.26667 I-0.00906 J0.00000
G2 X4.55906 Y-2.85000 Z-0.29630 I-0.00906 J0.00000
G2 X4.55906 Y-2.85000 Z-0.32593 I-0.00906 J0.00000
G2 X4.55906 Y-2.85000 Z-0.35556 I-0.00906 J0.00000
G2 X4.55906 Y-2.85000 Z-0.38519 I-0.00906 J0.00000
G2 X4.55906 Y-2.85000 Z-0.41481 I-0.00906 J0.00000
G2 X4.55906 Y-2.85000 Z-0.44444 I-0.00906 J0.00000
G2 X4.55906 Y-2.85000 Z-0.47407 I-0.00906 J0.00000
G2 X4.55906 Y-2.85000 Z-0.50370 I-0.00906 J0.00000
G2 X4.55906 Y-2.85000 Z-0.53333 I-0.00906 J0.00000
G2 X4.55906 Y-2.85000 Z-0.56296 I-0.00906 J0.00000
G2 X4.55906 Y-2.85000 Z-0.59259 I-0.00906 J0.00000
G2 X4.55906 Y-2.85000 Z-0.62222 I-0.00906 J0.00000
G2 X4.55906 Y-2.85000 Z-0.65185 I-0.00906 J0.00000
G2 X4.55906 Y-2.85000 Z-0.68148 I-0.00906 J0.00000
G2 X4.55906 Y-2.85000 Z-0.71111 I-0.00906 J0.00000
G2 X4.55906 Y-2.85000 Z-0.74074 I-0.00906 J0.00000
G2 X4.55906 Y-2.85000 Z-0.77037 I-0.00906 J0.00000
G2 X4.55906 Y-2.85000 Z-0.80000 I-0.00906 J0.00000
G2 X4.55906 Y-2.85000 Z-0.82963 I-0.00906 J0.00000
G2 X4.55906 Y-2.85000 Z-0.85926 I-0.00906 J0.00000
G2 X4.55906 Y-2.85000 Z-0.88889 I-0.00906 J0.00000
G2 X4.55906 Y-2.85000 Z-0.91852 I-0.00906 J0.00000
G2 X4.55906 Y-2.85000 Z-0.94815 I-0.00906 J0.00000
G2 X4.55906 Y-2.85000 Z-0.97778 I-0.00906 J0.00000
G2 X4.55906 Y-2.85000 Z-1.00741 I-0.00906 J0.00000
G2 X4.55906 Y-2.85000 Z-1.03704 I-0.00906 J0.00000
G2 X4.55906 Y-2.85000 Z-1.06667 I-0.00906 J0.00000
G2 X4.55906 Y-2.85000 Z-1.09630 I-0.00906 J0.00000
G2 X4.55906 Y-2.85000 Z-1.12593 I-0.00906 J0.00000
G2 X4.55906 Y-2.85000 Z-1.15556 I-0.00906 J0.00000
G2 X4.55906 Y-2.85000 Z-1.18519 I-0.00906 J0.00000
G2 X4.55906 Y-2.85000 Z-1.21481 I-0.00906 J0.00000
G2 X4.55906 Y-2.85000 Z-1.24444 I-0.00906 J0.00000
G2 X4.55906 Y-2.85000 Z-1.27407 I-0.00906 J0.00000
G2 X4.55906 Y-2.85000 Z-1.30370 I-0.00906 J0.00000
G2 X4.55906 Y-2.85000 Z-1.33333 I-0.00906 J0.00000
G2 X4.55906 Y-2.85000 Z-1.36296 I-0.00906 J0.00000
G2 X4.55906 Y-2.85000 Z-1.39259 I-0.00906 J0.00000
G2 X4.55906 Y-2.85000 Z-1.42222 I-0.00906 J0.00000
G2 X4.55906 Y-2.85000 Z-1.45185 I-0.00906 J0.00000
G2 X4.55906 Y-2.85000 Z-1.48148 I-0.00906 J0.00000
G2 X4.55906 Y-2.85000 Z-1.51111 I-0.00906 J0.00000
G2 X4.55906 Y-2.85000 Z-1.54074 I-0.00906 J0.00000
G2 X4.55906 Y-2.85000 Z-1.57037 I-0.00906 J0.00000
G2 X4.55906 Y-2.85000 Z-1.60000 I-0.00906 J0.00000
G2 X4.55906 Y-2.85000 I-0.00906 J0.00000
G0 Z0.08000

G0 X4.50906 Y-3.17126
G1 Z0.02963 F50.00000
G1 F100.00000
G2 X4.50906 Y-3.17126 Z-0.00000 I-0.00906 J0.00000
G2 X4.50906 Y-3.17126 Z-0.02963 I-0.00906 J0.00000
G2 X4.50906 Y-3.17126 Z-0.05926 I-0.00906 J0.00000
G2 X4.50906 Y-3.17126 Z-0.08889 I-0.00906 J0.00000
G2 X4.50906 Y-3.17126 Z-0.11852 I-0.00906 J0.00000
G2 X4.50906 Y-3.17126 Z-0.14815 I-0.00906 J0.00000
G2 X4.50906 Y-3.17126 Z-0.17778 I-0.00906 J0.00000
G2 X4.50906 Y-3.17126 Z-0.20741 I-0.00906 J0.00000
G2 X4.50906 Y-3.17126 Z-0.23704 I-0.00906 J0.00000
G2 X4.50906 Y-3.17126 Z-0.26667 I-0.00906 J0.00000
G2 X4.50906 Y-3.17126 Z-0.29630 I-0.00906 J0.00000
G2 X4.50906 Y-3.17126 Z-0.32593 I-0.00906 J0.00000
G2 X4.50906 Y-3.17126 Z-0.35556 I-0.00906 J0.00000
G2 X4.50906 Y-3.17126 Z-0.38519 I-0.00906 J0.00000
G2 X4.50906 Y-3.17126 Z-0.41481 I-0.00906 J0.00000
G2 X4.50906 Y-3.17126 Z-0.44444 I-0.00906 J0.00000
G2 X4.50906 Y-3.17126 Z-0.47407 I-0.00906 J0.00000
G2 X4.50906 Y-3.17126 Z-0.50370 I-0.00906 J0.00000
G2 X4.50906 Y-3.17126 Z-0.53333 I-0.00906 J0.00000
G2 X4.50906 Y-3.17126 Z-0.56296 I-0.00906 J0.00000
G2 X4.50906 Y-3.17126 Z-0.59259 I-0.00906 J0.00000
G2 X4.50906 Y-3.17126 Z-0.62222 I-0.00906 J0.00000
G2 X4.50906 Y-3.17126 Z-0.65185 I-0.00906 J0.00000
G2 X4.50906 Y-3.17126 Z-0.68148 I-0.00906 J0.00000
G2 X4.50906 Y-3.17126 Z-0.71111 I-0.00906 J0.00000
G2 X4.50906 Y-3.17126 Z-0.74074 I-0.00906 J0.00000
G2 X4.50906 Y-3.17126 Z-0.77037 I-0.00906 J0.00000
G2 X4.50906 Y-3.17126 Z-0.80000 I-0.00906 J0.00000
G2 X4.50906 Y-3.17126 Z-0.82963 I-0.00906 J0.00000
G2 X4.50906 Y-3.17126 Z-0.85926 I-0.00906 J0.00000
G2 X4.50906 Y-3.17126 Z-0.88889 I-0.00906 J0.00000
G2 X4.50906 Y-3.17126 Z-0.91852 I-0.00906 J0.00000
G2 X4.50906 Y-3.17126 Z-0.94815 I-0.00906 J0.00000
G2 X4.50906 Y-3.17126 Z-0.97778 I-0.00906 J0.00000
G2 X4.50906 Y-3.17126 Z-1.00741 I-0.00906 J0.00000
G2 X4.50906 Y-3.17126 Z-1.03704 I-0.00906 J0.00000
G2 X4.50906 Y-3.17126 Z-1.06667 I-0.00906 J0.00000
G2 X4.50906 Y-3.17126 Z-1.09630 I-0.00906 J0.00000
G2 X4.50906 Y-3.17126 Z-1.12593 I-0.00906 J0.00000
G2 X4.50906 Y-3.17126 Z-1.15556 I-0.00906 J0.00000
G2 X4.50906 Y-3.17126 Z-1.18519 I-0.00906 J0.00000
G2 X4.50906 Y-3.17126 Z-1.21481 I-0.00906 J0.00000
G2 X4.50906 Y-3.17126 Z-1.24444 I-0.00906 J0.00000
G2 X4.50906 Y-3.17126 Z-1.27407 I-0.00906 J0.00000
G2 X4.50906 Y-3.17126 Z-1.30370 I-0.00906 J0.00000
G2 X4.50906 Y-3.17126 Z-1.33333 I-0.00906 J0.00000
G2 X4.50906 Y-3.17126 Z-1.36296 I-0.00906 J0.00000
G2 X4.50906 Y-3.17126 Z-1.39259 I-0.00906 J0.00000
G2 X4.50906 Y-3.17126 Z-1.42222 I-0.00906 J0.00000
G2 X4.50906 Y-3.17126 Z-1.45185 I-0.00906 J0.00000
G2 X4.50906 Y-3.17126 Z-1.48148 I-0.00906 J0.00000
G2 X4.50906 Y-3.17126 Z-1.51111 I-0.00906 J0.00000
G2 X4.50906 Y-3.17126 Z-1.54074 I-0.00906 J0.00000
G2 X4.50906 Y-3.17126 Z-1.57037 I-0.00906 J0.00000
G2 X4.50906 Y-3.17126 Z-1.60000 I-0.00906 J0.00000
G2 X4.50906 Y-3.17126 I-0.00906 J0.00000
G0 Z0.08000

G0 X4.50906 Y-3.25000
G1 Z0.02963 F50.00000
G1 F100.00000
G2 X4.50906 Y-3.25000 Z-0.00000 I-0.00906 J0.00000
G2 X4.50906 Y-3.25000 Z-0.02963 I-0.00906 J0.00000
G2 X4.50906 Y-3.25000 Z-0.05926 I-0.00906 J0.00000
G2 X4.50906 Y-3.25000 Z-0.08889 I-0.00906 J0.00000
G2 X4.50906 Y-3.25000 Z-0.11852 I-0.00906 J0.00000
G2 X4.50906 Y-3.25000 Z-0.14815 I-0.00906 J0.00000
G2 X4.50906 Y-3.25000 Z-0.17778 I-0.00906 J0.00000
G2 X4.50906 Y-3.25000 Z-0.20741 I-0.00906 J0.00000
G2 X4.50906 Y-3.25000 Z-0.23704 I-0.00906 J0.00000
G2 X4.50906 Y-3.25000 Z-0.26667 I-0.00906 J0.00000
G2 X4.50906 Y-3.25000 Z-0.29630 I-0.00906 J0.00000
G2 X4.50906 Y-3.25000 Z-0.32593 I-0.00906 J0.00000
G2 X4.50906 Y-3.25000 Z-0.35556 I-0.00906 J0.00000
G2 X4.50906 Y-3.25000 Z-0.38519 I-0.00906 J0.00000
G2 X4.50906 Y-3.25000 Z-0.41481 I-0.00906 J0.00000
G2 X4.50906 Y-3.25000 Z-0.44444 I-0.00906 J0.00000
G2 X4.50906 Y-3.25000 Z-0.47407 I-0.00906 J0.00000
G2 X4.50906 Y-3.25000 Z-0.50370 I-0.00906 J0.00000
G2 X4.50906 Y-3.25000 Z-0.53333 I-0.00906 J0.00000
G2 X4.50906 Y-3.25000 Z-0.56296 I-0.00906 J0.00000
G2 X4.50906 Y-3.25000 Z-0.59259 I-0.00906 J0.00000
G2 X4.50906 Y-3.25000 Z-0.62222 I-0.00906 J0.00000
G2 X4.50906 Y-3.25000 Z-0.65185 I-0.00906 J0.00000
G2 X4.50906 Y-3.25000 Z-0.68148 I-0.00906 J0.00000
G2 X4.50906 Y-3.25000 Z-0.71111 I-0.00906 J0.00000
G2 X4.50906 Y-3.25000 Z-0.74074 I-0.00906 J0.00000
G2 X4.50906 Y-3.25000 Z-0.77037 I-0.00906 J0.00000
G2 X4.50906 Y-3.25000 Z-0.80000 I-0.00906 J0.00000
G2 X4.50906 Y-3.25000 Z-0.82963 I-0.00906 J0.00000
G2 X4.50906 Y-3.25000 Z-0.85926 I-0.00906 J0.00000
G2 X4.50906 Y-3.25000 Z-0.88889 I-0.00906 J0.00000
G2 X4.50906 Y-3.25000 Z-0.91852 I-0.00906 J0.00000
G2 X4.50906 Y-3.25000 Z-0.94815 I-0.00906 J0.00000
G2 X4.50906 Y-3.25000 Z-0.97778 I-0.00906 J0.00000
G2 X4.50906 Y-3.25000 Z-1.00741 I-0.00906 J0.00000
G2 X4.50906 Y-3.25000 Z-1.03704 I-0.00906 J0.00000
G2 X4.50906 Y-3.25000 Z-1.06667 I-0.00906 J0.00000
G2 X4.50906 Y-3.25000 Z-1.09630 I-0.00906 J0.00000
G2 X4.50906 Y-3.25000 Z-1.12593 I-0.00906 J0.00000
G2 X4.50906 Y-3.25000 Z-1.15556 I-0.00906 J0.00000
G2 X4.50906 Y-3.25000 Z-1.18519 I-0.00906 J0.00000
G2 X4.50906 Y-3.25000 Z-1.21481 I-0.00906 J0.00000
G2 X4.50906 Y-3.25000 Z-1.24444 I-0.00906 J0.00000
G2 X4.50906 Y-3.25000 Z-1.27407 I-0.00906 J0.00000
G2 X4.50906 Y-3.25000 Z-1.30370 I-0.00906 J0.00000
G2 X4.50906 Y-3.25000 Z-1.33333 I-0.00906 J0.00000
G2 X4.50906 Y-3.25000 Z-1.36296 I-0.00906 J0.00000
G2 X4.50906 Y-3.25000 Z-1.39259 I-0.00906 J0.00000
G2 X4.50906 Y-3.25000 Z-1.42222 I-0.00906 J0.00000
G2 X4.50906 Y-3.25000 Z-1.45185 I-0.00906 J0.00000
G2 X4.50906 Y-3.25000 Z-1.48148 I-0.00906 J0.00000
G2 X4.50906 Y-3.25000 Z-1.51111 I-0.00906 J0.00000
G2 X4.50906 Y-3.25000 Z-1.54074 I-0.00906 J0.00000
G2 X4.50906 Y-3.25000 Z-1.57037 I-0.00906 J0.00000
G2 X4.50906 Y-3.25000 Z-1.60000 I-0.00906 J0.00000
G2 X4.50906 Y-3.25000 I-0.00906 J0.00000
G0 Z0.08000

G0 X4.50906 Y-3.32874
G1 Z0.02963 F50.00000
G1 F100.00000
G2 X4.50906 Y-3.32874 Z-0.00000 I-0.00906 J0.00000
G2 X4.50906 Y-3.32874 Z-0.02963 I-0.00906 J0.00000
G2 X4.50906 Y-3.32874 Z-0.05926 I-0.00906 J0.00000
G2 X4.50906 Y-3.32874 Z-0.08889 I-0.00906 J0.00000
G2 X4.50906 Y-3.32874 Z-0.11852 I-0.00906 J0.00000
G2 X4.50906 Y-3.32874 Z-0.14815 I-0.00906 J0.00000
G2 X4.50906 Y-3.32874 Z-0.17778 I-0.00906 J0.00000
G2 X4.50906 Y-3.32874 Z-0.20741 I-0.00906 J0.00000
G2 X4.50906 Y-3.32874 Z-0.23704 I-0.00906 J0.00000
G2 X4.50906 Y-3.32874 Z-0.26667 I-0.00906 J0.00000
G2 X4.50906 Y-3.32874 Z-0.29630 I-0.00906 J0.00000
G2 X4.50906 Y-3.32874 Z-0.32593 I-0.00906 J0.00000
G2 X4.50906 Y-3.32874 Z-0.35556 I-0.00906 J0.00000
G2 X4.50906 Y-3.32874 Z-0.38519 I-0.00906 J0.00000
G2 X4.50906 Y-3.32874 Z-0.41481 I-0.00906 J0.00000
G2 X4.50906 Y-3.32874 Z-0.44444 I-0.00906 J0.00000
G2 X4.50906 Y-3.32874 Z-0.47407 I-0.00906 J0.00000
G2 X4.50906 Y-3.32874 Z-0.50370 I-0.00906 J0.00000
G2 X4.50906 Y-3.32874 Z-0.53333 I-0.00906 J0.00000
G2 X4.50906 Y-3.32874 Z-0.56296 I-0.00906 J0.00000
G2 X4.50906 Y-3.32874 Z-0.59259 I-0.00906 J0.00000
G2 X4.50906 Y-3.32874 Z-0.62222 I-0.00906 J0.00000
G2 X4.50906 Y-3.32874 Z-0.65185 I-0.00906 J0.00000
G2 X4.50906 Y-3.32874 Z-0.68148 I-0.00906 J0.00000
G2 X4.50906 Y-3.32874 Z-0.71111 I-0.00906 J0.00000
G2 X4.50906 Y-3.32874 Z-0.74074 I-0.00906 J0.00000
G2 X4.50906 Y-3.32874 Z-0.77037 I-0.00906 J0.00000
G2 X4.50906 Y-3.32874 Z-0.80000 I-0.00906 J0.00000
G2 X4.50906 Y-3.32874 Z-0.82963 I-0.00906 J0.00000
G2 X4.50906 Y-3.32874 Z-0.85926 I-0.00906 J0.00000
G2 X4.50906 Y-3.32874 Z-0.88889 I-0.00906 J0.00000
G2 X4.50906 Y-3.32874 Z-0.91852 I-0.00906 J0.00000
G2 X4.50906 Y-3.32874 Z-0.94815 I-0.00906 J0.00000
G2 X4.50906 Y-3.32874 Z-0.97778 I-0.00906 J0.00000
G2 X4.50906 Y-3.32874 Z-1.00741 I-0.00906 J0.00000
G2 X4.50906 Y-3.32874 Z-1.03704 I-0.00906 J0.00000
G2 X4.50906 Y-3.32874 Z-1.06667 I-0.00906 J0.00000
G2 X4.50906 Y-3.32874 Z-1.09630 I-0.00906 J0.00000
G2 X4.50906 Y-3.32874 Z-1.12593 I-0.00906 J0.00000
G2 X4.50906 Y-3.32874 Z-1.15556 I-0.00906 J0.00000
G2 X4.50906 Y-3.32874 Z-1.18519 I-0.00906 J0.00000
G2 X4.50906 Y-3.32874 Z-1.21481 I-0.00906 J0.00000
G2 X4.50906 Y-3.32874 Z-1.24444 I-0.00906 J0.00000
G2 X4.50906 Y-3.32874 Z-1.27407 I-0.00906 J0.00000
G2 X4.50906 Y-3.32874 Z-1.30370 I-0.00906 J0.00000
G2 X4.50906 Y-3.32874 Z-1.33333 I-0.00906 J0.00000
G2 X4.50906 Y-3.32874 Z-1.36296 I-0.00906 J0.00000
G2 X4.50906 Y-3.32874 Z-1.39259 I-0.00906 J0.00000
G2 X4.50906 Y-3.32874 Z-1.42222 I-0.00906 J0.00000
G2 X4.50906 Y-3.32874 Z-1.45185 I-0.00906 J0.00000
G2 X4.50906 Y-3.32874 Z-1.48148 I-0.00906 J0.00000
G2 X4.50906 Y-3.32874 Z-1.51111 I-0.00906 J0.00000
G2 X4.50906 Y-3.32874 Z-1.54074 I-0.00906 J0.00000
G2 X4.50906 Y-3.32874 Z-1.57037 I-0.00906 J0.00000
G2 X4.50906 Y-3.32874 Z-1.60000 I-0.00906 J0.00000
G2 X4.50906 Y-3.32874 I-0.00906 J0.00000
G0 Z0.08000

G00 Z1.000 ( All done -- retract )

M5      (Spindle off.)
G04 P1.000000
M9      (Coolant off.)
M2      (Program end.)

