( pcb2gcode 2.4.0 )
( Software-independent Gcode )

G94 ( Inches per minute feed rate. )
G20 ( Units == INCHES. )

G90 ( Absolute coordinates. )
G00 S12000 ( RPM spindle speed. )
G64 P0.00040 ( set maximum deviation from commanded toolpath )
G01 F360.00000 ( Feedrate. )


G00 Z1.00000 (Retract to tool change height)
T0
M5      (Spindle stop.)
G04 P1.00000 (Wait for spindle to stop)
(MSG, Change tool bit to mill diameter 0.00000in)
M6      (Tool change.)
M0      (Temporary machine stop.)
M3 ( Spindle on clockwise. )
G04 P1.00000 (Wait for spindle to get up to speed)
G04 P0 ( dwell for no time -- G64 should not smooth over this point )
G00 Z0.08000 ( retract )

G00 X-0.06201 Y1.15709 ( rapid move to begin. )
G01 F180.00000
( Mill infeed pass 1/1 )
G01 Z-0.04000
G04 P0 ( dwell for no time -- G64 should not smooth over this point )
G01 F360.00000
G01 X-0.06201 Y1.15709
G01 X-0.10709 Y1.15709
G01 X-0.10709 Y1.11201
G01 X-0.10746 Y1.11012
G01 X-0.10853 Y1.10853
G01 X-0.11012 Y1.10746
G01 X-0.11201 Y1.10709
G01 X-0.11389 Y1.10746
G01 X-0.11549 Y1.10853
G01 X-0.11655 Y1.11012
G01 X-0.11693 Y1.11201
G01 X-0.11693 Y1.15709
G01 X-0.16201 Y1.15709
G01 X-0.16389 Y1.15746
G01 X-0.16549 Y1.15853
G01 X-0.16655 Y1.16012
G01 X-0.16693 Y1.16201
G01 X-0.16655 Y1.16389
G01 X-0.16549 Y1.16549
G01 X-0.16389 Y1.16655
G01 X-0.16201 Y1.16693
G01 X-0.11693 Y1.16693
G01 X-0.11693 Y1.21201
G01 X-0.10709 Y1.21201
G01 X-0.10709 Y1.16693
G01 X-0.06201 Y1.16684
G01 X-0.06201 Y1.15709
G01 X-0.27502 Y0.56915
G01 X-0.27577 Y0.57683
G01 X-0.27801 Y0.58422
G01 X-0.28165 Y0.59102
G01 X-0.28655 Y0.59699
G01 X-0.29251 Y0.60189
G01 X-0.29932 Y0.60552
G01 X-0.30671 Y0.60776
G01 X-0.31439 Y0.60852
G01 X-0.32207 Y0.60776
G01 X-0.32945 Y0.60552
G01 X-0.33626 Y0.60189
G01 X-0.34223 Y0.59699
G01 X-0.46549 Y0.47372
G01 X-0.46549 Y0.73582
G01 X-0.46625 Y0.74350
G01 X-0.46849 Y0.75088
G01 X-0.47213 Y0.75769
G01 X-0.47703 Y0.76366
G01 X-0.48299 Y0.76855
G01 X-0.48980 Y0.77219
G01 X-0.49718 Y0.77443
G01 X-0.50486 Y0.77519
G01 X-0.51254 Y0.77443
G01 X-0.51993 Y0.77219
G01 X-0.52674 Y0.76855
G01 X-0.53270 Y0.76366
G01 X-0.53760 Y0.75769
G01 X-0.54124 Y0.75088
G01 X-0.54348 Y0.74350
G01 X-0.54423 Y0.73582
G01 X-0.54423 Y0.23582
G01 X-0.54348 Y0.22814
G01 X-0.54124 Y0.22075
G01 X-0.53760 Y0.21395
G01 X-0.53270 Y0.20798
G01 X-0.52674 Y0.20308
G01 X-0.51993 Y0.19944
G01 X-0.51254 Y0.19720
G01 X-0.50486 Y0.19645
G01 X-0.49718 Y0.19720
G01 X-0.48980 Y0.19944
G01 X-0.48299 Y0.20308
G01 X-0.47703 Y0.20798
G01 X-0.47213 Y0.21395
G01 X-0.46849 Y0.22075
G01 X-0.46625 Y0.22814
G01 X-0.46549 Y0.23582
G01 X-0.46549 Y0.36237
G01 X-0.46150 Y0.36636
G01 X-0.34588 Y0.21220
G01 X-0.34067 Y0.20651
G01 X-0.33445 Y0.20194
G01 X-0.32745 Y0.19868
G01 X-0.31995 Y0.19684
G01 X-0.31224 Y0.19651
G01 X-0.30462 Y0.19768
G01 X-0.29736 Y0.20032
G01 X-0.29076 Y0.20432
G01 X-0.28507 Y0.20954
G01 X-0.28051 Y0.21576
G01 X-0.27725 Y0.22275
G01 X-0.27541 Y0.23025
G01 X-0.27508 Y0.23796
G01 X-0.27625 Y0.24559
G01 X-0.27889 Y0.25284
G01 X-0.28289 Y0.25944
G01 X-0.40526 Y0.42260
G01 X-0.28655 Y0.54131
G01 X-0.28165 Y0.54728
G01 X-0.27801 Y0.55408
G01 X-0.27577 Y0.56147
G01 X-0.27502 Y0.56915
G04 P0 ( dwell for no time -- G64 should not smooth over this point )
G00 Z0.08000 ( retract )

G00 X-0.67988 Y0.26242 ( rapid move to begin. )
G01 F180.00000
( Mill infeed pass 1/1 )
G01 Z-0.04000
G04 P0 ( dwell for no time -- G64 should not smooth over this point )
G01 F360.00000
G01 X-0.67988 Y0.26242
G01 X-0.68009 Y0.25470
G01 X-0.68180 Y0.24718
G01 X-0.68495 Y0.24013
G01 X-0.68941 Y0.23383
G01 X-0.69501 Y0.22853
G01 X-0.70154 Y0.22441
G01 X-0.74916 Y0.20060
G01 X-0.75772 Y0.19750
G01 X-0.76677 Y0.19645
G01 X-0.86201 Y0.19645
G01 X-0.87105 Y0.19750
G01 X-0.87961 Y0.20060
G01 X-0.92723 Y0.22441
G01 X-0.93265 Y0.22769
G01 X-0.93746 Y0.23179
G01 X-0.96127 Y0.25560
G01 X-0.96537 Y0.26042
G01 X-0.96865 Y0.26583
G01 X-0.99246 Y0.31345
G01 X-0.99556 Y0.32201
G01 X-0.99662 Y0.33106
G01 X-0.99662 Y0.47391
G01 X-0.99556 Y0.48296
G01 X-0.99246 Y0.49152
G01 X-0.96865 Y0.53914
G01 X-0.96537 Y0.54455
G01 X-0.96127 Y0.54937
G01 X-0.93747 Y0.57318
G01 X-0.93265 Y0.57728
G01 X-0.92723 Y0.58056
G01 X-0.87961 Y0.60436
G01 X-0.87105 Y0.60747
G01 X-0.86201 Y0.60852
G01 X-0.76677 Y0.60852
G01 X-0.75772 Y0.60747
G01 X-0.74916 Y0.60436
G01 X-0.70154 Y0.58056
G01 X-0.69501 Y0.57644
G01 X-0.68941 Y0.57114
G01 X-0.68495 Y0.56484
G01 X-0.68180 Y0.55779
G01 X-0.68009 Y0.55027
G01 X-0.67988 Y0.54255
G01 X-0.68118 Y0.53494
G01 X-0.68394 Y0.52774
G01 X-0.68805 Y0.52120
G01 X-0.69335 Y0.51560
G01 X-0.69965 Y0.51114
G01 X-0.70670 Y0.50799
G01 X-0.71422 Y0.50628
G01 X-0.72194 Y0.50607
G01 X-0.72955 Y0.50737
G01 X-0.73676 Y0.51013
G01 X-0.77606 Y0.52978
G01 X-0.85271 Y0.52978
G01 X-0.88630 Y0.51299
G01 X-0.90108 Y0.49821
G01 X-0.91787 Y0.46462
G01 X-0.91787 Y0.34035
G01 X-0.90108 Y0.30676
G01 X-0.88630 Y0.29198
G01 X-0.85271 Y0.27519
G01 X-0.77606 Y0.27519
G01 X-0.73676 Y0.29484
G01 X-0.72955 Y0.29760
G01 X-0.72194 Y0.29890
G01 X-0.71423 Y0.29869
G01 X-0.70670 Y0.29698
G01 X-0.69965 Y0.29383
G01 X-0.69335 Y0.28937
G01 X-0.68805 Y0.28377
G01 X-0.68394 Y0.27724
G01 X-0.68118 Y0.27003
G01 X-0.67988 Y0.26242
G04 P0 ( dwell for no time -- G64 should not smooth over this point )
G00 Z0.08000 ( retract )

G00 X-1.21090 Y0.28396 ( rapid move to begin. )
G01 F180.00000
( Mill infeed pass 1/1 )
G01 Z-0.04000
G04 P0 ( dwell for no time -- G64 should not smooth over this point )
G01 F360.00000
G01 X-1.21090 Y0.28396
G01 X-1.21090 Y0.38788
G01 X-1.21915 Y0.38692
G01 X-1.32890 Y0.38692
G01 X-1.35647 Y0.37314
G01 X-1.37026 Y0.34557
G01 X-1.37026 Y0.31654
G01 X-1.35647 Y0.28897
G01 X-1.32890 Y0.27519
G01 X-1.22844 Y0.27519
G01 X-1.21090 Y0.28396
G04 P0 ( dwell for no time -- G64 should not smooth over this point )
G00 Z0.08000 ( retract )

G00 X-1.56073 Y0.33106 ( rapid move to begin. )
G01 F180.00000
( Mill infeed pass 1/1 )
G01 Z-0.04000
G04 P0 ( dwell for no time -- G64 should not smooth over this point )
G01 F360.00000
G01 X-1.56073 Y0.33106
G01 X-1.56073 Y0.40248
G01 X-1.56179 Y0.41153
G01 X-1.56489 Y0.42009
G01 X-1.58870 Y0.46771
G01 X-1.59197 Y0.47312
G01 X-1.59607 Y0.47794
G01 X-1.61988 Y0.50175
G01 X-1.62702 Y0.50740
G01 X-1.62904 Y0.50835
G01 X-1.61988 Y0.51750
G01 X-1.61578 Y0.52232
G01 X-1.61251 Y0.52773
G01 X-1.58870 Y0.57535
G01 X-1.58559 Y0.58392
G01 X-1.58454 Y0.59296
G01 X-1.58454 Y0.64058
G01 X-1.58559 Y0.64963
G01 X-1.58870 Y0.65819
G01 X-1.61251 Y0.70581
G01 X-1.61578 Y0.71122
G01 X-1.61988 Y0.71604
G01 X-1.64369 Y0.73985
G01 X-1.64851 Y0.74395
G01 X-1.65392 Y0.74722
G01 X-1.70154 Y0.77103
G01 X-1.71010 Y0.77413
G01 X-1.71915 Y0.77519
G01 X-1.88582 Y0.77519
G01 X-1.89350 Y0.77443
G01 X-1.90088 Y0.77219
G01 X-1.90769 Y0.76855
G01 X-1.91365 Y0.76366
G01 X-1.91855 Y0.75769
G01 X-1.92219 Y0.75088
G01 X-1.92443 Y0.74350
G01 X-1.92519 Y0.73582
G01 X-1.92519 Y0.23582
G01 X-1.92443 Y0.22814
G01 X-1.92219 Y0.22075
G01 X-1.91855 Y0.21395
G01 X-1.91365 Y0.20798
G01 X-1.90769 Y0.20308
G01 X-1.90088 Y0.19944
G01 X-1.89350 Y0.19720
G01 X-1.88582 Y0.19645
G01 X-1.69534 Y0.19645
G01 X-1.68629 Y0.19750
G01 X-1.67773 Y0.20060
G01 X-1.63011 Y0.22441
G01 X-1.62470 Y0.22769
G01 X-1.61988 Y0.23179
G01 X-1.59607 Y0.25560
G01 X-1.59197 Y0.26042
G01 X-1.58870 Y0.26583
G01 X-1.56489 Y0.31345
G01 X-1.56179 Y0.32201
G01 X-1.56073 Y0.33106
G04 P0 ( dwell for no time -- G64 should not smooth over this point )
G00 Z0.08000 ( retract )

G00 X-1.63947 Y0.34035 ( rapid move to begin. )
G01 F180.00000
( Mill infeed pass 1/1 )
G01 Z-0.04000
G04 P0 ( dwell for no time -- G64 should not smooth over this point )
G01 F360.00000
G01 X-1.63947 Y0.34035
G01 X-1.65627 Y0.30676
G01 X-1.67104 Y0.29198
G01 X-1.70463 Y0.27519
G01 X-1.84645 Y0.27519
G01 X-1.84645 Y0.45835
G01 X-1.72554 Y0.45835
G01 X-1.66899 Y0.43950
G01 X-1.65627 Y0.42678
G01 X-1.63947 Y0.39319
G01 X-1.63947 Y0.34035
G01 X-1.75020 Y0.36201
G01 X-1.75045 Y0.35955
G01 X-1.75122 Y0.35720
G01 X-1.75245 Y0.35507
G01 X-1.75410 Y0.35323
G01 X-1.75610 Y0.35178
G01 X-1.75836 Y0.35078
G01 X-1.76077 Y0.35026
G01 X-1.76324 Y0.35026
G01 X-1.76566 Y0.35078
G01 X-1.76791 Y0.35178
G01 X-1.76991 Y0.35323
G01 X-1.77156 Y0.35507
G01 X-1.77280 Y0.35720
G01 X-1.77356 Y0.35955
G01 X-1.77382 Y0.36201
G01 X-1.77356 Y0.36446
G01 X-1.77280 Y0.36681
G01 X-1.77156 Y0.36895
G01 X-1.76991 Y0.37079
G01 X-1.76791 Y0.37224
G01 X-1.76566 Y0.37324
G01 X-1.76324 Y0.37375
G01 X-1.76077 Y0.37375
G01 X-1.75836 Y0.37324
G01 X-1.75610 Y0.37224
G01 X-1.75410 Y0.37079
G01 X-1.75245 Y0.36895
G01 X-1.75122 Y0.36681
G01 X-1.75045 Y0.36446
G01 X-1.75020 Y0.36201
G04 P0 ( dwell for no time -- G64 should not smooth over this point )
G00 Z0.08000 ( retract )

G00 X-2.02861 Y0.62515 ( rapid move to begin. )
G01 F180.00000
( Mill infeed pass 1/1 )
G01 Z-0.04000
G04 P0 ( dwell for no time -- G64 should not smooth over this point )
G01 F360.00000
G01 X-2.02861 Y0.62515
G01 X-2.02878 Y0.62630
G01 X-2.02917 Y0.62739
G01 X-2.02976 Y0.62838
G01 X-2.03054 Y0.62924
G01 X-2.03147 Y0.62993
G01 X-2.03252 Y0.63042
G01 X-2.03364 Y0.63070
G01 X-2.03480 Y0.63076
G01 X-2.03594 Y0.63059
G01 X-2.03703 Y0.63020
G01 X-2.03802 Y0.62960
G01 X-2.03888 Y0.62882
G01 X-2.03957 Y0.62789
G01 X-2.04007 Y0.62685
G01 X-2.04856 Y0.60305
G01 X-2.05706 Y0.62685
G01 X-2.05756 Y0.62789
G01 X-2.05825 Y0.62882
G01 X-2.05910 Y0.62960
G01 X-2.06010 Y0.63020
G01 X-2.06119 Y0.63059
G01 X-2.06233 Y0.63076
G01 X-2.06349 Y0.63070
G01 X-2.06461 Y0.63042
G01 X-2.06566 Y0.62993
G01 X-2.06659 Y0.62924
G01 X-2.06737 Y0.62838
G01 X-2.06796 Y0.62739
G01 X-2.06835 Y0.62630
G01 X-2.06852 Y0.62515
G01 X-2.06847 Y0.62400
G01 X-2.06819 Y0.62287
G01 X-2.05488 Y0.58561
G01 X-2.05922 Y0.57475
G01 X-2.06050 Y0.57347
G01 X-2.06625 Y0.57047
G01 X-2.06709 Y0.56967
G01 X-2.06776 Y0.56873
G01 X-2.06823 Y0.56767
G01 X-2.06848 Y0.56654
G01 X-2.06852 Y0.56539
G01 X-2.06832 Y0.56425
G01 X-2.06791 Y0.56316
G01 X-2.06729 Y0.56218
G01 X-2.06649 Y0.56134
G01 X-2.06555 Y0.56067
G01 X-2.06449 Y0.56020
G01 X-2.06336 Y0.55995
G01 X-2.06221 Y0.55991
G01 X-2.06107 Y0.56011
G01 X-2.05436 Y0.56333
G01 X-2.05283 Y0.56444
G01 X-2.04926 Y0.56818
G01 X-2.04871 Y0.56924
G01 X-2.04300 Y0.58350
G01 X-2.02894 Y0.62287
G01 X-2.02866 Y0.62400
G01 X-2.02861 Y0.62515
G04 P0 ( dwell for no time -- G64 should not smooth over this point )
G00 Z0.08000 ( retract )

G00 X-2.00709 Y0.66201 ( rapid move to begin. )
G01 F180.00000
( Mill infeed pass 1/1 )
G01 Z-0.04000
G04 P0 ( dwell for no time -- G64 should not smooth over this point )
G01 F360.00000
G01 X-2.00709 Y0.66201
G01 X-2.00746 Y0.66389
G01 X-2.00853 Y0.66549
G01 X-2.01012 Y0.66655
G01 X-2.01201 Y0.66693
G01 X-2.06201 Y0.66693
G01 X-2.06297 Y0.66683
G01 X-2.06474 Y0.66610
G01 X-2.06610 Y0.66474
G01 X-2.06683 Y0.66297
G01 X-2.06693 Y0.66201
G01 X-2.06683 Y0.66105
G01 X-2.06610 Y0.65927
G01 X-2.06474 Y0.65792
G01 X-2.06297 Y0.65718
G01 X-2.06201 Y0.65709
G01 X-2.01201 Y0.65709
G01 X-2.01012 Y0.65746
G01 X-2.00853 Y0.65853
G01 X-2.00746 Y0.66013
G01 X-2.00709 Y0.66201
G04 P0 ( dwell for no time -- G64 should not smooth over this point )
G00 Z0.08000 ( retract )

G00 X-1.96111 Y0.59955 ( rapid move to begin. )
G01 F180.00000
( Mill infeed pass 1/1 )
G01 Z-0.04000
G04 P0 ( dwell for no time -- G64 should not smooth over this point )
G01 F360.00000
G01 X-1.96111 Y0.59955
G01 X-1.96122 Y0.60070
G01 X-1.96156 Y0.60181
G01 X-1.96210 Y0.60283
G01 X-1.96284 Y0.60373
G01 X-1.96373 Y0.60446
G01 X-1.96475 Y0.60501
G01 X-1.96586 Y0.60534
G01 X-1.96701 Y0.60546
G01 X-2.01201 Y0.60546
G01 X-2.01316 Y0.60534
G01 X-2.01427 Y0.60501
G01 X-2.01529 Y0.60446
G01 X-2.01618 Y0.60373
G01 X-2.01692 Y0.60283
G01 X-2.01746 Y0.60181
G01 X-2.01780 Y0.60070
G01 X-2.01791 Y0.59955
G01 X-2.01780 Y0.59840
G01 X-2.01746 Y0.59729
G01 X-2.01692 Y0.59627
G01 X-2.01618 Y0.59538
G01 X-2.01529 Y0.59464
G01 X-2.01427 Y0.59410
G01 X-2.01316 Y0.59376
G01 X-2.01201 Y0.59365
G01 X-1.96701 Y0.59365
G01 X-1.96586 Y0.59376
G01 X-1.96475 Y0.59410
G01 X-1.96373 Y0.59464
G01 X-1.96284 Y0.59538
G01 X-1.96210 Y0.59627
G01 X-1.96156 Y0.59729
G01 X-1.96122 Y0.59840
G01 X-1.96111 Y0.59955
G01 X-1.96111 Y0.61642
G01 X-1.96122 Y0.61527
G01 X-1.96156 Y0.61416
G01 X-1.96210 Y0.61314
G01 X-1.96284 Y0.61225
G01 X-1.96373 Y0.61151
G01 X-1.96475 Y0.61097
G01 X-1.96586 Y0.61063
G01 X-1.96701 Y0.61052
G01 X-2.01201 Y0.61052
G01 X-2.01316 Y0.61063
G01 X-2.01427 Y0.61097
G01 X-2.01529 Y0.61151
G01 X-2.01618 Y0.61225
G01 X-2.01692 Y0.61314
G01 X-2.01746 Y0.61416
G01 X-2.01780 Y0.61527
G01 X-2.01791 Y0.61642
G01 X-2.01780 Y0.61758
G01 X-2.01746 Y0.61868
G01 X-2.01692 Y0.61970
G01 X-2.01618 Y0.62060
G01 X-2.01529 Y0.62133
G01 X-2.01427 Y0.62188
G01 X-2.01316 Y0.62222
G01 X-2.01201 Y0.62233
G01 X-1.96701 Y0.62233
G01 X-1.96586 Y0.62222
G01 X-1.96475 Y0.62188
G01 X-1.96373 Y0.62133
G01 X-1.96284 Y0.62060
G01 X-1.96210 Y0.61970
G01 X-1.96156 Y0.61868
G01 X-1.96122 Y0.61758
G01 X-1.96111 Y0.61642
G01 X-1.96111 Y0.59955
G01 X-1.99063 Y0.48510
G01 X-1.99063 Y0.52447
G01 X-1.99075 Y0.52562
G01 X-1.99108 Y0.52673
G01 X-1.99163 Y0.52775
G01 X-1.99236 Y0.52864
G01 X-1.99326 Y0.52938
G01 X-1.99428 Y0.52992
G01 X-1.99539 Y0.53026
G01 X-1.99654 Y0.53037
G01 X-1.99769 Y0.53026
G01 X-1.99880 Y0.52992
G01 X-1.99982 Y0.52938
G01 X-2.00072 Y0.52864
G01 X-2.00145 Y0.52775
G01 X-2.00200 Y0.52673
G01 X-2.00233 Y0.52562
G01 X-2.00245 Y0.52447
G01 X-2.00245 Y0.48510
G01 X-2.00233 Y0.48394
G01 X-2.00200 Y0.48284
G01 X-2.00145 Y0.48182
G01 X-2.00072 Y0.48092
G01 X-1.99982 Y0.48019
G01 X-1.99880 Y0.47964
G01 X-1.99769 Y0.47930
G01 X-1.99654 Y0.47919
G01 X-1.99539 Y0.47930
G01 X-1.99428 Y0.47964
G01 X-1.99326 Y0.48019
G01 X-1.99236 Y0.48092
G01 X-1.99163 Y0.48182
G01 X-1.99108 Y0.48284
G01 X-1.99075 Y0.48394
G01 X-1.98782 Y0.54134
G01 X-1.98794 Y0.54249
G01 X-1.98827 Y0.54360
G01 X-1.98882 Y0.54462
G01 X-1.99236 Y0.54833
G01 X-1.99326 Y0.54906
G01 X-1.99428 Y0.54961
G01 X-1.99539 Y0.54994
G01 X-1.99654 Y0.55006
G01 X-1.99769 Y0.54994
G01 X-1.99880 Y0.54961
G01 X-1.99982 Y0.54906
G01 X-2.00072 Y0.54833
G01 X-2.00426 Y0.54462
G01 X-2.00481 Y0.54360
G01 X-2.00514 Y0.54249
G01 X-2.00526 Y0.54134
G01 X-2.00514 Y0.54019
G01 X-2.00481 Y0.53908
G01 X-2.00426 Y0.53806
G01 X-2.00353 Y0.53716
G01 X-1.99982 Y0.53362
G01 X-1.99880 Y0.53307
G01 X-1.99769 Y0.53273
G01 X-1.99654 Y0.53262
G01 X-1.99539 Y0.53273
G01 X-1.99428 Y0.53307
G01 X-1.99326 Y0.53362
G01 X-1.99236 Y0.53435
G01 X-1.98882 Y0.53806
G01 X-1.98827 Y0.53908
G01 X-1.98794 Y0.54019
G01 X-1.98782 Y0.54134
G04 P0 ( dwell for no time -- G64 should not smooth over this point )
G00 Z0.08000 ( retract )

G00 X-2.07219 Y0.48791 ( rapid move to begin. )
G01 F180.00000
( Mill infeed pass 1/1 )
G01 Z-0.04000
G04 P0 ( dwell for no time -- G64 should not smooth over this point )
G01 F360.00000
G01 X-2.07219 Y0.48791
G01 X-2.07230 Y0.48676
G01 X-2.07264 Y0.48565
G01 X-2.07318 Y0.48463
G01 X-2.07673 Y0.48092
G01 X-2.07762 Y0.48019
G01 X-2.07864 Y0.47964
G01 X-2.07975 Y0.47930
G01 X-2.08090 Y0.47919
G01 X-2.08206 Y0.47930
G01 X-2.08316 Y0.47964
G01 X-2.08418 Y0.48019
G01 X-2.08508 Y0.48092
G01 X-2.08863 Y0.48463
G01 X-2.08917 Y0.48565
G01 X-2.08951 Y0.48676
G01 X-2.08962 Y0.48791
G01 X-2.08951 Y0.48906
G01 X-2.08917 Y0.49017
G01 X-2.08863 Y0.49119
G01 X-2.08508 Y0.49490
G01 X-2.08419 Y0.49563
G01 X-2.08316 Y0.49618
G01 X-2.08206 Y0.49651
G01 X-2.08090 Y0.49663
G01 X-2.07975 Y0.49651
G01 X-2.07864 Y0.49618
G01 X-2.07762 Y0.49563
G01 X-2.07673 Y0.49490
G01 X-2.07318 Y0.49119
G01 X-2.07264 Y0.49017
G01 X-2.07230 Y0.48906
G01 X-2.07219 Y0.48791
G04 P0 ( dwell for no time -- G64 should not smooth over this point )
G00 Z0.08000 ( retract )

G00 X-2.01594 Y0.49634 ( rapid move to begin. )
G01 F180.00000
( Mill infeed pass 1/1 )
G01 Z-0.04000
G04 P0 ( dwell for no time -- G64 should not smooth over this point )
G01 F360.00000
G01 X-2.01594 Y0.49634
G01 X-2.01610 Y0.49499
G01 X-2.01657 Y0.49370
G01 X-2.01987 Y0.48727
G01 X-2.02402 Y0.48312
G01 X-2.03046 Y0.47981
G01 X-2.03174 Y0.47935
G01 X-2.03310 Y0.47919
G01 X-2.04716 Y0.47919
G01 X-2.04851 Y0.47935
G01 X-2.04980 Y0.47981
G01 X-2.05624 Y0.48312
G01 X-2.05977 Y0.48655
G01 X-2.06051 Y0.48744
G01 X-2.06105 Y0.48846
G01 X-2.06139 Y0.48957
G01 X-2.06150 Y0.49072
G01 X-2.06139 Y0.49187
G01 X-2.06105 Y0.49298
G01 X-2.06050 Y0.49400
G01 X-2.05977 Y0.49490
G01 X-2.05888 Y0.49563
G01 X-2.05785 Y0.49618
G01 X-2.05675 Y0.49651
G01 X-2.05559 Y0.49663
G01 X-2.05444 Y0.49651
G01 X-2.05333 Y0.49618
G01 X-2.05231 Y0.49563
G01 X-2.04928 Y0.49276
G01 X-2.04576 Y0.49100
G01 X-2.03449 Y0.49100
G01 X-2.03097 Y0.49276
G01 X-2.02951 Y0.49422
G01 X-2.02775 Y0.49774
G01 X-2.02775 Y0.50901
G01 X-2.02951 Y0.51253
G01 X-2.03097 Y0.51399
G01 X-2.03449 Y0.51575
G01 X-2.04576 Y0.51575
G01 X-2.04928 Y0.51399
G01 X-2.05228 Y0.51114
G01 X-2.05325 Y0.51061
G01 X-2.05431 Y0.51027
G01 X-2.05542 Y0.51013
G01 X-2.05653 Y0.51020
G01 X-2.05761 Y0.51048
G01 X-2.05862 Y0.51096
G01 X-2.05952 Y0.51161
G01 X-2.06027 Y0.51243
G01 X-2.06087 Y0.51337
G01 X-2.06127 Y0.51441
G01 X-2.06148 Y0.51550
G01 X-2.06147 Y0.51662
G01 X-2.05866 Y0.54474
G01 X-2.05841 Y0.54595
G01 X-2.05791 Y0.54709
G01 X-2.05718 Y0.54809
G01 X-2.05626 Y0.54892
G01 X-2.05519 Y0.54954
G01 X-2.05401 Y0.54993
G01 X-2.05278 Y0.55006
G01 X-2.02466 Y0.55006
G01 X-2.02351 Y0.54994
G01 X-2.02240 Y0.54961
G01 X-2.02138 Y0.54906
G01 X-2.02049 Y0.54833
G01 X-2.01975 Y0.54743
G01 X-2.01921 Y0.54641
G01 X-2.01887 Y0.54530
G01 X-2.01876 Y0.54415
G01 X-2.01887 Y0.54300
G01 X-2.01921 Y0.54189
G01 X-2.01975 Y0.54087
G01 X-2.02049 Y0.53998
G01 X-2.02138 Y0.53924
G01 X-2.02240 Y0.53870
G01 X-2.02351 Y0.53836
G01 X-2.02466 Y0.53825
G01 X-2.04744 Y0.53825
G01 X-2.04852 Y0.52740
G01 X-2.04716 Y0.52756
G01 X-2.03310 Y0.52756
G01 X-2.03174 Y0.52740
G01 X-2.03046 Y0.52694
G01 X-2.02402 Y0.52363
G01 X-2.01987 Y0.51948
G01 X-2.01657 Y0.51305
G01 X-2.01610 Y0.51176
G01 X-2.01594 Y0.51041
G01 X-2.01594 Y0.49634
G04 P0 ( dwell for no time -- G64 should not smooth over this point )
G00 Z0.08000 ( retract )

G00 X-1.93720 Y0.48510 ( rapid move to begin. )
G01 F180.00000
( Mill infeed pass 1/1 )
G01 Z-0.04000
G04 P0 ( dwell for no time -- G64 should not smooth over this point )
G01 F360.00000
G01 X-1.93720 Y0.48510
G01 X-1.93732 Y0.48394
G01 X-1.93765 Y0.48284
G01 X-1.93820 Y0.48182
G01 X-1.93893 Y0.48092
G01 X-1.93983 Y0.48019
G01 X-1.94085 Y0.47964
G01 X-1.94196 Y0.47930
G01 X-1.94311 Y0.47919
G01 X-1.94426 Y0.47930
G01 X-1.94537 Y0.47964
G01 X-1.94639 Y0.48019
G01 X-1.94728 Y0.48092
G01 X-1.94802 Y0.48182
G01 X-1.94856 Y0.48284
G01 X-1.94890 Y0.48394
G01 X-1.94901 Y0.48510
G01 X-1.94901 Y0.51464
G01 X-1.95032 Y0.51725
G01 X-1.95294 Y0.51856
G01 X-1.95859 Y0.51856
G01 X-1.96211 Y0.51680
G01 X-1.96251 Y0.51640
G01 X-1.96251 Y0.48510
G01 X-1.96263 Y0.48394
G01 X-1.96296 Y0.48284
G01 X-1.96351 Y0.48182
G01 X-1.96424 Y0.48092
G01 X-1.96514 Y0.48019
G01 X-1.96616 Y0.47964
G01 X-1.96727 Y0.47930
G01 X-1.96842 Y0.47919
G01 X-1.96957 Y0.47930
G01 X-1.97068 Y0.47964
G01 X-1.97170 Y0.48019
G01 X-1.97259 Y0.48092
G01 X-1.97333 Y0.48182
G01 X-1.97387 Y0.48284
G01 X-1.97421 Y0.48394
G01 X-1.97432 Y0.48510
G01 X-1.97432 Y0.52447
G01 X-1.97421 Y0.52562
G01 X-1.97387 Y0.52673
G01 X-1.97333 Y0.52775
G01 X-1.97259 Y0.52864
G01 X-1.97170 Y0.52938
G01 X-1.97068 Y0.52992
G01 X-1.96957 Y0.53026
G01 X-1.96842 Y0.53037
G01 X-1.96727 Y0.53026
G01 X-1.96616 Y0.52992
G01 X-1.96447 Y0.52883
G01 X-1.96134 Y0.53021
G01 X-1.95998 Y0.53037
G01 X-1.95155 Y0.53037
G01 X-1.95019 Y0.53021
G01 X-1.94890 Y0.52975
G01 X-1.94328 Y0.52694
G01 X-1.94222 Y0.52625
G01 X-1.94132 Y0.52536
G01 X-1.94064 Y0.52430
G01 X-1.93783 Y0.51867
G01 X-1.93736 Y0.51739
G01 X-1.93720 Y0.51603
G01 X-1.93720 Y0.48510
G04 P0 ( dwell for no time -- G64 should not smooth over this point )
G00 Z0.08000 ( retract )

G00 X-1.75020 Y0.61201 ( rapid move to begin. )
G01 F180.00000
( Mill infeed pass 1/1 )
G01 Z-0.04000
G04 P0 ( dwell for no time -- G64 should not smooth over this point )
G01 F360.00000
G01 X-1.75020 Y0.61201
G01 X-1.75045 Y0.61446
G01 X-1.75122 Y0.61681
G01 X-1.75245 Y0.61895
G01 X-1.75410 Y0.62079
G01 X-1.75610 Y0.62224
G01 X-1.75836 Y0.62324
G01 X-1.76077 Y0.62375
G01 X-1.76324 Y0.62375
G01 X-1.76566 Y0.62324
G01 X-1.76791 Y0.62224
G01 X-1.76991 Y0.62079
G01 X-1.77156 Y0.61895
G01 X-1.77280 Y0.61681
G01 X-1.77356 Y0.61446
G01 X-1.77382 Y0.61201
G01 X-1.77356 Y0.60955
G01 X-1.77280 Y0.60720
G01 X-1.77156 Y0.60507
G01 X-1.76991 Y0.60323
G01 X-1.76791 Y0.60178
G01 X-1.76566 Y0.60078
G01 X-1.76324 Y0.60026
G01 X-1.76077 Y0.60026
G01 X-1.75836 Y0.60078
G01 X-1.75610 Y0.60178
G01 X-1.75410 Y0.60323
G01 X-1.75245 Y0.60507
G01 X-1.75122 Y0.60720
G01 X-1.75045 Y0.60955
G01 X-1.75020 Y0.61201
G01 X-1.66328 Y0.60226
G01 X-1.66328 Y0.63129
G01 X-1.68008 Y0.66488
G01 X-1.69485 Y0.67965
G01 X-1.72844 Y0.69645
G01 X-1.84645 Y0.69645
G01 X-1.84645 Y0.53709
G01 X-1.72844 Y0.53709
G01 X-1.69485 Y0.55389
G01 X-1.68008 Y0.56866
G01 X-1.66328 Y0.60226
G04 P0 ( dwell for no time -- G64 should not smooth over this point )
G00 Z0.08000 ( retract )

G00 X-1.19611 Y1.13575 ( rapid move to begin. )
G01 F180.00000
( Mill infeed pass 1/1 )
G01 Z-0.04000
G04 P0 ( dwell for no time -- G64 should not smooth over this point )
G01 F360.00000
G01 X-1.19611 Y1.13575
G01 X-1.19613 Y1.13459
G01 X-1.19638 Y1.13346
G01 X-1.19685 Y1.13240
G01 X-1.19751 Y1.13145
G01 X-1.19835 Y1.13065
G01 X-1.19932 Y1.13003
G01 X-1.20040 Y1.12961
G01 X-1.20154 Y1.12940
G01 X-1.20270 Y1.12943
G01 X-1.20383 Y1.12968
G01 X-1.20489 Y1.13015
G01 X-1.20584 Y1.13081
G01 X-1.20664 Y1.13164
G01 X-1.21746 Y1.14542
G01 X-1.22829 Y1.13164
G01 X-1.22909 Y1.13081
G01 X-1.23004 Y1.13015
G01 X-1.23110 Y1.12968
G01 X-1.23223 Y1.12943
G01 X-1.23338 Y1.12940
G01 X-1.23452 Y1.12961
G01 X-1.23560 Y1.13003
G01 X-1.23658 Y1.13065
G01 X-1.23741 Y1.13145
G01 X-1.23808 Y1.13240
G01 X-1.23854 Y1.13346
G01 X-1.23879 Y1.13459
G01 X-1.23882 Y1.13575
G01 X-1.23862 Y1.13689
G01 X-1.23820 Y1.13797
G01 X-1.23757 Y1.13894
G01 X-1.22497 Y1.15498
G01 X-1.23757 Y1.17101
G01 X-1.23820 Y1.17199
G01 X-1.23862 Y1.17307
G01 X-1.23882 Y1.17421
G01 X-1.23879 Y1.17536
G01 X-1.23854 Y1.17649
G01 X-1.23808 Y1.17755
G01 X-1.23741 Y1.17850
G01 X-1.23658 Y1.17930
G01 X-1.23560 Y1.17993
G01 X-1.23452 Y1.18035
G01 X-1.23338 Y1.18055
G01 X-1.23223 Y1.18052
G01 X-1.23110 Y1.18027
G01 X-1.23004 Y1.17981
G01 X-1.22909 Y1.17915
G01 X-1.22829 Y1.17831
G01 X-1.21746 Y1.16453
G01 X-1.20664 Y1.17831
G01 X-1.20584 Y1.17915
G01 X-1.20489 Y1.17981
G01 X-1.20383 Y1.18027
G01 X-1.20270 Y1.18052
G01 X-1.20154 Y1.18055
G01 X-1.20040 Y1.18035
G01 X-1.19932 Y1.17993
G01 X-1.19835 Y1.17930
G01 X-1.19751 Y1.17850
G01 X-1.19685 Y1.17755
G01 X-1.19638 Y1.17649
G01 X-1.19613 Y1.17536
G01 X-1.19611 Y1.17421
G01 X-1.19631 Y1.17307
G01 X-1.19673 Y1.17199
G01 X-1.19735 Y1.17101
G01 X-1.20995 Y1.15498
G01 X-1.19735 Y1.13894
G01 X-1.19673 Y1.13797
G01 X-1.19631 Y1.13689
G01 X-1.19611 Y1.13575
G04 P0 ( dwell for no time -- G64 should not smooth over this point )
G00 Z0.08000 ( retract )

G00 X-1.12860 Y1.16623 ( rapid move to begin. )
G01 F180.00000
( Mill infeed pass 1/1 )
G01 Z-0.04000
G04 P0 ( dwell for no time -- G64 should not smooth over this point )
G01 F360.00000
G01 X-1.12860 Y1.16623
G01 X-1.12871 Y1.16507
G01 X-1.12905 Y1.16397
G01 X-1.12959 Y1.16294
G01 X-1.13033 Y1.16205
G01 X-1.13122 Y1.16132
G01 X-1.13224 Y1.16077
G01 X-1.13335 Y1.16043
G01 X-1.13450 Y1.16032
G01 X-1.17950 Y1.16032
G01 X-1.18065 Y1.16043
G01 X-1.18176 Y1.16077
G01 X-1.18278 Y1.16132
G01 X-1.18367 Y1.16205
G01 X-1.18441 Y1.16294
G01 X-1.18495 Y1.16397
G01 X-1.18529 Y1.16507
G01 X-1.18540 Y1.16623
G01 X-1.18529 Y1.16738
G01 X-1.18495 Y1.16848
G01 X-1.18441 Y1.16951
G01 X-1.18367 Y1.17040
G01 X-1.18278 Y1.17114
G01 X-1.18176 Y1.17168
G01 X-1.18065 Y1.17202
G01 X-1.17950 Y1.17213
G01 X-1.13450 Y1.17213
G01 X-1.13335 Y1.17202
G01 X-1.13224 Y1.17168
G01 X-1.13122 Y1.17114
G01 X-1.13033 Y1.17040
G01 X-1.12959 Y1.16951
G01 X-1.12905 Y1.16848
G01 X-1.12871 Y1.16738
G01 X-1.12860 Y1.16623
G01 X-1.12860 Y1.14935
G01 X-1.12871 Y1.15051
G01 X-1.12905 Y1.15161
G01 X-1.12959 Y1.15263
G01 X-1.13033 Y1.15353
G01 X-1.13122 Y1.15426
G01 X-1.13224 Y1.15481
G01 X-1.13335 Y1.15515
G01 X-1.13450 Y1.15526
G01 X-1.17950 Y1.15526
G01 X-1.18065 Y1.15515
G01 X-1.18176 Y1.15481
G01 X-1.18278 Y1.15426
G01 X-1.18367 Y1.15353
G01 X-1.18441 Y1.15263
G01 X-1.18495 Y1.15161
G01 X-1.18529 Y1.15051
G01 X-1.18540 Y1.14935
G01 X-1.18529 Y1.14820
G01 X-1.18495 Y1.14709
G01 X-1.18441 Y1.14607
G01 X-1.18367 Y1.14518
G01 X-1.18278 Y1.14444
G01 X-1.18176 Y1.14390
G01 X-1.18065 Y1.14356
G01 X-1.17950 Y1.14345
G01 X-1.13450 Y1.14345
G01 X-1.13335 Y1.14356
G01 X-1.13224 Y1.14390
G01 X-1.13122 Y1.14444
G01 X-1.13033 Y1.14518
G01 X-1.12959 Y1.14607
G01 X-1.12905 Y1.14709
G01 X-1.12871 Y1.14820
G01 X-1.12860 Y1.14935
G01 X-1.13216 Y0.23582
G01 X-1.10709 Y1.06201
G01 X-1.10746 Y1.06012
G01 X-1.10853 Y1.05853
G01 X-1.11012 Y1.05746
G01 X-1.11201 Y1.05709
G01 X-1.11389 Y1.05746
G01 X-1.11549 Y1.05853
G01 X-1.11655 Y1.06012
G01 X-1.11693 Y1.06201
G01 X-1.11693 Y1.11201
G01 X-1.11683 Y1.11297
G01 X-1.11610 Y1.11474
G01 X-1.11474 Y1.11610
G01 X-1.11297 Y1.11683
G01 X-1.11201 Y1.11693
G01 X-1.11105 Y1.11683
G01 X-1.10927 Y1.11610
G01 X-1.10792 Y1.11474
G01 X-1.10718 Y1.11297
G01 X-1.10709 Y1.11201
G01 X-1.10709 Y1.06201
G01 X-1.13216 Y0.23582
G01 X-1.13216 Y0.49772
G01 X-1.13321 Y0.50677
G01 X-1.13632 Y0.51533
G01 X-1.16013 Y0.56295
G01 X-1.16468 Y0.57004
G01 X-1.17064 Y0.57600
G01 X-1.17773 Y0.58056
G01 X-1.22535 Y0.60436
G01 X-1.23391 Y0.60747
G01 X-1.24296 Y0.60852
G01 X-1.33820 Y0.60852
G01 X-1.34724 Y0.60747
G01 X-1.35580 Y0.60436
G01 X-1.40342 Y0.58056
G01 X-1.40995 Y0.57644
G01 X-1.41556 Y0.57114
G01 X-1.42002 Y0.56484
G01 X-1.42317 Y0.55779
G01 X-1.42488 Y0.55027
G01 X-1.42509 Y0.54255
G01 X-1.42379 Y0.53494
G01 X-1.42103 Y0.52774
G01 X-1.41692 Y0.52120
G01 X-1.41161 Y0.51560
G01 X-1.40531 Y0.51114
G01 X-1.39827 Y0.50799
G01 X-1.39074 Y0.50628
G01 X-1.38303 Y0.50607
G01 X-1.37542 Y0.50737
G01 X-1.36821 Y0.51013
G01 X-1.32890 Y0.52978
G01 X-1.25225 Y0.52978
G01 X-1.22468 Y0.51600
G01 X-1.21090 Y0.48843
G01 X-1.21090 Y0.47444
G01 X-1.22844 Y0.46566
G01 X-1.33820 Y0.46566
G01 X-1.34724 Y0.46461
G01 X-1.35580 Y0.46151
G01 X-1.40342 Y0.43770
G01 X-1.41051 Y0.43314
G01 X-1.41647 Y0.42718
G01 X-1.42103 Y0.42009
G01 X-1.44484 Y0.37247
G01 X-1.44794 Y0.36391
G01 X-1.44900 Y0.35487
G01 X-1.44900 Y0.30725
G01 X-1.44794 Y0.29820
G01 X-1.44484 Y0.28964
G01 X-1.42103 Y0.24202
G01 X-1.41647 Y0.23493
G01 X-1.41051 Y0.22897
G01 X-1.40342 Y0.22441
G01 X-1.35580 Y0.20060
G01 X-1.34724 Y0.19750
G01 X-1.33820 Y0.19645
G01 X-1.21915 Y0.19645
G01 X-1.21010 Y0.19750
G01 X-1.20154 Y0.20060
G01 X-1.19461 Y0.20407
G01 X-1.19340 Y0.20308
G01 X-1.18660 Y0.19944
G01 X-1.17921 Y0.19720
G01 X-1.17153 Y0.19645
G01 X-1.16385 Y0.19720
G01 X-1.15646 Y0.19944
G01 X-1.14966 Y0.20308
G01 X-1.14369 Y0.20798
G01 X-1.13879 Y0.21395
G01 X-1.13516 Y0.22075
G01 X-1.13292 Y0.22814
G01 X-1.13216 Y0.23582
G01 X-1.06954 Y1.13529
G01 X-1.06966 Y1.13414
G01 X-1.06999 Y1.13303
G01 X-1.07054 Y1.13201
G01 X-1.07127 Y1.13112
G01 X-1.07217 Y1.13038
G01 X-1.07319 Y1.12984
G01 X-1.07430 Y1.12950
G01 X-1.07545 Y1.12939
G01 X-1.10919 Y1.12939
G01 X-1.11035 Y1.12950
G01 X-1.11145 Y1.12984
G01 X-1.11247 Y1.13038
G01 X-1.11337 Y1.13112
G01 X-1.11410 Y1.13201
G01 X-1.11465 Y1.13303
G01 X-1.11499 Y1.13414
G01 X-1.11510 Y1.13529
G01 X-1.11499 Y1.13645
G01 X-1.11465 Y1.13755
G01 X-1.11410 Y1.13857
G01 X-1.11337 Y1.13947
G01 X-1.11247 Y1.14020
G01 X-1.11145 Y1.14075
G01 X-1.11035 Y1.14109
G01 X-1.10919 Y1.14120
G01 X-1.09823 Y1.14120
G01 X-1.09823 Y1.17728
G01 X-1.10012 Y1.17549
G01 X-1.10655 Y1.17219
G01 X-1.10763 Y1.17178
G01 X-1.10878 Y1.17158
G01 X-1.10993 Y1.17161
G01 X-1.11106 Y1.17187
G01 X-1.11212 Y1.17234
G01 X-1.11306 Y1.17301
G01 X-1.11386 Y1.17385
G01 X-1.11448 Y1.17483
G01 X-1.11489 Y1.17591
G01 X-1.11508 Y1.17705
G01 X-1.11505 Y1.17821
G01 X-1.11480 Y1.17934
G01 X-1.11432 Y1.18040
G01 X-1.11366 Y1.18134
G01 X-1.11281 Y1.18214
G01 X-1.10707 Y1.18514
G01 X-1.10254 Y1.18967
G01 X-1.09723 Y1.19762
G01 X-1.09650 Y1.19852
G01 X-1.09561 Y1.19925
G01 X-1.09458 Y1.19980
G01 X-1.09348 Y1.20014
G01 X-1.09232 Y1.20025
G01 X-1.09117 Y1.20014
G01 X-1.09006 Y1.19980
G01 X-1.08904 Y1.19926
G01 X-1.08815 Y1.19852
G01 X-1.08741 Y1.19763
G01 X-1.08687 Y1.19661
G01 X-1.08653 Y1.19550
G01 X-1.08642 Y1.19435
G01 X-1.08642 Y1.14120
G01 X-1.07545 Y1.14120
G01 X-1.07430 Y1.14109
G01 X-1.07319 Y1.14075
G01 X-1.07217 Y1.14020
G01 X-1.07127 Y1.13947
G01 X-1.07054 Y1.13857
G01 X-1.06999 Y1.13755
G01 X-1.06966 Y1.13645
G01 X-1.00020 Y0.71201
G01 X-0.99080 Y1.13529
G01 X-0.99092 Y1.13414
G01 X-0.99125 Y1.13303
G01 X-0.99180 Y1.13201
G01 X-0.99253 Y1.13112
G01 X-0.99343 Y1.13038
G01 X-0.99445 Y1.12984
G01 X-0.99556 Y1.12950
G01 X-0.99671 Y1.12939
G01 X-0.99786 Y1.12950
G01 X-0.99897 Y1.12984
G01 X-0.99999 Y1.13038
G01 X-1.00088 Y1.13112
G01 X-1.00162 Y1.13201
G01 X-1.00216 Y1.13303
G01 X-1.00250 Y1.13414
G01 X-1.00261 Y1.13529
G01 X-1.00261 Y1.16483
G01 X-1.00392 Y1.16745
G01 X-1.00654 Y1.16876
G01 X-1.01219 Y1.16876
G01 X-1.01571 Y1.16700
G01 X-1.01611 Y1.16659
G01 X-1.01611 Y1.13529
G01 X-1.01623 Y1.13414
G01 X-1.01656 Y1.13303
G01 X-1.01711 Y1.13201
G01 X-1.01784 Y1.13112
G01 X-1.01874 Y1.13038
G01 X-1.01976 Y1.12984
G01 X-1.02087 Y1.12950
G01 X-1.02202 Y1.12939
G01 X-1.02317 Y1.12950
G01 X-1.02428 Y1.12984
G01 X-1.02530 Y1.13038
G01 X-1.02619 Y1.13112
G01 X-1.02693 Y1.13201
G01 X-1.02747 Y1.13303
G01 X-1.02781 Y1.13414
G01 X-1.02792 Y1.13529
G01 X-1.02792 Y1.17466
G01 X-1.02781 Y1.17581
G01 X-1.02747 Y1.17692
G01 X-1.02693 Y1.17794
G01 X-1.02619 Y1.17884
G01 X-1.02530 Y1.17957
G01 X-1.02428 Y1.18012
G01 X-1.02317 Y1.18045
G01 X-1.02202 Y1.18057
G01 X-1.02087 Y1.18045
G01 X-1.01976 Y1.18012
G01 X-1.01807 Y1.17902
G01 X-1.01494 Y1.18041
G01 X-1.01358 Y1.18057
G01 X-1.00515 Y1.18057
G01 X-1.00379 Y1.18041
G01 X-1.00250 Y1.17994
G01 X-0.99688 Y1.17713
G01 X-0.99582 Y1.17645
G01 X-0.99492 Y1.17555
G01 X-0.99424 Y1.17449
G01 X-0.99143 Y1.16887
G01 X-0.99096 Y1.16758
G01 X-0.99080 Y1.16623
G01 X-0.99080 Y1.13529
G01 X-1.00020 Y0.71201
G01 X-1.00045 Y0.71446
G01 X-1.00122 Y0.71681
G01 X-1.00245 Y0.71895
G01 X-1.00410 Y0.72079
G01 X-1.00610 Y0.72224
G01 X-1.00836 Y0.72324
G01 X-1.01077 Y0.72375
G01 X-1.01324 Y0.72375
G01 X-1.01566 Y0.72324
G01 X-1.01791 Y0.72224
G01 X-1.01991 Y0.72079
G01 X-1.02156 Y0.71895
G01 X-1.02280 Y0.71681
G01 X-1.02356 Y0.71446
G01 X-1.02382 Y0.71201
G01 X-1.02356 Y0.70955
G01 X-1.02280 Y0.70720
G01 X-1.02156 Y0.70507
G01 X-1.01991 Y0.70323
G01 X-1.01791 Y0.70178
G01 X-1.01566 Y0.70078
G01 X-1.01324 Y0.70026
G01 X-1.01077 Y0.70026
G01 X-1.00836 Y0.70078
G01 X-1.00610 Y0.70178
G01 X-1.00410 Y0.70323
G01 X-1.00245 Y0.70507
G01 X-1.00122 Y0.70720
G01 X-1.00045 Y0.70955
G01 X-1.00020 Y0.71201
G01 X-1.04423 Y1.13529
G01 X-1.04423 Y1.17466
G01 X-1.04435 Y1.17581
G01 X-1.04468 Y1.17692
G01 X-1.04523 Y1.17794
G01 X-1.04596 Y1.17884
G01 X-1.04686 Y1.17957
G01 X-1.04788 Y1.18012
G01 X-1.04899 Y1.18045
G01 X-1.05014 Y1.18057
G01 X-1.05129 Y1.18045
G01 X-1.05240 Y1.18012
G01 X-1.05342 Y1.17957
G01 X-1.05431 Y1.17884
G01 X-1.05505 Y1.17794
G01 X-1.05559 Y1.17692
G01 X-1.05593 Y1.17581
G01 X-1.05604 Y1.17466
G01 X-1.05604 Y1.13529
G01 X-1.05593 Y1.13414
G01 X-1.05559 Y1.13303
G01 X-1.05505 Y1.13201
G01 X-1.05431 Y1.13112
G01 X-1.05342 Y1.13038
G01 X-1.05240 Y1.12984
G01 X-1.05129 Y1.12950
G01 X-1.05014 Y1.12939
G01 X-1.04899 Y1.12950
G01 X-1.04788 Y1.12984
G01 X-1.04686 Y1.13038
G01 X-1.04596 Y1.13112
G01 X-1.04523 Y1.13201
G01 X-1.04468 Y1.13303
G01 X-1.04435 Y1.13414
G01 X-1.04142 Y1.19153
G01 X-1.04153 Y1.19269
G01 X-1.04187 Y1.19379
G01 X-1.04242 Y1.19481
G01 X-1.04596 Y1.19852
G01 X-1.04686 Y1.19926
G01 X-1.04788 Y1.19980
G01 X-1.04899 Y1.20014
G01 X-1.05014 Y1.20025
G01 X-1.05129 Y1.20014
G01 X-1.05240 Y1.19980
G01 X-1.05342 Y1.19926
G01 X-1.05713 Y1.19571
G01 X-1.05786 Y1.19481
G01 X-1.05841 Y1.19379
G01 X-1.05874 Y1.19269
G01 X-1.05886 Y1.19153
G01 X-1.05874 Y1.19038
G01 X-1.05841 Y1.18927
G01 X-1.05786 Y1.18825
G01 X-1.05713 Y1.18736
G01 X-1.05342 Y1.18381
G01 X-1.05240 Y1.18327
G01 X-1.05129 Y1.18293
G01 X-1.05014 Y1.18282
G01 X-1.04899 Y1.18293
G01 X-1.04788 Y1.18327
G01 X-1.04686 Y1.18381
G01 X-1.04596 Y1.18455
G01 X-1.04242 Y1.18825
G01 X-1.04187 Y1.18927
G01 X-1.04153 Y1.19038
G01 X-1.04142 Y1.19153

G04 P0 ( dwell for no time -- G64 should not smooth over this point )
G00 Z1.000000 ( retract )

M5 ( Spindle off. )
G04 P1.000000
M9 ( Coolant off. )
M2 ( Program end. )

