( pcb2gcode 2.5.0 )
( Software-independent Gcode )

G94 ( Inches per minute feed rate. )
G20 ( Units == INCHES. )

G90 ( Absolute coordinates. )
G00 S12000 ( RPM spindle speed. )
G64 P0.00040 ( set maximum deviation from commanded toolpath )
G01 F360.00000 ( Feedrate. )


G00 Z1.00000 (Retract to tool change height)
T1
M5      (Spindle stop.)
G04 P1.00000 (Wait for spindle to stop)
(MSG, Change tool bit to mill diameter 0.00000in)
M6      (Tool change.)
M0      (Temporary machine stop.)
M3 ( Spindle on clockwise. )
G04 P1.00000 (Wait for spindle to get up to speed)
G04 P0 ( dwell for no time -- G64 should not smooth over this point )
G00 Z0.08000 ( retract )

G00 X-0.06201 Y1.15709 ( rapid move to begin. )
G01 F180.00000
( Mill infeed pass 1/1 )
G01 Z-0.04000
G04 P0 ( dwell for no time -- G64 should not smooth over this point )
G01 F360.00000
G01 X-0.06201 Y1.15709
G01 X-0.10709 Y1.15709
G01 X-0.10710 Y1.11160
G01 X-0.10724 Y1.11080
G01 X-0.10768 Y1.10967
G01 X-0.10812 Y1.10899
G01 X-0.10899 Y1.10812
G01 X-0.10967 Y1.10768
G01 X-0.11080 Y1.10724
G01 X-0.11241 Y1.10710
G01 X-0.11322 Y1.10724
G01 X-0.11435 Y1.10768
G01 X-0.11563 Y1.10867
G01 X-0.11651 Y1.11003
G01 X-0.11691 Y1.11160
G01 X-0.11693 Y1.15709
G01 X-0.16241 Y1.15710
G01 X-0.16322 Y1.15724
G01 X-0.16435 Y1.15768
G01 X-0.16503 Y1.15812
G01 X-0.16589 Y1.15899
G01 X-0.16634 Y1.15967
G01 X-0.16678 Y1.16080
G01 X-0.16691 Y1.16241
G01 X-0.16678 Y1.16322
G01 X-0.16634 Y1.16435
G01 X-0.16534 Y1.16563
G01 X-0.16398 Y1.16651
G01 X-0.16241 Y1.16691
G01 X-0.11693 Y1.16693
G01 X-0.11691 Y1.21201
G01 X-0.10710 Y1.21201
G01 X-0.10709 Y1.16693
G01 X-0.06201 Y1.16686
G01 X-0.06201 Y1.15709
G01 X-0.27502 Y0.56955
G01 X-0.27518 Y0.57276
G01 X-0.27568 Y0.57634
G01 X-0.27639 Y0.57947
G01 X-0.27736 Y0.58253
G01 X-0.27874 Y0.58587
G01 X-0.28022 Y0.58872
G01 X-0.28193 Y0.59144
G01 X-0.28386 Y0.59401
G01 X-0.28599 Y0.59642
G01 X-0.28830 Y0.59864
G01 X-0.29112 Y0.60091
G01 X-0.29378 Y0.60270
G01 X-0.29694 Y0.60445
G01 X-0.29988 Y0.60575
G01 X-0.30291 Y0.60681
G01 X-0.30602 Y0.60762
G01 X-0.30918 Y0.60818
G01 X-0.31238 Y0.60847
G01 X-0.31559 Y0.60850
G01 X-0.31880 Y0.60827
G01 X-0.32197 Y0.60778
G01 X-0.32509 Y0.60704
G01 X-0.32852 Y0.60590
G01 X-0.33183 Y0.60445
G01 X-0.33533 Y0.60249
G01 X-0.33862 Y0.60018
G01 X-0.34165 Y0.59755
G01 X-0.46549 Y0.47372
G01 X-0.46549 Y0.73582
G01 X-0.46579 Y0.74062
G01 X-0.46657 Y0.74497
G01 X-0.46812 Y0.74995
G01 X-0.46922 Y0.75254
G01 X-0.47050 Y0.75504
G01 X-0.47196 Y0.75744
G01 X-0.47359 Y0.75973
G01 X-0.47703 Y0.76366
G01 X-0.48095 Y0.76709
G01 X-0.48564 Y0.77018
G01 X-0.49036 Y0.77242
G01 X-0.49532 Y0.77401
G01 X-0.49807 Y0.77460
G01 X-0.50086 Y0.77498
G01 X-0.50607 Y0.77517
G01 X-0.51126 Y0.77466
G01 X-0.51402 Y0.77411
G01 X-0.51672 Y0.77336
G01 X-0.51937 Y0.77242
G01 X-0.52195 Y0.77129
G01 X-0.52649 Y0.76872
G01 X-0.53065 Y0.76557
G01 X-0.53435 Y0.76190
G01 X-0.53662 Y0.75909
G01 X-0.53841 Y0.75642
G01 X-0.54016 Y0.75326
G01 X-0.54161 Y0.74995
G01 X-0.54264 Y0.74691
G01 X-0.54350 Y0.74340
G01 X-0.54403 Y0.73983
G01 X-0.54423 Y0.73662
G01 X-0.54423 Y0.23542
G01 X-0.54389 Y0.23061
G01 X-0.54306 Y0.22628
G01 X-0.54161 Y0.22168
G01 X-0.53980 Y0.21766
G01 X-0.53732 Y0.21353
G01 X-0.53462 Y0.21004
G01 X-0.53125 Y0.20660
G01 X-0.52781 Y0.20383
G01 X-0.52408 Y0.20146
G01 X-0.52012 Y0.19952
G01 X-0.51596 Y0.19804
G01 X-0.51126 Y0.19697
G01 X-0.50687 Y0.19650
G01 X-0.50246 Y0.19652
G01 X-0.49807 Y0.19704
G01 X-0.49377 Y0.19804
G01 X-0.48961 Y0.19952
G01 X-0.48564 Y0.20146
G01 X-0.48192 Y0.20383
G01 X-0.47848 Y0.20660
G01 X-0.47537 Y0.20973
G01 X-0.47264 Y0.21320
G01 X-0.47031 Y0.21695
G01 X-0.46841 Y0.22094
G01 X-0.46720 Y0.22434
G01 X-0.46631 Y0.22784
G01 X-0.46574 Y0.23141
G01 X-0.46550 Y0.23501
G01 X-0.46549 Y0.36237
G01 X-0.46150 Y0.36636
G01 X-0.34588 Y0.21220
G01 X-0.34304 Y0.20882
G01 X-0.34014 Y0.20604
G01 X-0.33665 Y0.20334
G01 X-0.33322 Y0.20125
G01 X-0.32961 Y0.19951
G01 X-0.32583 Y0.19815
G01 X-0.32193 Y0.19718
G01 X-0.31796 Y0.19661
G01 X-0.31395 Y0.19645
G01 X-0.30994 Y0.19670
G01 X-0.30559 Y0.19744
G01 X-0.30173 Y0.19854
G01 X-0.29800 Y0.20002
G01 X-0.29444 Y0.20188
G01 X-0.29109 Y0.20408
G01 X-0.28798 Y0.20662
G01 X-0.28487 Y0.20976
G01 X-0.28237 Y0.21290
G01 X-0.28082 Y0.21524
G01 X-0.27944 Y0.21769
G01 X-0.27823 Y0.22023
G01 X-0.27721 Y0.22285
G01 X-0.27638 Y0.22553
G01 X-0.27575 Y0.22827
G01 X-0.27531 Y0.23105
G01 X-0.27507 Y0.23385
G01 X-0.27503 Y0.23666
G01 X-0.27519 Y0.23946
G01 X-0.27555 Y0.24225
G01 X-0.27610 Y0.24500
G01 X-0.27686 Y0.24771
G01 X-0.27795 Y0.25073
G01 X-0.27911 Y0.25329
G01 X-0.28044 Y0.25577
G01 X-0.28289 Y0.25944
G01 X-0.40526 Y0.42260
G01 X-0.28544 Y0.54247
G01 X-0.28336 Y0.54492
G01 X-0.28149 Y0.54753
G01 X-0.27964 Y0.55064
G01 X-0.27825 Y0.55353
G01 X-0.27710 Y0.55653
G01 X-0.27619 Y0.55961
G01 X-0.27554 Y0.56275
G01 X-0.27512 Y0.56634
G01 X-0.27502 Y0.56955
G04 P0 ( dwell for no time -- G64 should not smooth over this point )
G00 Z0.08000 ( retract )

G00 X-0.67982 Y0.54717 ( rapid move to begin. )
G01 F180.00000
( Mill infeed pass 1/1 )
G01 Z-0.04000
G04 P0 ( dwell for no time -- G64 should not smooth over this point )
G01 F360.00000
G01 X-0.67982 Y0.54717
G01 X-0.67993 Y0.54195
G01 X-0.68063 Y0.53719
G01 X-0.68205 Y0.53217
G01 X-0.68394 Y0.52774
G01 X-0.68657 Y0.52323
G01 X-0.68952 Y0.51942
G01 X-0.69290 Y0.51600
G01 X-0.69701 Y0.51279
G01 X-0.70115 Y0.51033
G01 X-0.70594 Y0.50825
G01 X-0.70901 Y0.50730
G01 X-0.71175 Y0.50667
G01 X-0.71492 Y0.50620
G01 X-0.71813 Y0.50599
G01 X-0.72134 Y0.50603
G01 X-0.72454 Y0.50634
G01 X-0.72770 Y0.50691
G01 X-0.73080 Y0.50774
G01 X-0.73345 Y0.50866
G01 X-0.73640 Y0.50995
G01 X-0.77606 Y0.52978
G01 X-0.85271 Y0.52978
G01 X-0.88630 Y0.51299
G01 X-0.90108 Y0.49821
G01 X-0.91787 Y0.46462
G01 X-0.91787 Y0.34035
G01 X-0.90108 Y0.30676
G01 X-0.88630 Y0.29198
G01 X-0.85271 Y0.27519
G01 X-0.77606 Y0.27519
G01 X-0.73603 Y0.29519
G01 X-0.73270 Y0.29659
G01 X-0.72926 Y0.29768
G01 X-0.72573 Y0.29844
G01 X-0.72254 Y0.29885
G01 X-0.71933 Y0.29900
G01 X-0.71572 Y0.29885
G01 X-0.71214 Y0.29837
G01 X-0.70901 Y0.29767
G01 X-0.70556 Y0.29658
G01 X-0.70223 Y0.29518
G01 X-0.69836 Y0.29306
G01 X-0.69443 Y0.29027
G01 X-0.69088 Y0.28703
G01 X-0.68799 Y0.28369
G01 X-0.68549 Y0.28005
G01 X-0.68325 Y0.27578
G01 X-0.68154 Y0.27128
G01 X-0.68040 Y0.26660
G01 X-0.67984 Y0.26182
G01 X-0.67984 Y0.25740
G01 X-0.68041 Y0.25262
G01 X-0.68155 Y0.24794
G01 X-0.68326 Y0.24344
G01 X-0.68530 Y0.23952
G01 X-0.68801 Y0.23554
G01 X-0.69090 Y0.23221
G01 X-0.69323 Y0.22999
G01 X-0.69573 Y0.22798
G01 X-0.69839 Y0.22618
G01 X-0.70118 Y0.22460
G01 X-0.74989 Y0.20025
G01 X-0.75441 Y0.19844
G01 X-0.75951 Y0.19712
G01 X-0.76272 Y0.19666
G01 X-0.76636 Y0.19645
G01 X-0.86241 Y0.19645
G01 X-0.86525 Y0.19658
G01 X-0.86807 Y0.19692
G01 X-0.87086 Y0.19746
G01 X-0.87398 Y0.19831
G01 X-0.87666 Y0.19927
G01 X-0.87961 Y0.20060
G01 X-0.92723 Y0.22441
G01 X-0.93134 Y0.22679
G01 X-0.93422 Y0.22889
G01 X-0.93690 Y0.23124
G01 X-0.96237 Y0.25674
G01 X-0.96560 Y0.26074
G01 X-0.96829 Y0.26513
G01 X-0.99299 Y0.31455
G01 X-0.99462 Y0.31869
G01 X-0.99570 Y0.32260
G01 X-0.99641 Y0.32701
G01 X-0.99662 Y0.33106
G01 X-0.99661 Y0.47432
G01 X-0.99631 Y0.47877
G01 X-0.99542 Y0.48355
G01 X-0.99422 Y0.48742
G01 X-0.99264 Y0.49116
G01 X-0.96865 Y0.53914
G01 X-0.96627 Y0.54325
G01 X-0.96393 Y0.54644
G01 X-0.96155 Y0.54909
G01 X-0.93718 Y0.57346
G01 X-0.93422 Y0.57608
G01 X-0.93101 Y0.57840
G01 X-0.92759 Y0.58038
G01 X-0.87925 Y0.60454
G01 X-0.87475 Y0.60640
G01 X-0.86966 Y0.60777
G01 X-0.86606 Y0.60831
G01 X-0.86241 Y0.60852
G01 X-0.76636 Y0.60852
G01 X-0.76232 Y0.60827
G01 X-0.75832 Y0.60760
G01 X-0.75402 Y0.60640
G01 X-0.75026 Y0.60489
G01 X-0.70047 Y0.58000
G01 X-0.69805 Y0.57858
G01 X-0.69573 Y0.57699
G01 X-0.69175 Y0.57362
G01 X-0.68851 Y0.57006
G01 X-0.68551 Y0.56579
G01 X-0.68326 Y0.56153
G01 X-0.68155 Y0.55703
G01 X-0.68034 Y0.55195
G01 X-0.67982 Y0.54717
G04 P0 ( dwell for no time -- G64 should not smooth over this point )
G00 Z0.08000 ( retract )

G00 X-1.21090 Y0.28396 ( rapid move to begin. )
G01 F180.00000
( Mill infeed pass 1/1 )
G01 Z-0.04000
G04 P0 ( dwell for no time -- G64 should not smooth over this point )
G01 F360.00000
G01 X-1.21090 Y0.28396
G01 X-1.21090 Y0.38780
G01 X-1.21470 Y0.38718
G01 X-1.21874 Y0.38693
G01 X-1.32890 Y0.38692
G01 X-1.35647 Y0.37314
G01 X-1.37026 Y0.34557
G01 X-1.37026 Y0.31654
G01 X-1.35647 Y0.28897
G01 X-1.32890 Y0.27519
G01 X-1.22844 Y0.27519
G01 X-1.21090 Y0.28396
G04 P0 ( dwell for no time -- G64 should not smooth over this point )
G00 Z0.08000 ( retract )

G00 X-1.56073 Y0.40248 ( rapid move to begin. )
G01 F180.00000
( Mill infeed pass 1/1 )
G01 Z-0.04000
G04 P0 ( dwell for no time -- G64 should not smooth over this point )
G01 F360.00000
G01 X-1.56073 Y0.40248
G01 X-1.56073 Y0.33065
G01 X-1.56098 Y0.32660
G01 X-1.56174 Y0.32221
G01 X-1.56285 Y0.31831
G01 X-1.56453 Y0.31418
G01 X-1.58888 Y0.26548
G01 X-1.59174 Y0.26074
G01 X-1.59525 Y0.25645
G01 X-1.62045 Y0.23123
G01 X-1.62344 Y0.22864
G01 X-1.62667 Y0.22636
G01 X-1.63011 Y0.22441
G01 X-1.67846 Y0.20025
G01 X-1.68107 Y0.19913
G01 X-1.68375 Y0.19819
G01 X-1.68649 Y0.19746
G01 X-1.68928 Y0.19692
G01 X-1.69210 Y0.19658
G01 X-1.69534 Y0.19645
G01 X-1.88742 Y0.19648
G01 X-1.89102 Y0.19679
G01 X-1.89418 Y0.19735
G01 X-1.89768 Y0.19828
G01 X-1.90107 Y0.19952
G01 X-1.90433 Y0.20107
G01 X-1.90744 Y0.20292
G01 X-1.91036 Y0.20504
G01 X-1.91279 Y0.20714
G01 X-1.91557 Y0.21004
G01 X-1.91804 Y0.21320
G01 X-1.92018 Y0.21660
G01 X-1.92195 Y0.22020
G01 X-1.92336 Y0.22396
G01 X-1.92437 Y0.22784
G01 X-1.92498 Y0.23181
G01 X-1.92519 Y0.23582
G01 X-1.92518 Y0.73662
G01 X-1.92494 Y0.74023
G01 X-1.92437 Y0.74379
G01 X-1.92348 Y0.74729
G01 X-1.92227 Y0.75070
G01 X-1.92075 Y0.75398
G01 X-1.91894 Y0.75710
G01 X-1.91685 Y0.76005
G01 X-1.91449 Y0.76279
G01 X-1.91190 Y0.76531
G01 X-1.90909 Y0.76757
G01 X-1.90608 Y0.76957
G01 X-1.90254 Y0.77146
G01 X-1.89920 Y0.77284
G01 X-1.89536 Y0.77401
G01 X-1.89182 Y0.77473
G01 X-1.88822 Y0.77511
G01 X-1.71915 Y0.77519
G01 X-1.71631 Y0.77509
G01 X-1.71269 Y0.77465
G01 X-1.70912 Y0.77389
G01 X-1.70564 Y0.77280
G01 X-1.70227 Y0.77139
G01 X-1.65322 Y0.74686
G01 X-1.64981 Y0.74485
G01 X-1.64632 Y0.74225
G01 X-1.64369 Y0.73985
G01 X-1.61933 Y0.71547
G01 X-1.61673 Y0.71248
G01 X-1.61445 Y0.70925
G01 X-1.61251 Y0.70581
G01 X-1.58817 Y0.65709
G01 X-1.58693 Y0.65409
G01 X-1.58605 Y0.65139
G01 X-1.58537 Y0.64864
G01 X-1.58484 Y0.64544
G01 X-1.58454 Y0.64099
G01 X-1.58455 Y0.59215
G01 X-1.58495 Y0.58730
G01 X-1.58584 Y0.58293
G01 X-1.58693 Y0.57945
G01 X-1.58852 Y0.57572
G01 X-1.61269 Y0.52738
G01 X-1.61533 Y0.52297
G01 X-1.61878 Y0.51865
G01 X-1.62890 Y0.50849
G01 X-1.62450 Y0.50571
G01 X-1.62046 Y0.50232
G01 X-1.59552 Y0.47738
G01 X-1.59317 Y0.47470
G01 X-1.59107 Y0.47182
G01 X-1.58870 Y0.46771
G01 X-1.56436 Y0.41899
G01 X-1.56299 Y0.41561
G01 X-1.56203 Y0.41251
G01 X-1.56133 Y0.40935
G01 X-1.56090 Y0.40613
G01 X-1.56073 Y0.40248
G04 P0 ( dwell for no time -- G64 should not smooth over this point )
G00 Z0.08000 ( retract )

G00 X-1.63947 Y0.34035 ( rapid move to begin. )
G01 F180.00000
( Mill infeed pass 1/1 )
G01 Z-0.04000
G04 P0 ( dwell for no time -- G64 should not smooth over this point )
G01 F360.00000
G01 X-1.63947 Y0.34035
G01 X-1.65627 Y0.30676
G01 X-1.67104 Y0.29198
G01 X-1.70463 Y0.27519
G01 X-1.84645 Y0.27519
G01 X-1.84645 Y0.45835
G01 X-1.72554 Y0.45835
G01 X-1.66899 Y0.43950
G01 X-1.65627 Y0.42678
G01 X-1.63947 Y0.39319
G01 X-1.63947 Y0.34035
G01 X-1.75021 Y0.36141
G01 X-1.75058 Y0.35903
G01 X-1.75142 Y0.35678
G01 X-1.75245 Y0.35507
G01 X-1.75405 Y0.35328
G01 X-1.75564 Y0.35206
G01 X-1.75779 Y0.35098
G01 X-1.76011 Y0.35035
G01 X-1.76251 Y0.35021
G01 X-1.76489 Y0.35055
G01 X-1.76714 Y0.35137
G01 X-1.76887 Y0.35239
G01 X-1.77067 Y0.35398
G01 X-1.77212 Y0.35590
G01 X-1.77314 Y0.35807
G01 X-1.77365 Y0.36001
G01 X-1.77381 Y0.36241
G01 X-1.77349 Y0.36479
G01 X-1.77269 Y0.36706
G01 X-1.77144 Y0.36911
G01 X-1.76981 Y0.37087
G01 X-1.76785 Y0.37227
G01 X-1.76604 Y0.37311
G01 X-1.76371 Y0.37370
G01 X-1.76131 Y0.37380
G01 X-1.75932 Y0.37351
G01 X-1.75705 Y0.37273
G01 X-1.75498 Y0.37150
G01 X-1.75321 Y0.36989
G01 X-1.75180 Y0.36794
G01 X-1.75094 Y0.36613
G01 X-1.75033 Y0.36381
G01 X-1.75021 Y0.36141
G04 P0 ( dwell for no time -- G64 should not smooth over this point )
G00 Z0.08000 ( retract )

G00 X-1.98785 Y0.54194 ( rapid move to begin. )
G01 F180.00000
( Mill infeed pass 1/1 )
G01 Z-0.04000
G04 P0 ( dwell for no time -- G64 should not smooth over this point )
G01 F360.00000
G01 X-1.98785 Y0.54194
G01 X-1.98810 Y0.54313
G01 X-1.98879 Y0.54458
G01 X-1.98955 Y0.54551
G01 X-1.99281 Y0.54873
G01 X-1.99400 Y0.54948
G01 X-1.99514 Y0.54989
G01 X-1.99634 Y0.55005
G01 X-1.99754 Y0.54997
G01 X-1.99889 Y0.54957
G01 X-1.99995 Y0.54898
G01 X-2.00380 Y0.54522
G01 X-2.00450 Y0.54423
G01 X-2.00509 Y0.54274
G01 X-2.00525 Y0.54154
G01 X-2.00517 Y0.54034
G01 X-2.00469 Y0.53880
G01 X-2.00406 Y0.53777
G01 X-2.00011 Y0.53382
G01 X-1.99905 Y0.53318
G01 X-1.99789 Y0.53278
G01 X-1.99674 Y0.53262
G01 X-1.99554 Y0.53271
G01 X-1.99437 Y0.53303
G01 X-1.99330 Y0.53359
G01 X-1.98955 Y0.53716
G01 X-1.98839 Y0.53880
G01 X-1.98791 Y0.54034
G01 X-1.98785 Y0.54194
G01 X-1.99063 Y0.52447
G01 X-1.99098 Y0.52644
G01 X-1.99196 Y0.52819
G01 X-1.99347 Y0.52951
G01 X-1.99534 Y0.53025
G01 X-1.99734 Y0.53032
G01 X-1.99926 Y0.52971
G01 X-2.00086 Y0.52850
G01 X-2.00196 Y0.52682
G01 X-2.00239 Y0.52527
G01 X-2.00239 Y0.48429
G01 X-2.00196 Y0.48274
G01 X-2.00086 Y0.48107
G01 X-1.99926 Y0.47985
G01 X-1.99734 Y0.47925
G01 X-1.99614 Y0.47920
G01 X-1.99495 Y0.47941
G01 X-1.99313 Y0.48027
G01 X-1.99222 Y0.48107
G01 X-1.99149 Y0.48203
G01 X-1.99098 Y0.48312
G01 X-1.99069 Y0.48429
G01 X-1.99063 Y0.52447
G04 P0 ( dwell for no time -- G64 should not smooth over this point )
G00 Z0.08000 ( retract )

G00 X-2.01594 Y0.51041 ( rapid move to begin. )
G01 F180.00000
( Mill infeed pass 1/1 )
G01 Z-0.04000
G04 P0 ( dwell for no time -- G64 should not smooth over this point )
G01 F360.00000
G01 X-2.01594 Y0.51041
G01 X-2.01600 Y0.49556
G01 X-2.01640 Y0.49406
G01 X-2.01956 Y0.48775
G01 X-2.02048 Y0.48655
G01 X-2.02418 Y0.48301
G01 X-2.03046 Y0.47981
G01 X-2.03232 Y0.47924
G01 X-2.04794 Y0.47924
G01 X-2.04944 Y0.47965
G01 X-2.05576 Y0.48281
G01 X-2.05696 Y0.48373
G01 X-2.06005 Y0.48684
G01 X-2.06074 Y0.48783
G01 X-2.06122 Y0.48894
G01 X-2.06150 Y0.49052
G01 X-2.06133 Y0.49212
G01 X-2.06074 Y0.49362
G01 X-2.05977 Y0.49490
G01 X-2.05849 Y0.49587
G01 X-2.05738 Y0.49635
G01 X-2.05580 Y0.49662
G01 X-2.05459 Y0.49654
G01 X-2.05343 Y0.49621
G01 X-2.05236 Y0.49566
G01 X-2.04928 Y0.49276
G01 X-2.04576 Y0.49100
G01 X-2.03449 Y0.49100
G01 X-2.03097 Y0.49276
G01 X-2.02951 Y0.49422
G01 X-2.02775 Y0.49774
G01 X-2.02775 Y0.50901
G01 X-2.02951 Y0.51253
G01 X-2.03097 Y0.51399
G01 X-2.03449 Y0.51575
G01 X-2.04576 Y0.51575
G01 X-2.04928 Y0.51399
G01 X-2.05171 Y0.51158
G01 X-2.05270 Y0.51088
G01 X-2.05381 Y0.51040
G01 X-2.05499 Y0.51016
G01 X-2.05619 Y0.51015
G01 X-2.05775 Y0.51053
G01 X-2.05916 Y0.51132
G01 X-2.06029 Y0.51245
G01 X-2.06122 Y0.51423
G01 X-2.06147 Y0.51541
G01 X-2.06147 Y0.51662
G01 X-2.05866 Y0.54474
G01 X-2.05842 Y0.54590
G01 X-2.05796 Y0.54699
G01 X-2.05703 Y0.54826
G01 X-2.05613 Y0.54902
G01 X-2.05472 Y0.54973
G01 X-2.05318 Y0.55004
G01 X-2.02466 Y0.55006
G01 X-2.02307 Y0.54984
G01 X-2.02126 Y0.54898
G01 X-2.01984 Y0.54756
G01 X-2.01897 Y0.54574
G01 X-2.01877 Y0.54375
G01 X-2.01924 Y0.54180
G01 X-2.02008 Y0.54042
G01 X-2.02159 Y0.53911
G01 X-2.02346 Y0.53837
G01 X-2.02466 Y0.53825
G01 X-2.04744 Y0.53825
G01 X-2.04852 Y0.52740
G01 X-2.04716 Y0.52756
G01 X-2.03310 Y0.52756
G01 X-2.03155 Y0.52735
G01 X-2.03046 Y0.52694
G01 X-2.02418 Y0.52374
G01 X-2.01998 Y0.51964
G01 X-2.01640 Y0.51269
G01 X-2.01606 Y0.51157
G01 X-2.01594 Y0.51041
G04 P0 ( dwell for no time -- G64 should not smooth over this point )
G00 Z0.08000 ( retract )

G00 X-2.07219 Y0.48811 ( rapid move to begin. )
G01 F180.00000
( Mill infeed pass 1/1 )
G01 Z-0.04000
G04 P0 ( dwell for no time -- G64 should not smooth over this point )
G01 F360.00000
G01 X-2.07219 Y0.48811
G01 X-2.07235 Y0.48651
G01 X-2.07276 Y0.48537
G01 X-2.07392 Y0.48373
G01 X-2.07767 Y0.48016
G01 X-2.07874 Y0.47960
G01 X-2.07990 Y0.47928
G01 X-2.08111 Y0.47919
G01 X-2.08226 Y0.47935
G01 X-2.08341 Y0.47975
G01 X-2.08447 Y0.48039
G01 X-2.08842 Y0.48434
G01 X-2.08905 Y0.48537
G01 X-2.08945 Y0.48651
G01 X-2.08962 Y0.48771
G01 X-2.08945 Y0.48931
G01 X-2.08886 Y0.49080
G01 X-2.08817 Y0.49179
G01 X-2.08431 Y0.49555
G01 X-2.08307 Y0.49621
G01 X-2.08191 Y0.49654
G01 X-2.08070 Y0.49662
G01 X-2.07951 Y0.49646
G01 X-2.07837 Y0.49605
G01 X-2.07718 Y0.49530
G01 X-2.07392 Y0.49208
G01 X-2.07315 Y0.49115
G01 X-2.07246 Y0.48969
G01 X-2.07219 Y0.48811
G04 P0 ( dwell for no time -- G64 should not smooth over this point )
G00 Z0.08000 ( retract )

G00 X-2.02861 Y0.62445 ( rapid move to begin. )
G01 F180.00000
( Mill infeed pass 1/1 )
G01 Z-0.04000
G04 P0 ( dwell for no time -- G64 should not smooth over this point )
G01 F360.00000
G01 X-2.02861 Y0.62445
G01 X-2.02894 Y0.62287
G01 X-2.04300 Y0.58350
G01 X-2.04905 Y0.56852
G01 X-2.05001 Y0.56725
G01 X-2.05310 Y0.56418
G01 X-2.05403 Y0.56352
G01 X-2.06035 Y0.56036
G01 X-2.06191 Y0.55994
G01 X-2.06311 Y0.55992
G01 X-2.06430 Y0.56014
G01 X-2.06542 Y0.56060
G01 X-2.06642 Y0.56128
G01 X-2.06750 Y0.56247
G01 X-2.06807 Y0.56353
G01 X-2.06849 Y0.56509
G01 X-2.06851 Y0.56629
G01 X-2.06829 Y0.56748
G01 X-2.06740 Y0.56928
G01 X-2.06629 Y0.57044
G01 X-2.06527 Y0.57109
G01 X-2.06050 Y0.57347
G01 X-2.05922 Y0.57475
G01 X-2.05488 Y0.58561
G01 X-2.06819 Y0.62287
G01 X-2.06847 Y0.62405
G01 X-2.06852 Y0.62525
G01 X-2.06805 Y0.62720
G01 X-2.06721 Y0.62858
G01 X-2.06604 Y0.62968
G01 X-2.06423 Y0.63054
G01 X-2.06263 Y0.63077
G01 X-2.06066 Y0.63043
G01 X-2.05891 Y0.62945
G01 X-2.05781 Y0.62827
G01 X-2.05706 Y0.62685
G01 X-2.04856 Y0.60305
G01 X-2.04007 Y0.62685
G01 X-2.03955 Y0.62794
G01 X-2.03881 Y0.62890
G01 X-2.03756 Y0.62991
G01 X-2.03570 Y0.63064
G01 X-2.03369 Y0.63071
G01 X-2.03214 Y0.63027
G01 X-2.03077 Y0.62944
G01 X-2.02945 Y0.62792
G01 X-2.02872 Y0.62605
G01 X-2.02861 Y0.62445
G04 P0 ( dwell for no time -- G64 should not smooth over this point )
G00 Z0.08000 ( retract )

G00 X-2.00710 Y0.66160 ( rapid move to begin. )
G01 F180.00000
( Mill infeed pass 1/1 )
G01 Z-0.04000
G04 P0 ( dwell for no time -- G64 should not smooth over this point )
G01 F360.00000
G01 X-2.00710 Y0.66160
G01 X-2.00724 Y0.66322
G01 X-2.00768 Y0.66435
G01 X-2.00812 Y0.66503
G01 X-2.00898 Y0.66589
G01 X-2.00966 Y0.66634
G01 X-2.01080 Y0.66678
G01 X-2.01160 Y0.66691
G01 X-2.06201 Y0.66693
G01 X-2.06282 Y0.66686
G01 X-2.06398 Y0.66651
G01 X-2.06534 Y0.66563
G01 X-2.06634 Y0.66435
G01 X-2.06686 Y0.66282
G01 X-2.06686 Y0.66120
G01 X-2.06634 Y0.65967
G01 X-2.06534 Y0.65839
G01 X-2.06398 Y0.65750
G01 X-2.06241 Y0.65710
G01 X-2.01160 Y0.65710
G01 X-2.01003 Y0.65750
G01 X-2.00867 Y0.65839
G01 X-2.00768 Y0.65967
G01 X-2.00724 Y0.66080
G01 X-2.00710 Y0.66160
G04 P0 ( dwell for no time -- G64 should not smooth over this point )
G00 Z0.08000 ( retract )

G00 X-1.96112 Y0.61683 ( rapid move to begin. )
G01 F180.00000
( Mill infeed pass 1/1 )
G01 Z-0.04000
G04 P0 ( dwell for no time -- G64 should not smooth over this point )
G01 F360.00000
G01 X-1.96112 Y0.61683
G01 X-1.96116 Y0.61562
G01 X-1.96177 Y0.61371
G01 X-1.96298 Y0.61211
G01 X-1.96466 Y0.61101
G01 X-1.96661 Y0.61053
G01 X-2.01281 Y0.61057
G01 X-2.01436 Y0.61101
G01 X-2.01604 Y0.61211
G01 X-2.01725 Y0.61371
G01 X-2.01786 Y0.61562
G01 X-2.01779 Y0.61763
G01 X-2.01705 Y0.61949
G01 X-2.01573 Y0.62100
G01 X-2.01398 Y0.62199
G01 X-2.01201 Y0.62233
G01 X-1.96621 Y0.62227
G01 X-1.96503 Y0.62199
G01 X-1.96394 Y0.62147
G01 X-1.96298 Y0.62074
G01 X-1.96219 Y0.61983
G01 X-1.96133 Y0.61802
G01 X-1.96112 Y0.61683
G01 X-1.96116 Y0.59875
G01 X-1.96177 Y0.59683
G01 X-1.96298 Y0.59524
G01 X-1.96466 Y0.59413
G01 X-1.96661 Y0.59366
G01 X-2.01281 Y0.59370
G01 X-2.01436 Y0.59413
G01 X-2.01604 Y0.59524
G01 X-2.01725 Y0.59683
G01 X-2.01786 Y0.59875
G01 X-2.01779 Y0.60075
G01 X-2.01705 Y0.60262
G01 X-2.01573 Y0.60413
G01 X-2.01398 Y0.60512
G01 X-2.01201 Y0.60546
G01 X-1.96621 Y0.60540
G01 X-1.96503 Y0.60512
G01 X-1.96394 Y0.60460
G01 X-1.96298 Y0.60387
G01 X-1.96219 Y0.60296
G01 X-1.96133 Y0.60114
G01 X-1.96112 Y0.59995
G01 X-1.93720 Y0.51603
G01 X-1.93752 Y0.51795
G01 X-1.94064 Y0.52430
G01 X-1.94190 Y0.52598
G01 X-1.94328 Y0.52694
G01 X-1.95000 Y0.53017
G01 X-1.95155 Y0.53037
G01 X-1.96037 Y0.53036
G01 X-1.96190 Y0.53005
G01 X-1.96445 Y0.52884
G01 X-1.96535 Y0.52951
G01 X-1.96644 Y0.53003
G01 X-1.96761 Y0.53032
G01 X-1.96882 Y0.53036
G01 X-1.97077 Y0.52988
G01 X-1.97182 Y0.52929
G01 X-1.97273 Y0.52850
G01 X-1.97383 Y0.52682
G01 X-1.97431 Y0.52487
G01 X-1.97432 Y0.48510
G01 X-1.97420 Y0.48389
G01 X-1.97383 Y0.48274
G01 X-1.97324 Y0.48169
G01 X-1.97245 Y0.48078
G01 X-1.97149 Y0.48005
G01 X-1.97001 Y0.47941
G01 X-1.96842 Y0.47919
G01 X-1.96682 Y0.47941
G01 X-1.96535 Y0.48005
G01 X-1.96439 Y0.48078
G01 X-1.96359 Y0.48169
G01 X-1.96285 Y0.48312
G01 X-1.96251 Y0.48510
G01 X-1.96251 Y0.51640
G01 X-1.96211 Y0.51680
G01 X-1.95859 Y0.51856
G01 X-1.95294 Y0.51856
G01 X-1.95032 Y0.51725
G01 X-1.94901 Y0.51464
G01 X-1.94901 Y0.48510
G01 X-1.94880 Y0.48350
G01 X-1.94835 Y0.48238
G01 X-1.94769 Y0.48137
G01 X-1.94651 Y0.48027
G01 X-1.94546 Y0.47968
G01 X-1.94391 Y0.47925
G01 X-1.94230 Y0.47925
G01 X-1.94113 Y0.47953
G01 X-1.93970 Y0.48027
G01 X-1.93879 Y0.48107
G01 X-1.93769 Y0.48274
G01 X-1.93722 Y0.48469
G01 X-1.93720 Y0.51603
G04 P0 ( dwell for no time -- G64 should not smooth over this point )
G00 Z0.08000 ( retract )

G00 X-1.75021 Y0.61141 ( rapid move to begin. )
G01 F180.00000
( Mill infeed pass 1/1 )
G01 Z-0.04000
G04 P0 ( dwell for no time -- G64 should not smooth over this point )
G01 F360.00000
G01 X-1.75021 Y0.61141
G01 X-1.75033 Y0.61381
G01 X-1.75094 Y0.61613
G01 X-1.75180 Y0.61794
G01 X-1.75321 Y0.61989
G01 X-1.75498 Y0.62150
G01 X-1.75705 Y0.62273
G01 X-1.75932 Y0.62351
G01 X-1.76131 Y0.62380
G01 X-1.76371 Y0.62370
G01 X-1.76604 Y0.62311
G01 X-1.76785 Y0.62227
G01 X-1.76981 Y0.62087
G01 X-1.77144 Y0.61911
G01 X-1.77269 Y0.61706
G01 X-1.77349 Y0.61479
G01 X-1.77381 Y0.61241
G01 X-1.77365 Y0.61001
G01 X-1.77314 Y0.60807
G01 X-1.77212 Y0.60590
G01 X-1.77067 Y0.60398
G01 X-1.76887 Y0.60239
G01 X-1.76714 Y0.60137
G01 X-1.76489 Y0.60055
G01 X-1.76251 Y0.60021
G01 X-1.76011 Y0.60035
G01 X-1.75779 Y0.60098
G01 X-1.75564 Y0.60206
G01 X-1.75405 Y0.60328
G01 X-1.75245 Y0.60507
G01 X-1.75142 Y0.60678
G01 X-1.75058 Y0.60903
G01 X-1.75021 Y0.61141
G01 X-1.66328 Y0.60226
G01 X-1.66328 Y0.63129
G01 X-1.68008 Y0.66488
G01 X-1.69485 Y0.67965
G01 X-1.72844 Y0.69645
G01 X-1.84645 Y0.69645
G01 X-1.84645 Y0.53709
G01 X-1.72844 Y0.53709
G01 X-1.69485 Y0.55389
G01 X-1.68008 Y0.56866
G01 X-1.66328 Y0.60226
G04 P0 ( dwell for no time -- G64 should not smooth over this point )
G00 Z0.08000 ( retract )

G00 X-1.19613 Y1.13600 ( rapid move to begin. )
G01 F180.00000
( Mill infeed pass 1/1 )
G01 Z-0.04000
G04 P0 ( dwell for no time -- G64 should not smooth over this point )
G01 F360.00000
G01 X-1.19613 Y1.13600
G01 X-1.19616 Y1.13439
G01 X-1.19680 Y1.13249
G01 X-1.19775 Y1.13119
G01 X-1.19937 Y1.13001
G01 X-1.20129 Y1.12943
G01 X-1.20329 Y1.12953
G01 X-1.20444 Y1.12992
G01 X-1.20548 Y1.13053
G01 X-1.20664 Y1.13164
G01 X-1.21746 Y1.14542
G01 X-1.22829 Y1.13164
G01 X-1.22944 Y1.13053
G01 X-1.23048 Y1.12992
G01 X-1.23163 Y1.12953
G01 X-1.23363 Y1.12943
G01 X-1.23556 Y1.13001
G01 X-1.23718 Y1.13119
G01 X-1.23813 Y1.13249
G01 X-1.23877 Y1.13439
G01 X-1.23879 Y1.13600
G01 X-1.23822 Y1.13792
G01 X-1.23757 Y1.13894
G01 X-1.22497 Y1.15498
G01 X-1.23757 Y1.17101
G01 X-1.23822 Y1.17203
G01 X-1.23879 Y1.17396
G01 X-1.23877 Y1.17556
G01 X-1.23830 Y1.17711
G01 X-1.23718 Y1.17876
G01 X-1.23556 Y1.17995
G01 X-1.23363 Y1.18052
G01 X-1.23243 Y1.18055
G01 X-1.23124 Y1.18032
G01 X-1.22944 Y1.17943
G01 X-1.22829 Y1.17831
G01 X-1.21746 Y1.16453
G01 X-1.20638 Y1.17862
G01 X-1.20515 Y1.17965
G01 X-1.20407 Y1.18019
G01 X-1.20250 Y1.18055
G01 X-1.20089 Y1.18046
G01 X-1.19901 Y1.17976
G01 X-1.19775 Y1.17876
G01 X-1.19662 Y1.17711
G01 X-1.19616 Y1.17556
G01 X-1.19613 Y1.17396
G01 X-1.19654 Y1.17240
G01 X-1.19735 Y1.17101
G01 X-1.20995 Y1.15498
G01 X-1.19735 Y1.13894
G01 X-1.19671 Y1.13792
G01 X-1.19613 Y1.13600
G04 P0 ( dwell for no time -- G64 should not smooth over this point )
G00 Z0.08000 ( retract )

G00 X-1.10709 Y1.11201 ( rapid move to begin. )
G01 F180.00000
( Mill infeed pass 1/1 )
G01 Z-0.04000
G04 P0 ( dwell for no time -- G64 should not smooth over this point )
G01 F360.00000
G01 X-1.10709 Y1.11201
G01 X-1.10715 Y1.11282
G01 X-1.10750 Y1.11398
G01 X-1.10839 Y1.11534
G01 X-1.10966 Y1.11634
G01 X-1.11120 Y1.11686
G01 X-1.11282 Y1.11686
G01 X-1.11435 Y1.11634
G01 X-1.11563 Y1.11534
G01 X-1.11651 Y1.11398
G01 X-1.11691 Y1.11241
G01 X-1.11691 Y1.06160
G01 X-1.11651 Y1.06003
G01 X-1.11563 Y1.05867
G01 X-1.11435 Y1.05768
G01 X-1.11322 Y1.05724
G01 X-1.11241 Y1.05710
G01 X-1.11080 Y1.05724
G01 X-1.10966 Y1.05768
G01 X-1.10898 Y1.05812
G01 X-1.10812 Y1.05899
G01 X-1.10768 Y1.05967
G01 X-1.10724 Y1.06080
G01 X-1.10710 Y1.06160
G01 X-1.10709 Y1.11201
G01 X-1.12861 Y1.16663
G01 X-1.12865 Y1.16542
G01 X-1.12926 Y1.16351
G01 X-1.13047 Y1.16191
G01 X-1.13215 Y1.16081
G01 X-1.13410 Y1.16033
G01 X-1.18030 Y1.16038
G01 X-1.18185 Y1.16081
G01 X-1.18353 Y1.16191
G01 X-1.18474 Y1.16351
G01 X-1.18535 Y1.16542
G01 X-1.18528 Y1.16743
G01 X-1.18454 Y1.16929
G01 X-1.18322 Y1.17081
G01 X-1.18148 Y1.17179
G01 X-1.17950 Y1.17213
G01 X-1.13370 Y1.17208
G01 X-1.13253 Y1.17179
G01 X-1.13144 Y1.17127
G01 X-1.13047 Y1.17054
G01 X-1.12968 Y1.16963
G01 X-1.12882 Y1.16782
G01 X-1.12861 Y1.16663
G01 X-1.12861 Y1.14976
G01 X-1.12882 Y1.15095
G01 X-1.12968 Y1.15276
G01 X-1.13047 Y1.15367
G01 X-1.13144 Y1.15440
G01 X-1.13253 Y1.15492
G01 X-1.13370 Y1.15520
G01 X-1.17950 Y1.15526
G01 X-1.18148 Y1.15492
G01 X-1.18322 Y1.15393
G01 X-1.18454 Y1.15242
G01 X-1.18528 Y1.15056
G01 X-1.18535 Y1.14855
G01 X-1.18474 Y1.14664
G01 X-1.18353 Y1.14504
G01 X-1.18185 Y1.14394
G01 X-1.18030 Y1.14350
G01 X-1.13410 Y1.14346
G01 X-1.13215 Y1.14394
G01 X-1.13047 Y1.14504
G01 X-1.12926 Y1.14664
G01 X-1.12865 Y1.14855
G01 X-1.12861 Y1.14976
G01 X-1.13219 Y0.23421
G01 X-1.13221 Y0.49975
G01 X-1.13257 Y0.50338
G01 X-1.13336 Y0.50736
G01 X-1.13441 Y0.51085
G01 X-1.13596 Y0.51460
G01 X-1.16049 Y0.56366
G01 X-1.16323 Y0.56812
G01 X-1.16652 Y0.57217
G01 X-1.16881 Y0.57443
G01 X-1.17159 Y0.57674
G01 X-1.17423 Y0.57858
G01 X-1.17702 Y0.58019
G01 X-1.22572 Y0.60454
G01 X-1.22907 Y0.60599
G01 X-1.23293 Y0.60722
G01 X-1.23770 Y0.60817
G01 X-1.24255 Y0.60852
G01 X-1.33860 Y0.60852
G01 X-1.34225 Y0.60831
G01 X-1.34546 Y0.60785
G01 X-1.35017 Y0.60666
G01 X-1.35507 Y0.60472
G01 X-1.40342 Y0.58056
G01 X-1.40589 Y0.57921
G01 X-1.40858 Y0.57746
G01 X-1.41082 Y0.57576
G01 X-1.41292 Y0.57389
G01 X-1.41621 Y0.57037
G01 X-1.41882 Y0.56681
G01 X-1.42119 Y0.56262
G01 X-1.42304 Y0.55817
G01 X-1.42432 Y0.55353
G01 X-1.42504 Y0.54877
G01 X-1.42516 Y0.54395
G01 X-1.42470 Y0.53916
G01 X-1.42365 Y0.53446
G01 X-1.42220 Y0.53029
G01 X-1.42009 Y0.52596
G01 X-1.41746 Y0.52192
G01 X-1.41437 Y0.51824
G01 X-1.41084 Y0.51495
G01 X-1.40728 Y0.51234
G01 X-1.40309 Y0.50997
G01 X-1.39978 Y0.50853
G01 X-1.39673 Y0.50752
G01 X-1.39322 Y0.50667
G01 X-1.38964 Y0.50616
G01 X-1.38603 Y0.50597
G01 X-1.38242 Y0.50612
G01 X-1.37924 Y0.50653
G01 X-1.37571 Y0.50729
G01 X-1.37226 Y0.50838
G01 X-1.36893 Y0.50978
G01 X-1.32890 Y0.52978
G01 X-1.25225 Y0.52978
G01 X-1.22468 Y0.51600
G01 X-1.21090 Y0.48843
G01 X-1.21090 Y0.47444
G01 X-1.22844 Y0.46566
G01 X-1.33860 Y0.46566
G01 X-1.34265 Y0.46541
G01 X-1.34704 Y0.46466
G01 X-1.35094 Y0.46354
G01 X-1.35507 Y0.46186
G01 X-1.40449 Y0.43714
G01 X-1.40760 Y0.43528
G01 X-1.41083 Y0.43289
G01 X-1.41351 Y0.43047
G01 X-1.41596 Y0.42781
G01 X-1.41861 Y0.42427
G01 X-1.42103 Y0.42009
G01 X-1.44502 Y0.37211
G01 X-1.44646 Y0.36876
G01 X-1.44759 Y0.36529
G01 X-1.44859 Y0.36053
G01 X-1.44899 Y0.35568
G01 X-1.44899 Y0.30684
G01 X-1.44874 Y0.30279
G01 X-1.44808 Y0.29879
G01 X-1.44700 Y0.29488
G01 X-1.44537 Y0.29074
G01 X-1.42047 Y0.24095
G01 X-1.41770 Y0.23653
G01 X-1.41436 Y0.23251
G01 X-1.41205 Y0.23027
G01 X-1.40956 Y0.22823
G01 X-1.40726 Y0.22661
G01 X-1.40449 Y0.22497
G01 X-1.35580 Y0.20060
G01 X-1.35247 Y0.19913
G01 X-1.34901 Y0.19796
G01 X-1.34546 Y0.19712
G01 X-1.34184 Y0.19662
G01 X-1.33820 Y0.19645
G01 X-1.21712 Y0.19650
G01 X-1.21189 Y0.19712
G01 X-1.20679 Y0.19844
G01 X-1.20264 Y0.20008
G01 X-1.19473 Y0.20401
G01 X-1.19179 Y0.20206
G01 X-1.18897 Y0.20052
G01 X-1.18566 Y0.19907
G01 X-1.18262 Y0.19804
G01 X-1.17951 Y0.19726
G01 X-1.17634 Y0.19674
G01 X-1.17273 Y0.19647
G01 X-1.16952 Y0.19650
G01 X-1.16632 Y0.19679
G01 X-1.16277 Y0.19744
G01 X-1.15967 Y0.19828
G01 X-1.15628 Y0.19952
G01 X-1.15301 Y0.20107
G01 X-1.14991 Y0.20292
G01 X-1.14698 Y0.20504
G01 X-1.14456 Y0.20714
G01 X-1.14178 Y0.21004
G01 X-1.13954 Y0.21287
G01 X-1.13737 Y0.21625
G01 X-1.13572 Y0.21946
G01 X-1.13424 Y0.22319
G01 X-1.13324 Y0.22667
G01 X-1.13250 Y0.23061
G01 X-1.13219 Y0.23421
G01 X-1.00021 Y0.71141
G01 X-1.00033 Y0.71381
G01 X-1.00101 Y0.71627
G01 X-1.00180 Y0.71794
G01 X-1.00321 Y0.71989
G01 X-1.00498 Y0.72150
G01 X-1.00705 Y0.72273
G01 X-1.00932 Y0.72351
G01 X-1.01131 Y0.72380
G01 X-1.01371 Y0.72370
G01 X-1.01604 Y0.72311
G01 X-1.01785 Y0.72227
G01 X-1.01981 Y0.72087
G01 X-1.02144 Y0.71911
G01 X-1.02269 Y0.71706
G01 X-1.02349 Y0.71479
G01 X-1.02381 Y0.71241
G01 X-1.02365 Y0.71001
G01 X-1.02314 Y0.70807
G01 X-1.02212 Y0.70590
G01 X-1.02067 Y0.70398
G01 X-1.01887 Y0.70239
G01 X-1.01714 Y0.70137
G01 X-1.01489 Y0.70055
G01 X-1.01251 Y0.70021
G01 X-1.01011 Y0.70035
G01 X-1.00779 Y0.70098
G01 X-1.00564 Y0.70206
G01 X-1.00405 Y0.70328
G01 X-1.00245 Y0.70507
G01 X-1.00142 Y0.70678
G01 X-1.00058 Y0.70903
G01 X-1.00021 Y0.71141
G01 X-1.06956 Y1.13570
G01 X-1.06960 Y1.13449
G01 X-1.06988 Y1.13332
G01 X-1.07062 Y1.13189
G01 X-1.07204 Y1.13047
G01 X-1.07347 Y1.12973
G01 X-1.07505 Y1.12940
G01 X-1.10919 Y1.12939
G01 X-1.11117 Y1.12973
G01 X-1.11260 Y1.13047
G01 X-1.11377 Y1.13157
G01 X-1.11461 Y1.13294
G01 X-1.11498 Y1.13409
G01 X-1.11508 Y1.13570
G01 X-1.11476 Y1.13727
G01 X-1.11402 Y1.13870
G01 X-1.11322 Y1.13961
G01 X-1.11155 Y1.14071
G01 X-1.11000 Y1.14114
G01 X-1.09823 Y1.14120
G01 X-1.09823 Y1.17728
G01 X-1.09967 Y1.17585
G01 X-1.10059 Y1.17518
G01 X-1.10655 Y1.17219
G01 X-1.10847 Y1.17161
G01 X-1.11008 Y1.17163
G01 X-1.11125 Y1.17194
G01 X-1.11267 Y1.17270
G01 X-1.11357 Y1.17350
G01 X-1.11428 Y1.17448
G01 X-1.11479 Y1.17558
G01 X-1.11509 Y1.17715
G01 X-1.11503 Y1.17836
G01 X-1.11473 Y1.17953
G01 X-1.11397 Y1.18095
G01 X-1.11285 Y1.18211
G01 X-1.11184 Y1.18276
G01 X-1.10707 Y1.18514
G01 X-1.10254 Y1.18967
G01 X-1.09700 Y1.19795
G01 X-1.09616 Y1.19884
G01 X-1.09515 Y1.19953
G01 X-1.09402 Y1.20000
G01 X-1.09283 Y1.20023
G01 X-1.09161 Y1.20021
G01 X-1.09003 Y1.19979
G01 X-1.08896 Y1.19920
G01 X-1.08804 Y1.19841
G01 X-1.08709 Y1.19709
G01 X-1.08664 Y1.19596
G01 X-1.08642 Y1.19435
G01 X-1.08642 Y1.14120
G01 X-1.07505 Y1.14118
G01 X-1.07386 Y1.14098
G01 X-1.07273 Y1.14054
G01 X-1.07113 Y1.13932
G01 X-1.07003 Y1.13765
G01 X-1.06956 Y1.13570
G01 X-1.00021 Y0.71141
G01 X-1.04423 Y1.17466
G01 X-1.04457 Y1.17664
G01 X-1.04556 Y1.17839
G01 X-1.04707 Y1.17971
G01 X-1.04894 Y1.18044
G01 X-1.05094 Y1.18051
G01 X-1.05286 Y1.17990
G01 X-1.05445 Y1.17869
G01 X-1.05556 Y1.17701
G01 X-1.05599 Y1.17547
G01 X-1.05599 Y1.13449
G01 X-1.05556 Y1.13294
G01 X-1.05445 Y1.13126
G01 X-1.05286 Y1.13005
G01 X-1.05094 Y1.12944
G01 X-1.04974 Y1.12940
G01 X-1.04855 Y1.12961
G01 X-1.04673 Y1.13047
G01 X-1.04582 Y1.13126
G01 X-1.04509 Y1.13222
G01 X-1.04457 Y1.13332
G01 X-1.04429 Y1.13449
G01 X-1.04423 Y1.17466
G01 X-1.04142 Y1.19133
G01 X-1.04170 Y1.18975
G01 X-1.04218 Y1.18864
G01 X-1.04315 Y1.18736
G01 X-1.04616 Y1.18436
G01 X-1.04715 Y1.18363
G01 X-1.04914 Y1.18290
G01 X-1.05034 Y1.18282
G01 X-1.05154 Y1.18298
G01 X-1.05301 Y1.18356
G01 X-1.05402 Y1.18427
G01 X-1.05766 Y1.18797
G01 X-1.05828 Y1.18900
G01 X-1.05877 Y1.19053
G01 X-1.05885 Y1.19174
G01 X-1.05869 Y1.19293
G01 X-1.05810 Y1.19443
G01 X-1.05740 Y1.19542
G01 X-1.05354 Y1.19917
G01 X-1.05249 Y1.19976
G01 X-1.05114 Y1.20017
G01 X-1.04994 Y1.20025
G01 X-1.04874 Y1.20008
G01 X-1.04742 Y1.19959
G01 X-1.04626 Y1.19880
G01 X-1.04288 Y1.19542
G01 X-1.04218 Y1.19443
G01 X-1.04159 Y1.19293
G01 X-1.04142 Y1.19133
G04 P0 ( dwell for no time -- G64 should not smooth over this point )
G00 Z0.08000 ( retract )

G00 X-0.99080 Y1.16623 ( rapid move to begin. )
G01 F180.00000
( Mill infeed pass 1/1 )
G01 Z-0.04000
G04 P0 ( dwell for no time -- G64 should not smooth over this point )
G01 F360.00000
G01 X-0.99080 Y1.16623
G01 X-0.99082 Y1.13489
G01 X-0.99129 Y1.13294
G01 X-0.99239 Y1.13126
G01 X-0.99330 Y1.13047
G01 X-0.99473 Y1.12973
G01 X-0.99590 Y1.12944
G01 X-0.99751 Y1.12944
G01 X-0.99906 Y1.12988
G01 X-1.00011 Y1.13047
G01 X-1.00129 Y1.13157
G01 X-1.00195 Y1.13258
G01 X-1.00239 Y1.13370
G01 X-1.00261 Y1.13529
G01 X-1.00261 Y1.16483
G01 X-1.00392 Y1.16745
G01 X-1.00654 Y1.16876
G01 X-1.01219 Y1.16876
G01 X-1.01571 Y1.16700
G01 X-1.01611 Y1.16659
G01 X-1.01611 Y1.13529
G01 X-1.01645 Y1.13332
G01 X-1.01719 Y1.13189
G01 X-1.01799 Y1.13098
G01 X-1.01895 Y1.13025
G01 X-1.02042 Y1.12961
G01 X-1.02202 Y1.12939
G01 X-1.02361 Y1.12961
G01 X-1.02509 Y1.13025
G01 X-1.02605 Y1.13098
G01 X-1.02684 Y1.13189
G01 X-1.02743 Y1.13294
G01 X-1.02780 Y1.13409
G01 X-1.02792 Y1.13529
G01 X-1.02791 Y1.17506
G01 X-1.02743 Y1.17701
G01 X-1.02633 Y1.17869
G01 X-1.02542 Y1.17949
G01 X-1.02437 Y1.18008
G01 X-1.02242 Y1.18055
G01 X-1.02121 Y1.18051
G01 X-1.02004 Y1.18023
G01 X-1.01895 Y1.17971
G01 X-1.01805 Y1.17903
G01 X-1.01550 Y1.18025
G01 X-1.01397 Y1.18055
G01 X-1.00515 Y1.18057
G01 X-1.00360 Y1.18036
G01 X-0.99688 Y1.17713
G01 X-0.99550 Y1.17617
G01 X-0.99424 Y1.17449
G01 X-0.99112 Y1.16815
G01 X-0.99080 Y1.16623

G04 P0 ( dwell for no time -- G64 should not smooth over this point )
G00 Z1.000000 ( retract )

M5 ( Spindle off. )
G04 P1.000000
M9 ( Coolant off. )
M2 ( Program end. )

