( pcb2gcode 1.3.2 )
( Software-independent Gcode )

G94 ( Inches per minute feed rate. )
G20 ( Units == INCHES. )

G90 ( Absolute coordinates. )
G00 S10000 ( RPM spindle speed. )
G64 P0.00040 ( set maximum deviation from commanded toolpath )
G01 F100.00000 ( Feedrate. )

G01 F100.00000 ( Feedrate. )
M3 ( Spindle on clockwise. )
G04 P1.00000
( Piece #1, position [0;0] )

G04 P0 ( dwell for no time -- G64 should not smooth over this point )
G00 Z0.08000 ( retract )

G00 X4.56417 Y-4.00000 ( rapid move to begin. )
G01 Z-0.00731 F50.00000 ( plunge. )
G04 P0 ( dwell for no time -- G64 should not smooth over this point )
G01 F100.00000
G01 X4.56417 Y-4.00000
G01 X4.56474 Y-4.00576
G01 X4.56642 Y-4.01130
G01 X4.56915 Y-4.01640
G01 X4.57282 Y-4.02088
G01 X4.57730 Y-4.02455
G01 X4.58240 Y-4.02728
G01 X4.58794 Y-4.02896
G01 X4.59370 Y-4.02953
G01 X4.71575 Y-4.02953
G01 X4.97165 Y-4.02953
G01 X5.09370 Y-4.02953
G01 X5.09946 Y-4.02896
G01 X5.10500 Y-4.02728
G01 X5.11010 Y-4.02455
G01 X5.11458 Y-4.02088
G01 X5.11825 Y-4.01640
G01 X5.12098 Y-4.01130
G01 X5.12266 Y-4.00576
G01 X5.12323 Y-4.00000
G01 X5.12323 Y-3.87795
G01 X5.12323 Y-3.62205
G01 X5.12323 Y-3.50000
G01 X5.12266 Y-3.49424
G01 X5.12098 Y-3.48870
G01 X5.11825 Y-3.48360
G01 X5.11458 Y-3.47912
G01 X5.11010 Y-3.47545
G01 X5.10500 Y-3.47272
G01 X5.09946 Y-3.47104
G01 X5.09370 Y-3.47047
G01 X5.08794 Y-3.47104
G01 X5.08240 Y-3.47272
G01 X5.07730 Y-3.47545
G01 X5.07282 Y-3.47912
G01 X4.91330 Y-3.63864
G01 X4.73235 Y-3.81960
G01 X4.57282 Y-3.97912
G01 X4.56915 Y-3.98360
G01 X4.56642 Y-3.98870
G01 X4.56474 Y-3.99424
G01 X4.56417 Y-4.00000
G01 Z-0.01462 F50.00000 ( plunge. )
G04 P0 ( dwell for no time -- G64 should not smooth over this point )
G01 F100.00000
G01 X4.56417 Y-4.00000
G01 X4.56474 Y-4.00576
G01 X4.56642 Y-4.01130
G01 X4.56915 Y-4.01640
G01 X4.57282 Y-4.02088
G01 X4.57730 Y-4.02455
G01 X4.58240 Y-4.02728
G01 X4.58794 Y-4.02896
G01 X4.59370 Y-4.02953
G01 X4.71575 Y-4.02953
G01 X4.97165 Y-4.02953
G01 X5.09370 Y-4.02953
G01 X5.09946 Y-4.02896
G01 X5.10500 Y-4.02728
G01 X5.11010 Y-4.02455
G01 X5.11458 Y-4.02088
G01 X5.11825 Y-4.01640
G01 X5.12098 Y-4.01130
G01 X5.12266 Y-4.00576
G01 X5.12323 Y-4.00000
G01 X5.12323 Y-3.87795
G01 X5.12323 Y-3.62205
G01 X5.12323 Y-3.50000
G01 X5.12266 Y-3.49424
G01 X5.12098 Y-3.48870
G01 X5.11825 Y-3.48360
G01 X5.11458 Y-3.47912
G01 X5.11010 Y-3.47545
G01 X5.10500 Y-3.47272
G01 X5.09946 Y-3.47104
G01 X5.09370 Y-3.47047
G01 X5.08794 Y-3.47104
G01 X5.08240 Y-3.47272
G01 X5.07730 Y-3.47545
G01 X5.07282 Y-3.47912
G01 X4.91330 Y-3.63864
G01 X4.73235 Y-3.81960
G01 X4.57282 Y-3.97912
G01 X4.56915 Y-3.98360
G01 X4.56642 Y-3.98870
G01 X4.56474 Y-3.99424
G01 X4.56417 Y-4.00000
G01 Z-0.02193 F50.00000 ( plunge. )
G04 P0 ( dwell for no time -- G64 should not smooth over this point )
G01 F100.00000
G01 X4.56417 Y-4.00000
G01 X4.56474 Y-4.00576
G01 X4.56642 Y-4.01130
G01 X4.56915 Y-4.01640
G01 X4.57282 Y-4.02088
G01 X4.57730 Y-4.02455
G01 X4.58240 Y-4.02728
G01 X4.58794 Y-4.02896
G01 X4.59370 Y-4.02953
G01 X4.71575 Y-4.02953
G01 X4.97165 Y-4.02953
G01 X5.09370 Y-4.02953
G01 X5.09946 Y-4.02896
G01 X5.10500 Y-4.02728
G01 X5.11010 Y-4.02455
G01 X5.11458 Y-4.02088
G01 X5.11825 Y-4.01640
G01 X5.12098 Y-4.01130
G01 X5.12266 Y-4.00576
G01 X5.12323 Y-4.00000
G01 X5.12323 Y-3.87795
G01 X5.12323 Y-3.62205
G01 X5.12323 Y-3.50000
G01 X5.12266 Y-3.49424
G01 X5.12098 Y-3.48870
G01 X5.11825 Y-3.48360
G01 X5.11458 Y-3.47912
G01 X5.11010 Y-3.47545
G01 X5.10500 Y-3.47272
G01 X5.09946 Y-3.47104
G01 X5.09370 Y-3.47047
G01 X5.08794 Y-3.47104
G01 X5.08240 Y-3.47272
G01 X5.07730 Y-3.47545
G01 X5.07282 Y-3.47912
G01 X4.91330 Y-3.63864
G01 X4.73235 Y-3.81960
G01 X4.57282 Y-3.97912
G01 X4.56915 Y-3.98360
G01 X4.56642 Y-3.98870
G01 X4.56474 Y-3.99424
G01 X4.56417 Y-4.00000
G01 Z-0.02925 F50.00000 ( plunge. )
G04 P0 ( dwell for no time -- G64 should not smooth over this point )
G01 F100.00000
G01 X4.56417 Y-4.00000
G01 X4.56474 Y-4.00576
G01 X4.56642 Y-4.01130
G01 X4.56915 Y-4.01640
G01 X4.57282 Y-4.02088
G01 X4.57730 Y-4.02455
G01 X4.58240 Y-4.02728
G01 X4.58794 Y-4.02896
G01 X4.59370 Y-4.02953
G01 X4.71575 Y-4.02953
G01 Z-0.02362
G01 X4.97165 Y-4.02953
G01 Z-0.02925 F50.00000
G01 F100.00000
G01 X5.09370 Y-4.02953
G01 X5.09946 Y-4.02896
G01 X5.10500 Y-4.02728
G01 X5.11010 Y-4.02455
G01 X5.11458 Y-4.02088
G01 X5.11825 Y-4.01640
G01 X5.12098 Y-4.01130
G01 X5.12266 Y-4.00576
G01 X5.12323 Y-4.00000
G01 X5.12323 Y-3.87795
G01 Z-0.02362
G01 X5.12323 Y-3.62205
G01 Z-0.02925 F50.00000
G01 F100.00000
G01 X5.12323 Y-3.50000
G01 X5.12266 Y-3.49424
G01 X5.12098 Y-3.48870
G01 X5.11825 Y-3.48360
G01 X5.11458 Y-3.47912
G01 X5.11010 Y-3.47545
G01 X5.10500 Y-3.47272
G01 X5.09946 Y-3.47104
G01 X5.09370 Y-3.47047
G01 X5.08794 Y-3.47104
G01 X5.08240 Y-3.47272
G01 X5.07730 Y-3.47545
G01 X5.07282 Y-3.47912
G01 X4.91330 Y-3.63864
G01 Z-0.02362
G01 X4.73235 Y-3.81960
G01 Z-0.02925 F50.00000
G01 F100.00000
G01 X4.57282 Y-3.97912
G01 X4.56915 Y-3.98360
G01 X4.56642 Y-3.98870
G01 X4.56474 Y-3.99424
G01 X4.56417 Y-4.00000
G01 Z-0.03656 F50.00000 ( plunge. )
G04 P0 ( dwell for no time -- G64 should not smooth over this point )
G01 F100.00000
G01 X4.56417 Y-4.00000
G01 X4.56474 Y-4.00576
G01 X4.56642 Y-4.01130
G01 X4.56915 Y-4.01640
G01 X4.57282 Y-4.02088
G01 X4.57730 Y-4.02455
G01 X4.58240 Y-4.02728
G01 X4.58794 Y-4.02896
G01 X4.59370 Y-4.02953
G01 X4.71575 Y-4.02953
G01 Z-0.02362
G01 X4.97165 Y-4.02953
G01 Z-0.03656 F50.00000
G01 F100.00000
G01 X5.09370 Y-4.02953
G01 X5.09946 Y-4.02896
G01 X5.10500 Y-4.02728
G01 X5.11010 Y-4.02455
G01 X5.11458 Y-4.02088
G01 X5.11825 Y-4.01640
G01 X5.12098 Y-4.01130
G01 X5.12266 Y-4.00576
G01 X5.12323 Y-4.00000
G01 X5.12323 Y-3.87795
G01 Z-0.02362
G01 X5.12323 Y-3.62205
G01 Z-0.03656 F50.00000
G01 F100.00000
G01 X5.12323 Y-3.50000
G01 X5.12266 Y-3.49424
G01 X5.12098 Y-3.48870
G01 X5.11825 Y-3.48360
G01 X5.11458 Y-3.47912
G01 X5.11010 Y-3.47545
G01 X5.10500 Y-3.47272
G01 X5.09946 Y-3.47104
G01 X5.09370 Y-3.47047
G01 X5.08794 Y-3.47104
G01 X5.08240 Y-3.47272
G01 X5.07730 Y-3.47545
G01 X5.07282 Y-3.47912
G01 X4.91330 Y-3.63864
G01 Z-0.02362
G01 X4.73235 Y-3.81960
G01 Z-0.03656 F50.00000
G01 F100.00000
G01 X4.57282 Y-3.97912
G01 X4.56915 Y-3.98360
G01 X4.56642 Y-3.98870
G01 X4.56474 Y-3.99424
G01 X4.56417 Y-4.00000
G01 Z-0.04387 F50.00000 ( plunge. )
G04 P0 ( dwell for no time -- G64 should not smooth over this point )
G01 F100.00000
G01 X4.56417 Y-4.00000
G01 X4.56474 Y-4.00576
G01 X4.56642 Y-4.01130
G01 X4.56915 Y-4.01640
G01 X4.57282 Y-4.02088
G01 X4.57730 Y-4.02455
G01 X4.58240 Y-4.02728
G01 X4.58794 Y-4.02896
G01 X4.59370 Y-4.02953
G01 X4.71575 Y-4.02953
G01 Z-0.02362
G01 X4.97165 Y-4.02953
G01 Z-0.04387 F50.00000
G01 F100.00000
G01 X5.09370 Y-4.02953
G01 X5.09946 Y-4.02896
G01 X5.10500 Y-4.02728
G01 X5.11010 Y-4.02455
G01 X5.11458 Y-4.02088
G01 X5.11825 Y-4.01640
G01 X5.12098 Y-4.01130
G01 X5.12266 Y-4.00576
G01 X5.12323 Y-4.00000
G01 X5.12323 Y-3.87795
G01 Z-0.02362
G01 X5.12323 Y-3.62205
G01 Z-0.04387 F50.00000
G01 F100.00000
G01 X5.12323 Y-3.50000
G01 X5.12266 Y-3.49424
G01 X5.12098 Y-3.48870
G01 X5.11825 Y-3.48360
G01 X5.11458 Y-3.47912
G01 X5.11010 Y-3.47545
G01 X5.10500 Y-3.47272
G01 X5.09946 Y-3.47104
G01 X5.09370 Y-3.47047
G01 X5.08794 Y-3.47104
G01 X5.08240 Y-3.47272
G01 X5.07730 Y-3.47545
G01 X5.07282 Y-3.47912
G01 X4.91330 Y-3.63864
G01 Z-0.02362
G01 X4.73235 Y-3.81960
G01 Z-0.04387 F50.00000
G01 F100.00000
G01 X4.57282 Y-3.97912
G01 X4.56915 Y-3.98360
G01 X4.56642 Y-3.98870
G01 X4.56474 Y-3.99424
G01 X4.56417 Y-4.00000
G01 Z-0.05118 F50.00000 ( plunge. )
G04 P0 ( dwell for no time -- G64 should not smooth over this point )
G01 F100.00000
G01 X4.56417 Y-4.00000
G01 X4.56474 Y-4.00576
G01 X4.56642 Y-4.01130
G01 X4.56915 Y-4.01640
G01 X4.57282 Y-4.02088
G01 X4.57730 Y-4.02455
G01 X4.58240 Y-4.02728
G01 X4.58794 Y-4.02896
G01 X4.59370 Y-4.02953
G01 X4.71575 Y-4.02953
G01 Z-0.02362
G01 X4.97165 Y-4.02953
G01 Z-0.05118 F50.00000
G01 F100.00000
G01 X5.09370 Y-4.02953
G01 X5.09946 Y-4.02896
G01 X5.10500 Y-4.02728
G01 X5.11010 Y-4.02455
G01 X5.11458 Y-4.02088
G01 X5.11825 Y-4.01640
G01 X5.12098 Y-4.01130
G01 X5.12266 Y-4.00576
G01 X5.12323 Y-4.00000
G01 X5.12323 Y-3.87795
G01 Z-0.02362
G01 X5.12323 Y-3.62205
G01 Z-0.05118 F50.00000
G01 F100.00000
G01 X5.12323 Y-3.50000
G01 X5.12266 Y-3.49424
G01 X5.12098 Y-3.48870
G01 X5.11825 Y-3.48360
G01 X5.11458 Y-3.47912
G01 X5.11010 Y-3.47545
G01 X5.10500 Y-3.47272
G01 X5.09946 Y-3.47104
G01 X5.09370 Y-3.47047
G01 X5.08794 Y-3.47104
G01 X5.08240 Y-3.47272
G01 X5.07730 Y-3.47545
G01 X5.07282 Y-3.47912
G01 X4.91330 Y-3.63864
G01 Z-0.02362
G01 X4.73235 Y-3.81960
G01 Z-0.05118 F50.00000
G01 F100.00000
G01 X4.57282 Y-3.97912
G01 X4.56915 Y-3.98360
G01 X4.56642 Y-3.98870
G01 X4.56474 Y-3.99424
G01 X4.56417 Y-4.00000
G04 P0 ( dwell for no time -- G64 should not smooth over this point )
G00 Z0.08000 ( retract )

G00 X5.86417 Y-5.70000 ( rapid move to begin. )
G01 Z-0.00731 F50.00000 ( plunge. )
G04 P0 ( dwell for no time -- G64 should not smooth over this point )
G01 F100.00000
G01 X5.86417 Y-5.70000
G01 X5.86417 Y-5.47795
G01 X5.86417 Y-5.22205
G01 X5.86417 Y-5.00000
G01 X5.86474 Y-4.99424
G01 X5.86642 Y-4.98870
G01 X5.86915 Y-4.98360
G01 X5.87282 Y-4.97912
G01 X5.87730 Y-4.97545
G01 X5.88240 Y-4.97272
G01 X5.88794 Y-4.97104
G01 X5.89370 Y-4.97047
G01 X6.41575 Y-4.97047
G01 X6.67165 Y-4.97047
G01 X7.19370 Y-4.97047
G01 X7.19946 Y-4.97104
G01 X7.20500 Y-4.97272
G01 X7.21010 Y-4.97545
G01 X7.21458 Y-4.97912
G01 X7.21825 Y-4.98360
G01 X7.22098 Y-4.98870
G01 X7.22266 Y-4.99424
G01 X7.22323 Y-5.00000
G01 X7.22323 Y-5.22205
G01 X7.22323 Y-5.47795
G01 X7.22323 Y-5.70000
G01 X7.22266 Y-5.70576
G01 X7.22098 Y-5.71130
G01 X7.21825 Y-5.71640
G01 X7.21458 Y-5.72088
G01 X7.21010 Y-5.72455
G01 X7.20500 Y-5.72728
G01 X7.19946 Y-5.72896
G01 X7.19370 Y-5.72953
G01 X6.67165 Y-5.72953
G01 X6.41575 Y-5.72953
G01 X5.89370 Y-5.72953
G01 X5.88794 Y-5.72896
G01 X5.88240 Y-5.72728
G01 X5.87730 Y-5.72455
G01 X5.87282 Y-5.72088
G01 X5.86915 Y-5.71640
G01 X5.86642 Y-5.71130
G01 X5.86474 Y-5.70576
G01 X5.86417 Y-5.70000
G01 Z-0.01462 F50.00000 ( plunge. )
G04 P0 ( dwell for no time -- G64 should not smooth over this point )
G01 F100.00000
G01 X5.86417 Y-5.70000
G01 X5.86417 Y-5.47795
G01 X5.86417 Y-5.22205
G01 X5.86417 Y-5.00000
G01 X5.86474 Y-4.99424
G01 X5.86642 Y-4.98870
G01 X5.86915 Y-4.98360
G01 X5.87282 Y-4.97912
G01 X5.87730 Y-4.97545
G01 X5.88240 Y-4.97272
G01 X5.88794 Y-4.97104
G01 X5.89370 Y-4.97047
G01 X6.41575 Y-4.97047
G01 X6.67165 Y-4.97047
G01 X7.19370 Y-4.97047
G01 X7.19946 Y-4.97104
G01 X7.20500 Y-4.97272
G01 X7.21010 Y-4.97545
G01 X7.21458 Y-4.97912
G01 X7.21825 Y-4.98360
G01 X7.22098 Y-4.98870
G01 X7.22266 Y-4.99424
G01 X7.22323 Y-5.00000
G01 X7.22323 Y-5.22205
G01 X7.22323 Y-5.47795
G01 X7.22323 Y-5.70000
G01 X7.22266 Y-5.70576
G01 X7.22098 Y-5.71130
G01 X7.21825 Y-5.71640
G01 X7.21458 Y-5.72088
G01 X7.21010 Y-5.72455
G01 X7.20500 Y-5.72728
G01 X7.19946 Y-5.72896
G01 X7.19370 Y-5.72953
G01 X6.67165 Y-5.72953
G01 X6.41575 Y-5.72953
G01 X5.89370 Y-5.72953
G01 X5.88794 Y-5.72896
G01 X5.88240 Y-5.72728
G01 X5.87730 Y-5.72455
G01 X5.87282 Y-5.72088
G01 X5.86915 Y-5.71640
G01 X5.86642 Y-5.71130
G01 X5.86474 Y-5.70576
G01 X5.86417 Y-5.70000
G01 Z-0.02193 F50.00000 ( plunge. )
G04 P0 ( dwell for no time -- G64 should not smooth over this point )
G01 F100.00000
G01 X5.86417 Y-5.70000
G01 X5.86417 Y-5.47795
G01 X5.86417 Y-5.22205
G01 X5.86417 Y-5.00000
G01 X5.86474 Y-4.99424
G01 X5.86642 Y-4.98870
G01 X5.86915 Y-4.98360
G01 X5.87282 Y-4.97912
G01 X5.87730 Y-4.97545
G01 X5.88240 Y-4.97272
G01 X5.88794 Y-4.97104
G01 X5.89370 Y-4.97047
G01 X6.41575 Y-4.97047
G01 X6.67165 Y-4.97047
G01 X7.19370 Y-4.97047
G01 X7.19946 Y-4.97104
G01 X7.20500 Y-4.97272
G01 X7.21010 Y-4.97545
G01 X7.21458 Y-4.97912
G01 X7.21825 Y-4.98360
G01 X7.22098 Y-4.98870
G01 X7.22266 Y-4.99424
G01 X7.22323 Y-5.00000
G01 X7.22323 Y-5.22205
G01 X7.22323 Y-5.47795
G01 X7.22323 Y-5.70000
G01 X7.22266 Y-5.70576
G01 X7.22098 Y-5.71130
G01 X7.21825 Y-5.71640
G01 X7.21458 Y-5.72088
G01 X7.21010 Y-5.72455
G01 X7.20500 Y-5.72728
G01 X7.19946 Y-5.72896
G01 X7.19370 Y-5.72953
G01 X6.67165 Y-5.72953
G01 X6.41575 Y-5.72953
G01 X5.89370 Y-5.72953
G01 X5.88794 Y-5.72896
G01 X5.88240 Y-5.72728
G01 X5.87730 Y-5.72455
G01 X5.87282 Y-5.72088
G01 X5.86915 Y-5.71640
G01 X5.86642 Y-5.71130
G01 X5.86474 Y-5.70576
G01 X5.86417 Y-5.70000
G01 Z-0.02925 F50.00000 ( plunge. )
G04 P0 ( dwell for no time -- G64 should not smooth over this point )
G01 F100.00000
G01 X5.86417 Y-5.70000
G01 X5.86417 Y-5.47795
G01 Z-0.02362
G01 X5.86417 Y-5.22205
G01 Z-0.02925 F50.00000
G01 F100.00000
G01 X5.86417 Y-5.00000
G01 X5.86474 Y-4.99424
G01 X5.86642 Y-4.98870
G01 X5.86915 Y-4.98360
G01 X5.87282 Y-4.97912
G01 X5.87730 Y-4.97545
G01 X5.88240 Y-4.97272
G01 X5.88794 Y-4.97104
G01 X5.89370 Y-4.97047
G01 X6.41575 Y-4.97047
G01 Z-0.02362
G01 X6.67165 Y-4.97047
G01 Z-0.02925 F50.00000
G01 F100.00000
G01 X7.19370 Y-4.97047
G01 X7.19946 Y-4.97104
G01 X7.20500 Y-4.97272
G01 X7.21010 Y-4.97545
G01 X7.21458 Y-4.97912
G01 X7.21825 Y-4.98360
G01 X7.22098 Y-4.98870
G01 X7.22266 Y-4.99424
G01 X7.22323 Y-5.00000
G01 X7.22323 Y-5.22205
G01 Z-0.02362
G01 X7.22323 Y-5.47795
G01 Z-0.02925 F50.00000
G01 F100.00000
G01 X7.22323 Y-5.70000
G01 X7.22266 Y-5.70576
G01 X7.22098 Y-5.71130
G01 X7.21825 Y-5.71640
G01 X7.21458 Y-5.72088
G01 X7.21010 Y-5.72455
G01 X7.20500 Y-5.72728
G01 X7.19946 Y-5.72896
G01 X7.19370 Y-5.72953
G01 X6.67165 Y-5.72953
G01 Z-0.02362
G01 X6.41575 Y-5.72953
G01 Z-0.02925 F50.00000
G01 F100.00000
G01 X5.89370 Y-5.72953
G01 X5.88794 Y-5.72896
G01 X5.88240 Y-5.72728
G01 X5.87730 Y-5.72455
G01 X5.87282 Y-5.72088
G01 X5.86915 Y-5.71640
G01 X5.86642 Y-5.71130
G01 X5.86474 Y-5.70576
G01 X5.86417 Y-5.70000
G01 Z-0.03656 F50.00000 ( plunge. )
G04 P0 ( dwell for no time -- G64 should not smooth over this point )
G01 F100.00000
G01 X5.86417 Y-5.70000
G01 X5.86417 Y-5.47795
G01 Z-0.02362
G01 X5.86417 Y-5.22205
G01 Z-0.03656 F50.00000
G01 F100.00000
G01 X5.86417 Y-5.00000
G01 X5.86474 Y-4.99424
G01 X5.86642 Y-4.98870
G01 X5.86915 Y-4.98360
G01 X5.87282 Y-4.97912
G01 X5.87730 Y-4.97545
G01 X5.88240 Y-4.97272
G01 X5.88794 Y-4.97104
G01 X5.89370 Y-4.97047
G01 X6.41575 Y-4.97047
G01 Z-0.02362
G01 X6.67165 Y-4.97047
G01 Z-0.03656 F50.00000
G01 F100.00000
G01 X7.19370 Y-4.97047
G01 X7.19946 Y-4.97104
G01 X7.20500 Y-4.97272
G01 X7.21010 Y-4.97545
G01 X7.21458 Y-4.97912
G01 X7.21825 Y-4.98360
G01 X7.22098 Y-4.98870
G01 X7.22266 Y-4.99424
G01 X7.22323 Y-5.00000
G01 X7.22323 Y-5.22205
G01 Z-0.02362
G01 X7.22323 Y-5.47795
G01 Z-0.03656 F50.00000
G01 F100.00000
G01 X7.22323 Y-5.70000
G01 X7.22266 Y-5.70576
G01 X7.22098 Y-5.71130
G01 X7.21825 Y-5.71640
G01 X7.21458 Y-5.72088
G01 X7.21010 Y-5.72455
G01 X7.20500 Y-5.72728
G01 X7.19946 Y-5.72896
G01 X7.19370 Y-5.72953
G01 X6.67165 Y-5.72953
G01 Z-0.02362
G01 X6.41575 Y-5.72953
G01 Z-0.03656 F50.00000
G01 F100.00000
G01 X5.89370 Y-5.72953
G01 X5.88794 Y-5.72896
G01 X5.88240 Y-5.72728
G01 X5.87730 Y-5.72455
G01 X5.87282 Y-5.72088
G01 X5.86915 Y-5.71640
G01 X5.86642 Y-5.71130
G01 X5.86474 Y-5.70576
G01 X5.86417 Y-5.70000
G01 Z-0.04387 F50.00000 ( plunge. )
G04 P0 ( dwell for no time -- G64 should not smooth over this point )
G01 F100.00000
G01 X5.86417 Y-5.70000
G01 X5.86417 Y-5.47795
G01 Z-0.02362
G01 X5.86417 Y-5.22205
G01 Z-0.04387 F50.00000
G01 F100.00000
G01 X5.86417 Y-5.00000
G01 X5.86474 Y-4.99424
G01 X5.86642 Y-4.98870
G01 X5.86915 Y-4.98360
G01 X5.87282 Y-4.97912
G01 X5.87730 Y-4.97545
G01 X5.88240 Y-4.97272
G01 X5.88794 Y-4.97104
G01 X5.89370 Y-4.97047
G01 X6.41575 Y-4.97047
G01 Z-0.02362
G01 X6.67165 Y-4.97047
G01 Z-0.04387 F50.00000
G01 F100.00000
G01 X7.19370 Y-4.97047
G01 X7.19946 Y-4.97104
G01 X7.20500 Y-4.97272
G01 X7.21010 Y-4.97545
G01 X7.21458 Y-4.97912
G01 X7.21825 Y-4.98360
G01 X7.22098 Y-4.98870
G01 X7.22266 Y-4.99424
G01 X7.22323 Y-5.00000
G01 X7.22323 Y-5.22205
G01 Z-0.02362
G01 X7.22323 Y-5.47795
G01 Z-0.04387 F50.00000
G01 F100.00000
G01 X7.22323 Y-5.70000
G01 X7.22266 Y-5.70576
G01 X7.22098 Y-5.71130
G01 X7.21825 Y-5.71640
G01 X7.21458 Y-5.72088
G01 X7.21010 Y-5.72455
G01 X7.20500 Y-5.72728
G01 X7.19946 Y-5.72896
G01 X7.19370 Y-5.72953
G01 X6.67165 Y-5.72953
G01 Z-0.02362
G01 X6.41575 Y-5.72953
G01 Z-0.04387 F50.00000
G01 F100.00000
G01 X5.89370 Y-5.72953
G01 X5.88794 Y-5.72896
G01 X5.88240 Y-5.72728
G01 X5.87730 Y-5.72455
G01 X5.87282 Y-5.72088
G01 X5.86915 Y-5.71640
G01 X5.86642 Y-5.71130
G01 X5.86474 Y-5.70576
G01 X5.86417 Y-5.70000
G01 Z-0.05118 F50.00000 ( plunge. )
G04 P0 ( dwell for no time -- G64 should not smooth over this point )
G01 F100.00000
G01 X5.86417 Y-5.70000
G01 X5.86417 Y-5.47795
G01 Z-0.02362
G01 X5.86417 Y-5.22205
G01 Z-0.05118 F50.00000
G01 F100.00000
G01 X5.86417 Y-5.00000
G01 X5.86474 Y-4.99424
G01 X5.86642 Y-4.98870
G01 X5.86915 Y-4.98360
G01 X5.87282 Y-4.97912
G01 X5.87730 Y-4.97545
G01 X5.88240 Y-4.97272
G01 X5.88794 Y-4.97104
G01 X5.89370 Y-4.97047
G01 X6.41575 Y-4.97047
G01 Z-0.02362
G01 X6.67165 Y-4.97047
G01 Z-0.05118 F50.00000
G01 F100.00000
G01 X7.19370 Y-4.97047
G01 X7.19946 Y-4.97104
G01 X7.20500 Y-4.97272
G01 X7.21010 Y-4.97545
G01 X7.21458 Y-4.97912
G01 X7.21825 Y-4.98360
G01 X7.22098 Y-4.98870
G01 X7.22266 Y-4.99424
G01 X7.22323 Y-5.00000
G01 X7.22323 Y-5.22205
G01 Z-0.02362
G01 X7.22323 Y-5.47795
G01 Z-0.05118 F50.00000
G01 F100.00000
G01 X7.22323 Y-5.70000
G01 X7.22266 Y-5.70576
G01 X7.22098 Y-5.71130
G01 X7.21825 Y-5.71640
G01 X7.21458 Y-5.72088
G01 X7.21010 Y-5.72455
G01 X7.20500 Y-5.72728
G01 X7.19946 Y-5.72896
G01 X7.19370 Y-5.72953
G01 X6.67165 Y-5.72953
G01 Z-0.02362
G01 X6.41575 Y-5.72953
G01 Z-0.05118 F50.00000
G01 F100.00000
G01 X5.89370 Y-5.72953
G01 X5.88794 Y-5.72896
G01 X5.88240 Y-5.72728
G01 X5.87730 Y-5.72455
G01 X5.87282 Y-5.72088
G01 X5.86915 Y-5.71640
G01 X5.86642 Y-5.71130
G01 X5.86474 Y-5.70576
G01 X5.86417 Y-5.70000
( Piece #2, position [1;0] )

G04 P0 ( dwell for no time -- G64 should not smooth over this point )
G00 Z0.08000 ( retract )

G00 X7.23313 Y-4.00000 ( rapid move to begin. )
G01 Z-0.00731 F50.00000 ( plunge. )
G04 P0 ( dwell for no time -- G64 should not smooth over this point )
G01 F100.00000
G01 X7.23313 Y-4.00000
G01 X7.23370 Y-4.00576
G01 X7.23538 Y-4.01130
G01 X7.23811 Y-4.01640
G01 X7.24178 Y-4.02088
G01 X7.24626 Y-4.02455
G01 X7.25136 Y-4.02728
G01 X7.25690 Y-4.02896
G01 X7.26266 Y-4.02953
G01 X7.38471 Y-4.02953
G01 X7.64061 Y-4.02953
G01 X7.76266 Y-4.02953
G01 X7.76842 Y-4.02896
G01 X7.77396 Y-4.02728
G01 X7.77907 Y-4.02455
G01 X7.78354 Y-4.02088
G01 X7.78721 Y-4.01640
G01 X7.78994 Y-4.01130
G01 X7.79162 Y-4.00576
G01 X7.79219 Y-4.00000
G01 X7.79219 Y-3.87795
G01 X7.79219 Y-3.62205
G01 X7.79219 Y-3.50000
G01 X7.79162 Y-3.49424
G01 X7.78994 Y-3.48870
G01 X7.78721 Y-3.48360
G01 X7.78354 Y-3.47912
G01 X7.77907 Y-3.47545
G01 X7.77396 Y-3.47272
G01 X7.76842 Y-3.47104
G01 X7.76266 Y-3.47047
G01 X7.75690 Y-3.47104
G01 X7.75136 Y-3.47272
G01 X7.74626 Y-3.47545
G01 X7.74178 Y-3.47912
G01 X7.58226 Y-3.63864
G01 X7.40131 Y-3.81960
G01 X7.24178 Y-3.97912
G01 X7.23811 Y-3.98360
G01 X7.23538 Y-3.98870
G01 X7.23370 Y-3.99424
G01 X7.23313 Y-4.00000
G01 Z-0.01462 F50.00000 ( plunge. )
G04 P0 ( dwell for no time -- G64 should not smooth over this point )
G01 F100.00000
G01 X7.23313 Y-4.00000
G01 X7.23370 Y-4.00576
G01 X7.23538 Y-4.01130
G01 X7.23811 Y-4.01640
G01 X7.24178 Y-4.02088
G01 X7.24626 Y-4.02455
G01 X7.25136 Y-4.02728
G01 X7.25690 Y-4.02896
G01 X7.26266 Y-4.02953
G01 X7.38471 Y-4.02953
G01 X7.64061 Y-4.02953
G01 X7.76266 Y-4.02953
G01 X7.76842 Y-4.02896
G01 X7.77396 Y-4.02728
G01 X7.77907 Y-4.02455
G01 X7.78354 Y-4.02088
G01 X7.78721 Y-4.01640
G01 X7.78994 Y-4.01130
G01 X7.79162 Y-4.00576
G01 X7.79219 Y-4.00000
G01 X7.79219 Y-3.87795
G01 X7.79219 Y-3.62205
G01 X7.79219 Y-3.50000
G01 X7.79162 Y-3.49424
G01 X7.78994 Y-3.48870
G01 X7.78721 Y-3.48360
G01 X7.78354 Y-3.47912
G01 X7.77907 Y-3.47545
G01 X7.77396 Y-3.47272
G01 X7.76842 Y-3.47104
G01 X7.76266 Y-3.47047
G01 X7.75690 Y-3.47104
G01 X7.75136 Y-3.47272
G01 X7.74626 Y-3.47545
G01 X7.74178 Y-3.47912
G01 X7.58226 Y-3.63864
G01 X7.40131 Y-3.81960
G01 X7.24178 Y-3.97912
G01 X7.23811 Y-3.98360
G01 X7.23538 Y-3.98870
G01 X7.23370 Y-3.99424
G01 X7.23313 Y-4.00000
G01 Z-0.02193 F50.00000 ( plunge. )
G04 P0 ( dwell for no time -- G64 should not smooth over this point )
G01 F100.00000
G01 X7.23313 Y-4.00000
G01 X7.23370 Y-4.00576
G01 X7.23538 Y-4.01130
G01 X7.23811 Y-4.01640
G01 X7.24178 Y-4.02088
G01 X7.24626 Y-4.02455
G01 X7.25136 Y-4.02728
G01 X7.25690 Y-4.02896
G01 X7.26266 Y-4.02953
G01 X7.38471 Y-4.02953
G01 X7.64061 Y-4.02953
G01 X7.76266 Y-4.02953
G01 X7.76842 Y-4.02896
G01 X7.77396 Y-4.02728
G01 X7.77907 Y-4.02455
G01 X7.78354 Y-4.02088
G01 X7.78721 Y-4.01640
G01 X7.78994 Y-4.01130
G01 X7.79162 Y-4.00576
G01 X7.79219 Y-4.00000
G01 X7.79219 Y-3.87795
G01 X7.79219 Y-3.62205
G01 X7.79219 Y-3.50000
G01 X7.79162 Y-3.49424
G01 X7.78994 Y-3.48870
G01 X7.78721 Y-3.48360
G01 X7.78354 Y-3.47912
G01 X7.77907 Y-3.47545
G01 X7.77396 Y-3.47272
G01 X7.76842 Y-3.47104
G01 X7.76266 Y-3.47047
G01 X7.75690 Y-3.47104
G01 X7.75136 Y-3.47272
G01 X7.74626 Y-3.47545
G01 X7.74178 Y-3.47912
G01 X7.58226 Y-3.63864
G01 X7.40131 Y-3.81960
G01 X7.24178 Y-3.97912
G01 X7.23811 Y-3.98360
G01 X7.23538 Y-3.98870
G01 X7.23370 Y-3.99424
G01 X7.23313 Y-4.00000
G01 Z-0.02925 F50.00000 ( plunge. )
G04 P0 ( dwell for no time -- G64 should not smooth over this point )
G01 F100.00000
G01 X7.23313 Y-4.00000
G01 X7.23370 Y-4.00576
G01 X7.23538 Y-4.01130
G01 X7.23811 Y-4.01640
G01 X7.24178 Y-4.02088
G01 X7.24626 Y-4.02455
G01 X7.25136 Y-4.02728
G01 X7.25690 Y-4.02896
G01 X7.26266 Y-4.02953
G01 X7.38471 Y-4.02953
G01 Z-0.02362
G01 X7.64061 Y-4.02953
G01 Z-0.02925 F50.00000
G01 F100.00000
G01 X7.76266 Y-4.02953
G01 X7.76842 Y-4.02896
G01 X7.77396 Y-4.02728
G01 X7.77907 Y-4.02455
G01 X7.78354 Y-4.02088
G01 X7.78721 Y-4.01640
G01 X7.78994 Y-4.01130
G01 X7.79162 Y-4.00576
G01 X7.79219 Y-4.00000
G01 X7.79219 Y-3.87795
G01 Z-0.02362
G01 X7.79219 Y-3.62205
G01 Z-0.02925 F50.00000
G01 F100.00000
G01 X7.79219 Y-3.50000
G01 X7.79162 Y-3.49424
G01 X7.78994 Y-3.48870
G01 X7.78721 Y-3.48360
G01 X7.78354 Y-3.47912
G01 X7.77907 Y-3.47545
G01 X7.77396 Y-3.47272
G01 X7.76842 Y-3.47104
G01 X7.76266 Y-3.47047
G01 X7.75690 Y-3.47104
G01 X7.75136 Y-3.47272
G01 X7.74626 Y-3.47545
G01 X7.74178 Y-3.47912
G01 X7.58226 Y-3.63864
G01 Z-0.02362
G01 X7.40131 Y-3.81960
G01 Z-0.02925 F50.00000
G01 F100.00000
G01 X7.24178 Y-3.97912
G01 X7.23811 Y-3.98360
G01 X7.23538 Y-3.98870
G01 X7.23370 Y-3.99424
G01 X7.23313 Y-4.00000
G01 Z-0.03656 F50.00000 ( plunge. )
G04 P0 ( dwell for no time -- G64 should not smooth over this point )
G01 F100.00000
G01 X7.23313 Y-4.00000
G01 X7.23370 Y-4.00576
G01 X7.23538 Y-4.01130
G01 X7.23811 Y-4.01640
G01 X7.24178 Y-4.02088
G01 X7.24626 Y-4.02455
G01 X7.25136 Y-4.02728
G01 X7.25690 Y-4.02896
G01 X7.26266 Y-4.02953
G01 X7.38471 Y-4.02953
G01 Z-0.02362
G01 X7.64061 Y-4.02953
G01 Z-0.03656 F50.00000
G01 F100.00000
G01 X7.76266 Y-4.02953
G01 X7.76842 Y-4.02896
G01 X7.77396 Y-4.02728
G01 X7.77907 Y-4.02455
G01 X7.78354 Y-4.02088
G01 X7.78721 Y-4.01640
G01 X7.78994 Y-4.01130
G01 X7.79162 Y-4.00576
G01 X7.79219 Y-4.00000
G01 X7.79219 Y-3.87795
G01 Z-0.02362
G01 X7.79219 Y-3.62205
G01 Z-0.03656 F50.00000
G01 F100.00000
G01 X7.79219 Y-3.50000
G01 X7.79162 Y-3.49424
G01 X7.78994 Y-3.48870
G01 X7.78721 Y-3.48360
G01 X7.78354 Y-3.47912
G01 X7.77907 Y-3.47545
G01 X7.77396 Y-3.47272
G01 X7.76842 Y-3.47104
G01 X7.76266 Y-3.47047
G01 X7.75690 Y-3.47104
G01 X7.75136 Y-3.47272
G01 X7.74626 Y-3.47545
G01 X7.74178 Y-3.47912
G01 X7.58226 Y-3.63864
G01 Z-0.02362
G01 X7.40131 Y-3.81960
G01 Z-0.03656 F50.00000
G01 F100.00000
G01 X7.24178 Y-3.97912
G01 X7.23811 Y-3.98360
G01 X7.23538 Y-3.98870
G01 X7.23370 Y-3.99424
G01 X7.23313 Y-4.00000
G01 Z-0.04387 F50.00000 ( plunge. )
G04 P0 ( dwell for no time -- G64 should not smooth over this point )
G01 F100.00000
G01 X7.23313 Y-4.00000
G01 X7.23370 Y-4.00576
G01 X7.23538 Y-4.01130
G01 X7.23811 Y-4.01640
G01 X7.24178 Y-4.02088
G01 X7.24626 Y-4.02455
G01 X7.25136 Y-4.02728
G01 X7.25690 Y-4.02896
G01 X7.26266 Y-4.02953
G01 X7.38471 Y-4.02953
G01 Z-0.02362
G01 X7.64061 Y-4.02953
G01 Z-0.04387 F50.00000
G01 F100.00000
G01 X7.76266 Y-4.02953
G01 X7.76842 Y-4.02896
G01 X7.77396 Y-4.02728
G01 X7.77907 Y-4.02455
G01 X7.78354 Y-4.02088
G01 X7.78721 Y-4.01640
G01 X7.78994 Y-4.01130
G01 X7.79162 Y-4.00576
G01 X7.79219 Y-4.00000
G01 X7.79219 Y-3.87795
G01 Z-0.02362
G01 X7.79219 Y-3.62205
G01 Z-0.04387 F50.00000
G01 F100.00000
G01 X7.79219 Y-3.50000
G01 X7.79162 Y-3.49424
G01 X7.78994 Y-3.48870
G01 X7.78721 Y-3.48360
G01 X7.78354 Y-3.47912
G01 X7.77907 Y-3.47545
G01 X7.77396 Y-3.47272
G01 X7.76842 Y-3.47104
G01 X7.76266 Y-3.47047
G01 X7.75690 Y-3.47104
G01 X7.75136 Y-3.47272
G01 X7.74626 Y-3.47545
G01 X7.74178 Y-3.47912
G01 X7.58226 Y-3.63864
G01 Z-0.02362
G01 X7.40131 Y-3.81960
G01 Z-0.04387 F50.00000
G01 F100.00000
G01 X7.24178 Y-3.97912
G01 X7.23811 Y-3.98360
G01 X7.23538 Y-3.98870
G01 X7.23370 Y-3.99424
G01 X7.23313 Y-4.00000
G01 Z-0.05118 F50.00000 ( plunge. )
G04 P0 ( dwell for no time -- G64 should not smooth over this point )
G01 F100.00000
G01 X7.23313 Y-4.00000
G01 X7.23370 Y-4.00576
G01 X7.23538 Y-4.01130
G01 X7.23811 Y-4.01640
G01 X7.24178 Y-4.02088
G01 X7.24626 Y-4.02455
G01 X7.25136 Y-4.02728
G01 X7.25690 Y-4.02896
G01 X7.26266 Y-4.02953
G01 X7.38471 Y-4.02953
G01 Z-0.02362
G01 X7.64061 Y-4.02953
G01 Z-0.05118 F50.00000
G01 F100.00000
G01 X7.76266 Y-4.02953
G01 X7.76842 Y-4.02896
G01 X7.77396 Y-4.02728
G01 X7.77907 Y-4.02455
G01 X7.78354 Y-4.02088
G01 X7.78721 Y-4.01640
G01 X7.78994 Y-4.01130
G01 X7.79162 Y-4.00576
G01 X7.79219 Y-4.00000
G01 X7.79219 Y-3.87795
G01 Z-0.02362
G01 X7.79219 Y-3.62205
G01 Z-0.05118 F50.00000
G01 F100.00000
G01 X7.79219 Y-3.50000
G01 X7.79162 Y-3.49424
G01 X7.78994 Y-3.48870
G01 X7.78721 Y-3.48360
G01 X7.78354 Y-3.47912
G01 X7.77907 Y-3.47545
G01 X7.77396 Y-3.47272
G01 X7.76842 Y-3.47104
G01 X7.76266 Y-3.47047
G01 X7.75690 Y-3.47104
G01 X7.75136 Y-3.47272
G01 X7.74626 Y-3.47545
G01 X7.74178 Y-3.47912
G01 X7.58226 Y-3.63864
G01 Z-0.02362
G01 X7.40131 Y-3.81960
G01 Z-0.05118 F50.00000
G01 F100.00000
G01 X7.24178 Y-3.97912
G01 X7.23811 Y-3.98360
G01 X7.23538 Y-3.98870
G01 X7.23370 Y-3.99424
G01 X7.23313 Y-4.00000
G04 P0 ( dwell for no time -- G64 should not smooth over this point )
G00 Z0.08000 ( retract )

G00 X8.53313 Y-5.70000 ( rapid move to begin. )
G01 Z-0.00731 F50.00000 ( plunge. )
G04 P0 ( dwell for no time -- G64 should not smooth over this point )
G01 F100.00000
G01 X8.53313 Y-5.70000
G01 X8.53313 Y-5.47795
G01 X8.53313 Y-5.22205
G01 X8.53313 Y-5.00000
G01 X8.53370 Y-4.99424
G01 X8.53538 Y-4.98870
G01 X8.53811 Y-4.98360
G01 X8.54178 Y-4.97912
G01 X8.54626 Y-4.97545
G01 X8.55136 Y-4.97272
G01 X8.55690 Y-4.97104
G01 X8.56266 Y-4.97047
G01 X9.08471 Y-4.97047
G01 X9.34061 Y-4.97047
G01 X9.86266 Y-4.97047
G01 X9.86842 Y-4.97104
G01 X9.87396 Y-4.97272
G01 X9.87907 Y-4.97545
G01 X9.88354 Y-4.97912
G01 X9.88721 Y-4.98360
G01 X9.88994 Y-4.98870
G01 X9.89162 Y-4.99424
G01 X9.89219 Y-5.00000
G01 X9.89219 Y-5.22205
G01 X9.89219 Y-5.47795
G01 X9.89219 Y-5.70000
G01 X9.89162 Y-5.70576
G01 X9.88994 Y-5.71130
G01 X9.88721 Y-5.71640
G01 X9.88354 Y-5.72088
G01 X9.87907 Y-5.72455
G01 X9.87396 Y-5.72728
G01 X9.86842 Y-5.72896
G01 X9.86266 Y-5.72953
G01 X9.34061 Y-5.72953
G01 X9.08471 Y-5.72953
G01 X8.56266 Y-5.72953
G01 X8.55690 Y-5.72896
G01 X8.55136 Y-5.72728
G01 X8.54626 Y-5.72455
G01 X8.54178 Y-5.72088
G01 X8.53811 Y-5.71640
G01 X8.53538 Y-5.71130
G01 X8.53370 Y-5.70576
G01 X8.53313 Y-5.70000
G01 Z-0.01462 F50.00000 ( plunge. )
G04 P0 ( dwell for no time -- G64 should not smooth over this point )
G01 F100.00000
G01 X8.53313 Y-5.70000
G01 X8.53313 Y-5.47795
G01 X8.53313 Y-5.22205
G01 X8.53313 Y-5.00000
G01 X8.53370 Y-4.99424
G01 X8.53538 Y-4.98870
G01 X8.53811 Y-4.98360
G01 X8.54178 Y-4.97912
G01 X8.54626 Y-4.97545
G01 X8.55136 Y-4.97272
G01 X8.55690 Y-4.97104
G01 X8.56266 Y-4.97047
G01 X9.08471 Y-4.97047
G01 X9.34061 Y-4.97047
G01 X9.86266 Y-4.97047
G01 X9.86842 Y-4.97104
G01 X9.87396 Y-4.97272
G01 X9.87907 Y-4.97545
G01 X9.88354 Y-4.97912
G01 X9.88721 Y-4.98360
G01 X9.88994 Y-4.98870
G01 X9.89162 Y-4.99424
G01 X9.89219 Y-5.00000
G01 X9.89219 Y-5.22205
G01 X9.89219 Y-5.47795
G01 X9.89219 Y-5.70000
G01 X9.89162 Y-5.70576
G01 X9.88994 Y-5.71130
G01 X9.88721 Y-5.71640
G01 X9.88354 Y-5.72088
G01 X9.87907 Y-5.72455
G01 X9.87396 Y-5.72728
G01 X9.86842 Y-5.72896
G01 X9.86266 Y-5.72953
G01 X9.34061 Y-5.72953
G01 X9.08471 Y-5.72953
G01 X8.56266 Y-5.72953
G01 X8.55690 Y-5.72896
G01 X8.55136 Y-5.72728
G01 X8.54626 Y-5.72455
G01 X8.54178 Y-5.72088
G01 X8.53811 Y-5.71640
G01 X8.53538 Y-5.71130
G01 X8.53370 Y-5.70576
G01 X8.53313 Y-5.70000
G01 Z-0.02193 F50.00000 ( plunge. )
G04 P0 ( dwell for no time -- G64 should not smooth over this point )
G01 F100.00000
G01 X8.53313 Y-5.70000
G01 X8.53313 Y-5.47795
G01 X8.53313 Y-5.22205
G01 X8.53313 Y-5.00000
G01 X8.53370 Y-4.99424
G01 X8.53538 Y-4.98870
G01 X8.53811 Y-4.98360
G01 X8.54178 Y-4.97912
G01 X8.54626 Y-4.97545
G01 X8.55136 Y-4.97272
G01 X8.55690 Y-4.97104
G01 X8.56266 Y-4.97047
G01 X9.08471 Y-4.97047
G01 X9.34061 Y-4.97047
G01 X9.86266 Y-4.97047
G01 X9.86842 Y-4.97104
G01 X9.87396 Y-4.97272
G01 X9.87907 Y-4.97545
G01 X9.88354 Y-4.97912
G01 X9.88721 Y-4.98360
G01 X9.88994 Y-4.98870
G01 X9.89162 Y-4.99424
G01 X9.89219 Y-5.00000
G01 X9.89219 Y-5.22205
G01 X9.89219 Y-5.47795
G01 X9.89219 Y-5.70000
G01 X9.89162 Y-5.70576
G01 X9.88994 Y-5.71130
G01 X9.88721 Y-5.71640
G01 X9.88354 Y-5.72088
G01 X9.87907 Y-5.72455
G01 X9.87396 Y-5.72728
G01 X9.86842 Y-5.72896
G01 X9.86266 Y-5.72953
G01 X9.34061 Y-5.72953
G01 X9.08471 Y-5.72953
G01 X8.56266 Y-5.72953
G01 X8.55690 Y-5.72896
G01 X8.55136 Y-5.72728
G01 X8.54626 Y-5.72455
G01 X8.54178 Y-5.72088
G01 X8.53811 Y-5.71640
G01 X8.53538 Y-5.71130
G01 X8.53370 Y-5.70576
G01 X8.53313 Y-5.70000
G01 Z-0.02925 F50.00000 ( plunge. )
G04 P0 ( dwell for no time -- G64 should not smooth over this point )
G01 F100.00000
G01 X8.53313 Y-5.70000
G01 X8.53313 Y-5.47795
G01 Z-0.02362
G01 X8.53313 Y-5.22205
G01 Z-0.02925 F50.00000
G01 F100.00000
G01 X8.53313 Y-5.00000
G01 X8.53370 Y-4.99424
G01 X8.53538 Y-4.98870
G01 X8.53811 Y-4.98360
G01 X8.54178 Y-4.97912
G01 X8.54626 Y-4.97545
G01 X8.55136 Y-4.97272
G01 X8.55690 Y-4.97104
G01 X8.56266 Y-4.97047
G01 X9.08471 Y-4.97047
G01 Z-0.02362
G01 X9.34061 Y-4.97047
G01 Z-0.02925 F50.00000
G01 F100.00000
G01 X9.86266 Y-4.97047
G01 X9.86842 Y-4.97104
G01 X9.87396 Y-4.97272
G01 X9.87907 Y-4.97545
G01 X9.88354 Y-4.97912
G01 X9.88721 Y-4.98360
G01 X9.88994 Y-4.98870
G01 X9.89162 Y-4.99424
G01 X9.89219 Y-5.00000
G01 X9.89219 Y-5.22205
G01 Z-0.02362
G01 X9.89219 Y-5.47795
G01 Z-0.02925 F50.00000
G01 F100.00000
G01 X9.89219 Y-5.70000
G01 X9.89162 Y-5.70576
G01 X9.88994 Y-5.71130
G01 X9.88721 Y-5.71640
G01 X9.88354 Y-5.72088
G01 X9.87907 Y-5.72455
G01 X9.87396 Y-5.72728
G01 X9.86842 Y-5.72896
G01 X9.86266 Y-5.72953
G01 X9.34061 Y-5.72953
G01 Z-0.02362
G01 X9.08471 Y-5.72953
G01 Z-0.02925 F50.00000
G01 F100.00000
G01 X8.56266 Y-5.72953
G01 X8.55690 Y-5.72896
G01 X8.55136 Y-5.72728
G01 X8.54626 Y-5.72455
G01 X8.54178 Y-5.72088
G01 X8.53811 Y-5.71640
G01 X8.53538 Y-5.71130
G01 X8.53370 Y-5.70576
G01 X8.53313 Y-5.70000
G01 Z-0.03656 F50.00000 ( plunge. )
G04 P0 ( dwell for no time -- G64 should not smooth over this point )
G01 F100.00000
G01 X8.53313 Y-5.70000
G01 X8.53313 Y-5.47795
G01 Z-0.02362
G01 X8.53313 Y-5.22205
G01 Z-0.03656 F50.00000
G01 F100.00000
G01 X8.53313 Y-5.00000
G01 X8.53370 Y-4.99424
G01 X8.53538 Y-4.98870
G01 X8.53811 Y-4.98360
G01 X8.54178 Y-4.97912
G01 X8.54626 Y-4.97545
G01 X8.55136 Y-4.97272
G01 X8.55690 Y-4.97104
G01 X8.56266 Y-4.97047
G01 X9.08471 Y-4.97047
G01 Z-0.02362
G01 X9.34061 Y-4.97047
G01 Z-0.03656 F50.00000
G01 F100.00000
G01 X9.86266 Y-4.97047
G01 X9.86842 Y-4.97104
G01 X9.87396 Y-4.97272
G01 X9.87907 Y-4.97545
G01 X9.88354 Y-4.97912
G01 X9.88721 Y-4.98360
G01 X9.88994 Y-4.98870
G01 X9.89162 Y-4.99424
G01 X9.89219 Y-5.00000
G01 X9.89219 Y-5.22205
G01 Z-0.02362
G01 X9.89219 Y-5.47795
G01 Z-0.03656 F50.00000
G01 F100.00000
G01 X9.89219 Y-5.70000
G01 X9.89162 Y-5.70576
G01 X9.88994 Y-5.71130
G01 X9.88721 Y-5.71640
G01 X9.88354 Y-5.72088
G01 X9.87907 Y-5.72455
G01 X9.87396 Y-5.72728
G01 X9.86842 Y-5.72896
G01 X9.86266 Y-5.72953
G01 X9.34061 Y-5.72953
G01 Z-0.02362
G01 X9.08471 Y-5.72953
G01 Z-0.03656 F50.00000
G01 F100.00000
G01 X8.56266 Y-5.72953
G01 X8.55690 Y-5.72896
G01 X8.55136 Y-5.72728
G01 X8.54626 Y-5.72455
G01 X8.54178 Y-5.72088
G01 X8.53811 Y-5.71640
G01 X8.53538 Y-5.71130
G01 X8.53370 Y-5.70576
G01 X8.53313 Y-5.70000
G01 Z-0.04387 F50.00000 ( plunge. )
G04 P0 ( dwell for no time -- G64 should not smooth over this point )
G01 F100.00000
G01 X8.53313 Y-5.70000
G01 X8.53313 Y-5.47795
G01 Z-0.02362
G01 X8.53313 Y-5.22205
G01 Z-0.04387 F50.00000
G01 F100.00000
G01 X8.53313 Y-5.00000
G01 X8.53370 Y-4.99424
G01 X8.53538 Y-4.98870
G01 X8.53811 Y-4.98360
G01 X8.54178 Y-4.97912
G01 X8.54626 Y-4.97545
G01 X8.55136 Y-4.97272
G01 X8.55690 Y-4.97104
G01 X8.56266 Y-4.97047
G01 X9.08471 Y-4.97047
G01 Z-0.02362
G01 X9.34061 Y-4.97047
G01 Z-0.04387 F50.00000
G01 F100.00000
G01 X9.86266 Y-4.97047
G01 X9.86842 Y-4.97104
G01 X9.87396 Y-4.97272
G01 X9.87907 Y-4.97545
G01 X9.88354 Y-4.97912
G01 X9.88721 Y-4.98360
G01 X9.88994 Y-4.98870
G01 X9.89162 Y-4.99424
G01 X9.89219 Y-5.00000
G01 X9.89219 Y-5.22205
G01 Z-0.02362
G01 X9.89219 Y-5.47795
G01 Z-0.04387 F50.00000
G01 F100.00000
G01 X9.89219 Y-5.70000
G01 X9.89162 Y-5.70576
G01 X9.88994 Y-5.71130
G01 X9.88721 Y-5.71640
G01 X9.88354 Y-5.72088
G01 X9.87907 Y-5.72455
G01 X9.87396 Y-5.72728
G01 X9.86842 Y-5.72896
G01 X9.86266 Y-5.72953
G01 X9.34061 Y-5.72953
G01 Z-0.02362
G01 X9.08471 Y-5.72953
G01 Z-0.04387 F50.00000
G01 F100.00000
G01 X8.56266 Y-5.72953
G01 X8.55690 Y-5.72896
G01 X8.55136 Y-5.72728
G01 X8.54626 Y-5.72455
G01 X8.54178 Y-5.72088
G01 X8.53811 Y-5.71640
G01 X8.53538 Y-5.71130
G01 X8.53370 Y-5.70576
G01 X8.53313 Y-5.70000
G01 Z-0.05118 F50.00000 ( plunge. )
G04 P0 ( dwell for no time -- G64 should not smooth over this point )
G01 F100.00000
G01 X8.53313 Y-5.70000
G01 X8.53313 Y-5.47795
G01 Z-0.02362
G01 X8.53313 Y-5.22205
G01 Z-0.05118 F50.00000
G01 F100.00000
G01 X8.53313 Y-5.00000
G01 X8.53370 Y-4.99424
G01 X8.53538 Y-4.98870
G01 X8.53811 Y-4.98360
G01 X8.54178 Y-4.97912
G01 X8.54626 Y-4.97545
G01 X8.55136 Y-4.97272
G01 X8.55690 Y-4.97104
G01 X8.56266 Y-4.97047
G01 X9.08471 Y-4.97047
G01 Z-0.02362
G01 X9.34061 Y-4.97047
G01 Z-0.05118 F50.00000
G01 F100.00000
G01 X9.86266 Y-4.97047
G01 X9.86842 Y-4.97104
G01 X9.87396 Y-4.97272
G01 X9.87907 Y-4.97545
G01 X9.88354 Y-4.97912
G01 X9.88721 Y-4.98360
G01 X9.88994 Y-4.98870
G01 X9.89162 Y-4.99424
G01 X9.89219 Y-5.00000
G01 X9.89219 Y-5.22205
G01 Z-0.02362
G01 X9.89219 Y-5.47795
G01 Z-0.05118 F50.00000
G01 F100.00000
G01 X9.89219 Y-5.70000
G01 X9.89162 Y-5.70576
G01 X9.88994 Y-5.71130
G01 X9.88721 Y-5.71640
G01 X9.88354 Y-5.72088
G01 X9.87907 Y-5.72455
G01 X9.87396 Y-5.72728
G01 X9.86842 Y-5.72896
G01 X9.86266 Y-5.72953
G01 X9.34061 Y-5.72953
G01 Z-0.02362
G01 X9.08471 Y-5.72953
G01 Z-0.05118 F50.00000
G01 F100.00000
G01 X8.56266 Y-5.72953
G01 X8.55690 Y-5.72896
G01 X8.55136 Y-5.72728
G01 X8.54626 Y-5.72455
G01 X8.54178 Y-5.72088
G01 X8.53811 Y-5.71640
G01 X8.53538 Y-5.71130
G01 X8.53370 Y-5.70576
G01 X8.53313 Y-5.70000
( Piece #3, position [0;1] )

G04 P0 ( dwell for no time -- G64 should not smooth over this point )
G00 Z0.08000 ( retract )

G00 X7.23313 Y-1.73104 ( rapid move to begin. )
G01 Z-0.00731 F50.00000 ( plunge. )
G04 P0 ( dwell for no time -- G64 should not smooth over this point )
G01 F100.00000
G01 X7.23313 Y-1.73104
G01 X7.23370 Y-1.73680
G01 X7.23538 Y-1.74234
G01 X7.23811 Y-1.74744
G01 X7.24178 Y-1.75192
G01 X7.24626 Y-1.75559
G01 X7.25136 Y-1.75832
G01 X7.25690 Y-1.76000
G01 X7.26266 Y-1.76057
G01 X7.38471 Y-1.76057
G01 X7.64061 Y-1.76057
G01 X7.76266 Y-1.76057
G01 X7.76842 Y-1.76000
G01 X7.77396 Y-1.75832
G01 X7.77907 Y-1.75559
G01 X7.78354 Y-1.75192
G01 X7.78721 Y-1.74744
G01 X7.78994 Y-1.74234
G01 X7.79162 Y-1.73680
G01 X7.79219 Y-1.73104
G01 X7.79219 Y-1.60899
G01 X7.79219 Y-1.35309
G01 X7.79219 Y-1.23104
G01 X7.79162 Y-1.22528
G01 X7.78994 Y-1.21974
G01 X7.78721 Y-1.21463
G01 X7.78354 Y-1.21016
G01 X7.77907 Y-1.20649
G01 X7.77396 Y-1.20376
G01 X7.76842 Y-1.20208
G01 X7.76266 Y-1.20151
G01 X7.75690 Y-1.20208
G01 X7.75136 Y-1.20376
G01 X7.74626 Y-1.20649
G01 X7.74178 Y-1.21016
G01 X7.58226 Y-1.36968
G01 X7.40131 Y-1.55064
G01 X7.24178 Y-1.71016
G01 X7.23811 Y-1.71463
G01 X7.23538 Y-1.71974
G01 X7.23370 Y-1.72528
G01 X7.23313 Y-1.73104
G01 Z-0.01462 F50.00000 ( plunge. )
G04 P0 ( dwell for no time -- G64 should not smooth over this point )
G01 F100.00000
G01 X7.23313 Y-1.73104
G01 X7.23370 Y-1.73680
G01 X7.23538 Y-1.74234
G01 X7.23811 Y-1.74744
G01 X7.24178 Y-1.75192
G01 X7.24626 Y-1.75559
G01 X7.25136 Y-1.75832
G01 X7.25690 Y-1.76000
G01 X7.26266 Y-1.76057
G01 X7.38471 Y-1.76057
G01 X7.64061 Y-1.76057
G01 X7.76266 Y-1.76057
G01 X7.76842 Y-1.76000
G01 X7.77396 Y-1.75832
G01 X7.77907 Y-1.75559
G01 X7.78354 Y-1.75192
G01 X7.78721 Y-1.74744
G01 X7.78994 Y-1.74234
G01 X7.79162 Y-1.73680
G01 X7.79219 Y-1.73104
G01 X7.79219 Y-1.60899
G01 X7.79219 Y-1.35309
G01 X7.79219 Y-1.23104
G01 X7.79162 Y-1.22528
G01 X7.78994 Y-1.21974
G01 X7.78721 Y-1.21463
G01 X7.78354 Y-1.21016
G01 X7.77907 Y-1.20649
G01 X7.77396 Y-1.20376
G01 X7.76842 Y-1.20208
G01 X7.76266 Y-1.20151
G01 X7.75690 Y-1.20208
G01 X7.75136 Y-1.20376
G01 X7.74626 Y-1.20649
G01 X7.74178 Y-1.21016
G01 X7.58226 Y-1.36968
G01 X7.40131 Y-1.55064
G01 X7.24178 Y-1.71016
G01 X7.23811 Y-1.71463
G01 X7.23538 Y-1.71974
G01 X7.23370 Y-1.72528
G01 X7.23313 Y-1.73104
G01 Z-0.02193 F50.00000 ( plunge. )
G04 P0 ( dwell for no time -- G64 should not smooth over this point )
G01 F100.00000
G01 X7.23313 Y-1.73104
G01 X7.23370 Y-1.73680
G01 X7.23538 Y-1.74234
G01 X7.23811 Y-1.74744
G01 X7.24178 Y-1.75192
G01 X7.24626 Y-1.75559
G01 X7.25136 Y-1.75832
G01 X7.25690 Y-1.76000
G01 X7.26266 Y-1.76057
G01 X7.38471 Y-1.76057
G01 X7.64061 Y-1.76057
G01 X7.76266 Y-1.76057
G01 X7.76842 Y-1.76000
G01 X7.77396 Y-1.75832
G01 X7.77907 Y-1.75559
G01 X7.78354 Y-1.75192
G01 X7.78721 Y-1.74744
G01 X7.78994 Y-1.74234
G01 X7.79162 Y-1.73680
G01 X7.79219 Y-1.73104
G01 X7.79219 Y-1.60899
G01 X7.79219 Y-1.35309
G01 X7.79219 Y-1.23104
G01 X7.79162 Y-1.22528
G01 X7.78994 Y-1.21974
G01 X7.78721 Y-1.21463
G01 X7.78354 Y-1.21016
G01 X7.77907 Y-1.20649
G01 X7.77396 Y-1.20376
G01 X7.76842 Y-1.20208
G01 X7.76266 Y-1.20151
G01 X7.75690 Y-1.20208
G01 X7.75136 Y-1.20376
G01 X7.74626 Y-1.20649
G01 X7.74178 Y-1.21016
G01 X7.58226 Y-1.36968
G01 X7.40131 Y-1.55064
G01 X7.24178 Y-1.71016
G01 X7.23811 Y-1.71463
G01 X7.23538 Y-1.71974
G01 X7.23370 Y-1.72528
G01 X7.23313 Y-1.73104
G01 Z-0.02925 F50.00000 ( plunge. )
G04 P0 ( dwell for no time -- G64 should not smooth over this point )
G01 F100.00000
G01 X7.23313 Y-1.73104
G01 X7.23370 Y-1.73680
G01 X7.23538 Y-1.74234
G01 X7.23811 Y-1.74744
G01 X7.24178 Y-1.75192
G01 X7.24626 Y-1.75559
G01 X7.25136 Y-1.75832
G01 X7.25690 Y-1.76000
G01 X7.26266 Y-1.76057
G01 X7.38471 Y-1.76057
G01 Z-0.02362
G01 X7.64061 Y-1.76057
G01 Z-0.02925 F50.00000
G01 F100.00000
G01 X7.76266 Y-1.76057
G01 X7.76842 Y-1.76000
G01 X7.77396 Y-1.75832
G01 X7.77907 Y-1.75559
G01 X7.78354 Y-1.75192
G01 X7.78721 Y-1.74744
G01 X7.78994 Y-1.74234
G01 X7.79162 Y-1.73680
G01 X7.79219 Y-1.73104
G01 X7.79219 Y-1.60899
G01 Z-0.02362
G01 X7.79219 Y-1.35309
G01 Z-0.02925 F50.00000
G01 F100.00000
G01 X7.79219 Y-1.23104
G01 X7.79162 Y-1.22528
G01 X7.78994 Y-1.21974
G01 X7.78721 Y-1.21463
G01 X7.78354 Y-1.21016
G01 X7.77907 Y-1.20649
G01 X7.77396 Y-1.20376
G01 X7.76842 Y-1.20208
G01 X7.76266 Y-1.20151
G01 X7.75690 Y-1.20208
G01 X7.75136 Y-1.20376
G01 X7.74626 Y-1.20649
G01 X7.74178 Y-1.21016
G01 X7.58226 Y-1.36968
G01 Z-0.02362
G01 X7.40131 Y-1.55064
G01 Z-0.02925 F50.00000
G01 F100.00000
G01 X7.24178 Y-1.71016
G01 X7.23811 Y-1.71463
G01 X7.23538 Y-1.71974
G01 X7.23370 Y-1.72528
G01 X7.23313 Y-1.73104
G01 Z-0.03656 F50.00000 ( plunge. )
G04 P0 ( dwell for no time -- G64 should not smooth over this point )
G01 F100.00000
G01 X7.23313 Y-1.73104
G01 X7.23370 Y-1.73680
G01 X7.23538 Y-1.74234
G01 X7.23811 Y-1.74744
G01 X7.24178 Y-1.75192
G01 X7.24626 Y-1.75559
G01 X7.25136 Y-1.75832
G01 X7.25690 Y-1.76000
G01 X7.26266 Y-1.76057
G01 X7.38471 Y-1.76057
G01 Z-0.02362
G01 X7.64061 Y-1.76057
G01 Z-0.03656 F50.00000
G01 F100.00000
G01 X7.76266 Y-1.76057
G01 X7.76842 Y-1.76000
G01 X7.77396 Y-1.75832
G01 X7.77907 Y-1.75559
G01 X7.78354 Y-1.75192
G01 X7.78721 Y-1.74744
G01 X7.78994 Y-1.74234
G01 X7.79162 Y-1.73680
G01 X7.79219 Y-1.73104
G01 X7.79219 Y-1.60899
G01 Z-0.02362
G01 X7.79219 Y-1.35309
G01 Z-0.03656 F50.00000
G01 F100.00000
G01 X7.79219 Y-1.23104
G01 X7.79162 Y-1.22528
G01 X7.78994 Y-1.21974
G01 X7.78721 Y-1.21463
G01 X7.78354 Y-1.21016
G01 X7.77907 Y-1.20649
G01 X7.77396 Y-1.20376
G01 X7.76842 Y-1.20208
G01 X7.76266 Y-1.20151
G01 X7.75690 Y-1.20208
G01 X7.75136 Y-1.20376
G01 X7.74626 Y-1.20649
G01 X7.74178 Y-1.21016
G01 X7.58226 Y-1.36968
G01 Z-0.02362
G01 X7.40131 Y-1.55064
G01 Z-0.03656 F50.00000
G01 F100.00000
G01 X7.24178 Y-1.71016
G01 X7.23811 Y-1.71463
G01 X7.23538 Y-1.71974
G01 X7.23370 Y-1.72528
G01 X7.23313 Y-1.73104
G01 Z-0.04387 F50.00000 ( plunge. )
G04 P0 ( dwell for no time -- G64 should not smooth over this point )
G01 F100.00000
G01 X7.23313 Y-1.73104
G01 X7.23370 Y-1.73680
G01 X7.23538 Y-1.74234
G01 X7.23811 Y-1.74744
G01 X7.24178 Y-1.75192
G01 X7.24626 Y-1.75559
G01 X7.25136 Y-1.75832
G01 X7.25690 Y-1.76000
G01 X7.26266 Y-1.76057
G01 X7.38471 Y-1.76057
G01 Z-0.02362
G01 X7.64061 Y-1.76057
G01 Z-0.04387 F50.00000
G01 F100.00000
G01 X7.76266 Y-1.76057
G01 X7.76842 Y-1.76000
G01 X7.77396 Y-1.75832
G01 X7.77907 Y-1.75559
G01 X7.78354 Y-1.75192
G01 X7.78721 Y-1.74744
G01 X7.78994 Y-1.74234
G01 X7.79162 Y-1.73680
G01 X7.79219 Y-1.73104
G01 X7.79219 Y-1.60899
G01 Z-0.02362
G01 X7.79219 Y-1.35309
G01 Z-0.04387 F50.00000
G01 F100.00000
G01 X7.79219 Y-1.23104
G01 X7.79162 Y-1.22528
G01 X7.78994 Y-1.21974
G01 X7.78721 Y-1.21463
G01 X7.78354 Y-1.21016
G01 X7.77907 Y-1.20649
G01 X7.77396 Y-1.20376
G01 X7.76842 Y-1.20208
G01 X7.76266 Y-1.20151
G01 X7.75690 Y-1.20208
G01 X7.75136 Y-1.20376
G01 X7.74626 Y-1.20649
G01 X7.74178 Y-1.21016
G01 X7.58226 Y-1.36968
G01 Z-0.02362
G01 X7.40131 Y-1.55064
G01 Z-0.04387 F50.00000
G01 F100.00000
G01 X7.24178 Y-1.71016
G01 X7.23811 Y-1.71463
G01 X7.23538 Y-1.71974
G01 X7.23370 Y-1.72528
G01 X7.23313 Y-1.73104
G01 Z-0.05118 F50.00000 ( plunge. )
G04 P0 ( dwell for no time -- G64 should not smooth over this point )
G01 F100.00000
G01 X7.23313 Y-1.73104
G01 X7.23370 Y-1.73680
G01 X7.23538 Y-1.74234
G01 X7.23811 Y-1.74744
G01 X7.24178 Y-1.75192
G01 X7.24626 Y-1.75559
G01 X7.25136 Y-1.75832
G01 X7.25690 Y-1.76000
G01 X7.26266 Y-1.76057
G01 X7.38471 Y-1.76057
G01 Z-0.02362
G01 X7.64061 Y-1.76057
G01 Z-0.05118 F50.00000
G01 F100.00000
G01 X7.76266 Y-1.76057
G01 X7.76842 Y-1.76000
G01 X7.77396 Y-1.75832
G01 X7.77907 Y-1.75559
G01 X7.78354 Y-1.75192
G01 X7.78721 Y-1.74744
G01 X7.78994 Y-1.74234
G01 X7.79162 Y-1.73680
G01 X7.79219 Y-1.73104
G01 X7.79219 Y-1.60899
G01 Z-0.02362
G01 X7.79219 Y-1.35309
G01 Z-0.05118 F50.00000
G01 F100.00000
G01 X7.79219 Y-1.23104
G01 X7.79162 Y-1.22528
G01 X7.78994 Y-1.21974
G01 X7.78721 Y-1.21463
G01 X7.78354 Y-1.21016
G01 X7.77907 Y-1.20649
G01 X7.77396 Y-1.20376
G01 X7.76842 Y-1.20208
G01 X7.76266 Y-1.20151
G01 X7.75690 Y-1.20208
G01 X7.75136 Y-1.20376
G01 X7.74626 Y-1.20649
G01 X7.74178 Y-1.21016
G01 X7.58226 Y-1.36968
G01 Z-0.02362
G01 X7.40131 Y-1.55064
G01 Z-0.05118 F50.00000
G01 F100.00000
G01 X7.24178 Y-1.71016
G01 X7.23811 Y-1.71463
G01 X7.23538 Y-1.71974
G01 X7.23370 Y-1.72528
G01 X7.23313 Y-1.73104
G04 P0 ( dwell for no time -- G64 should not smooth over this point )
G00 Z0.08000 ( retract )

G00 X8.53313 Y-3.43104 ( rapid move to begin. )
G01 Z-0.00731 F50.00000 ( plunge. )
G04 P0 ( dwell for no time -- G64 should not smooth over this point )
G01 F100.00000
G01 X8.53313 Y-3.43104
G01 X8.53313 Y-3.20899
G01 X8.53313 Y-2.95309
G01 X8.53313 Y-2.73104
G01 X8.53370 Y-2.72528
G01 X8.53538 Y-2.71974
G01 X8.53811 Y-2.71463
G01 X8.54178 Y-2.71016
G01 X8.54626 Y-2.70649
G01 X8.55136 Y-2.70376
G01 X8.55690 Y-2.70208
G01 X8.56266 Y-2.70151
G01 X9.08471 Y-2.70151
G01 X9.34061 Y-2.70151
G01 X9.86266 Y-2.70151
G01 X9.86842 Y-2.70208
G01 X9.87396 Y-2.70376
G01 X9.87907 Y-2.70649
G01 X9.88354 Y-2.71016
G01 X9.88721 Y-2.71463
G01 X9.88994 Y-2.71974
G01 X9.89162 Y-2.72528
G01 X9.89219 Y-2.73104
G01 X9.89219 Y-2.95309
G01 X9.89219 Y-3.20899
G01 X9.89219 Y-3.43104
G01 X9.89162 Y-3.43680
G01 X9.88994 Y-3.44234
G01 X9.88721 Y-3.44744
G01 X9.88354 Y-3.45192
G01 X9.87907 Y-3.45559
G01 X9.87396 Y-3.45832
G01 X9.86842 Y-3.46000
G01 X9.86266 Y-3.46057
G01 X9.34061 Y-3.46057
G01 X9.08471 Y-3.46057
G01 X8.56266 Y-3.46057
G01 X8.55690 Y-3.46000
G01 X8.55136 Y-3.45832
G01 X8.54626 Y-3.45559
G01 X8.54178 Y-3.45192
G01 X8.53811 Y-3.44744
G01 X8.53538 Y-3.44234
G01 X8.53370 Y-3.43680
G01 X8.53313 Y-3.43104
G01 Z-0.01462 F50.00000 ( plunge. )
G04 P0 ( dwell for no time -- G64 should not smooth over this point )
G01 F100.00000
G01 X8.53313 Y-3.43104
G01 X8.53313 Y-3.20899
G01 X8.53313 Y-2.95309
G01 X8.53313 Y-2.73104
G01 X8.53370 Y-2.72528
G01 X8.53538 Y-2.71974
G01 X8.53811 Y-2.71463
G01 X8.54178 Y-2.71016
G01 X8.54626 Y-2.70649
G01 X8.55136 Y-2.70376
G01 X8.55690 Y-2.70208
G01 X8.56266 Y-2.70151
G01 X9.08471 Y-2.70151
G01 X9.34061 Y-2.70151
G01 X9.86266 Y-2.70151
G01 X9.86842 Y-2.70208
G01 X9.87396 Y-2.70376
G01 X9.87907 Y-2.70649
G01 X9.88354 Y-2.71016
G01 X9.88721 Y-2.71463
G01 X9.88994 Y-2.71974
G01 X9.89162 Y-2.72528
G01 X9.89219 Y-2.73104
G01 X9.89219 Y-2.95309
G01 X9.89219 Y-3.20899
G01 X9.89219 Y-3.43104
G01 X9.89162 Y-3.43680
G01 X9.88994 Y-3.44234
G01 X9.88721 Y-3.44744
G01 X9.88354 Y-3.45192
G01 X9.87907 Y-3.45559
G01 X9.87396 Y-3.45832
G01 X9.86842 Y-3.46000
G01 X9.86266 Y-3.46057
G01 X9.34061 Y-3.46057
G01 X9.08471 Y-3.46057
G01 X8.56266 Y-3.46057
G01 X8.55690 Y-3.46000
G01 X8.55136 Y-3.45832
G01 X8.54626 Y-3.45559
G01 X8.54178 Y-3.45192
G01 X8.53811 Y-3.44744
G01 X8.53538 Y-3.44234
G01 X8.53370 Y-3.43680
G01 X8.53313 Y-3.43104
G01 Z-0.02193 F50.00000 ( plunge. )
G04 P0 ( dwell for no time -- G64 should not smooth over this point )
G01 F100.00000
G01 X8.53313 Y-3.43104
G01 X8.53313 Y-3.20899
G01 X8.53313 Y-2.95309
G01 X8.53313 Y-2.73104
G01 X8.53370 Y-2.72528
G01 X8.53538 Y-2.71974
G01 X8.53811 Y-2.71463
G01 X8.54178 Y-2.71016
G01 X8.54626 Y-2.70649
G01 X8.55136 Y-2.70376
G01 X8.55690 Y-2.70208
G01 X8.56266 Y-2.70151
G01 X9.08471 Y-2.70151
G01 X9.34061 Y-2.70151
G01 X9.86266 Y-2.70151
G01 X9.86842 Y-2.70208
G01 X9.87396 Y-2.70376
G01 X9.87907 Y-2.70649
G01 X9.88354 Y-2.71016
G01 X9.88721 Y-2.71463
G01 X9.88994 Y-2.71974
G01 X9.89162 Y-2.72528
G01 X9.89219 Y-2.73104
G01 X9.89219 Y-2.95309
G01 X9.89219 Y-3.20899
G01 X9.89219 Y-3.43104
G01 X9.89162 Y-3.43680
G01 X9.88994 Y-3.44234
G01 X9.88721 Y-3.44744
G01 X9.88354 Y-3.45192
G01 X9.87907 Y-3.45559
G01 X9.87396 Y-3.45832
G01 X9.86842 Y-3.46000
G01 X9.86266 Y-3.46057
G01 X9.34061 Y-3.46057
G01 X9.08471 Y-3.46057
G01 X8.56266 Y-3.46057
G01 X8.55690 Y-3.46000
G01 X8.55136 Y-3.45832
G01 X8.54626 Y-3.45559
G01 X8.54178 Y-3.45192
G01 X8.53811 Y-3.44744
G01 X8.53538 Y-3.44234
G01 X8.53370 Y-3.43680
G01 X8.53313 Y-3.43104
G01 Z-0.02925 F50.00000 ( plunge. )
G04 P0 ( dwell for no time -- G64 should not smooth over this point )
G01 F100.00000
G01 X8.53313 Y-3.43104
G01 X8.53313 Y-3.20899
G01 Z-0.02362
G01 X8.53313 Y-2.95309
G01 Z-0.02925 F50.00000
G01 F100.00000
G01 X8.53313 Y-2.73104
G01 X8.53370 Y-2.72528
G01 X8.53538 Y-2.71974
G01 X8.53811 Y-2.71463
G01 X8.54178 Y-2.71016
G01 X8.54626 Y-2.70649
G01 X8.55136 Y-2.70376
G01 X8.55690 Y-2.70208
G01 X8.56266 Y-2.70151
G01 X9.08471 Y-2.70151
G01 Z-0.02362
G01 X9.34061 Y-2.70151
G01 Z-0.02925 F50.00000
G01 F100.00000
G01 X9.86266 Y-2.70151
G01 X9.86842 Y-2.70208
G01 X9.87396 Y-2.70376
G01 X9.87907 Y-2.70649
G01 X9.88354 Y-2.71016
G01 X9.88721 Y-2.71463
G01 X9.88994 Y-2.71974
G01 X9.89162 Y-2.72528
G01 X9.89219 Y-2.73104
G01 X9.89219 Y-2.95309
G01 Z-0.02362
G01 X9.89219 Y-3.20899
G01 Z-0.02925 F50.00000
G01 F100.00000
G01 X9.89219 Y-3.43104
G01 X9.89162 Y-3.43680
G01 X9.88994 Y-3.44234
G01 X9.88721 Y-3.44744
G01 X9.88354 Y-3.45192
G01 X9.87907 Y-3.45559
G01 X9.87396 Y-3.45832
G01 X9.86842 Y-3.46000
G01 X9.86266 Y-3.46057
G01 X9.34061 Y-3.46057
G01 Z-0.02362
G01 X9.08471 Y-3.46057
G01 Z-0.02925 F50.00000
G01 F100.00000
G01 X8.56266 Y-3.46057
G01 X8.55690 Y-3.46000
G01 X8.55136 Y-3.45832
G01 X8.54626 Y-3.45559
G01 X8.54178 Y-3.45192
G01 X8.53811 Y-3.44744
G01 X8.53538 Y-3.44234
G01 X8.53370 Y-3.43680
G01 X8.53313 Y-3.43104
G01 Z-0.03656 F50.00000 ( plunge. )
G04 P0 ( dwell for no time -- G64 should not smooth over this point )
G01 F100.00000
G01 X8.53313 Y-3.43104
G01 X8.53313 Y-3.20899
G01 Z-0.02362
G01 X8.53313 Y-2.95309
G01 Z-0.03656 F50.00000
G01 F100.00000
G01 X8.53313 Y-2.73104
G01 X8.53370 Y-2.72528
G01 X8.53538 Y-2.71974
G01 X8.53811 Y-2.71463
G01 X8.54178 Y-2.71016
G01 X8.54626 Y-2.70649
G01 X8.55136 Y-2.70376
G01 X8.55690 Y-2.70208
G01 X8.56266 Y-2.70151
G01 X9.08471 Y-2.70151
G01 Z-0.02362
G01 X9.34061 Y-2.70151
G01 Z-0.03656 F50.00000
G01 F100.00000
G01 X9.86266 Y-2.70151
G01 X9.86842 Y-2.70208
G01 X9.87396 Y-2.70376
G01 X9.87907 Y-2.70649
G01 X9.88354 Y-2.71016
G01 X9.88721 Y-2.71463
G01 X9.88994 Y-2.71974
G01 X9.89162 Y-2.72528
G01 X9.89219 Y-2.73104
G01 X9.89219 Y-2.95309
G01 Z-0.02362
G01 X9.89219 Y-3.20899
G01 Z-0.03656 F50.00000
G01 F100.00000
G01 X9.89219 Y-3.43104
G01 X9.89162 Y-3.43680
G01 X9.88994 Y-3.44234
G01 X9.88721 Y-3.44744
G01 X9.88354 Y-3.45192
G01 X9.87907 Y-3.45559
G01 X9.87396 Y-3.45832
G01 X9.86842 Y-3.46000
G01 X9.86266 Y-3.46057
G01 X9.34061 Y-3.46057
G01 Z-0.02362
G01 X9.08471 Y-3.46057
G01 Z-0.03656 F50.00000
G01 F100.00000
G01 X8.56266 Y-3.46057
G01 X8.55690 Y-3.46000
G01 X8.55136 Y-3.45832
G01 X8.54626 Y-3.45559
G01 X8.54178 Y-3.45192
G01 X8.53811 Y-3.44744
G01 X8.53538 Y-3.44234
G01 X8.53370 Y-3.43680
G01 X8.53313 Y-3.43104
G01 Z-0.04387 F50.00000 ( plunge. )
G04 P0 ( dwell for no time -- G64 should not smooth over this point )
G01 F100.00000
G01 X8.53313 Y-3.43104
G01 X8.53313 Y-3.20899
G01 Z-0.02362
G01 X8.53313 Y-2.95309
G01 Z-0.04387 F50.00000
G01 F100.00000
G01 X8.53313 Y-2.73104
G01 X8.53370 Y-2.72528
G01 X8.53538 Y-2.71974
G01 X8.53811 Y-2.71463
G01 X8.54178 Y-2.71016
G01 X8.54626 Y-2.70649
G01 X8.55136 Y-2.70376
G01 X8.55690 Y-2.70208
G01 X8.56266 Y-2.70151
G01 X9.08471 Y-2.70151
G01 Z-0.02362
G01 X9.34061 Y-2.70151
G01 Z-0.04387 F50.00000
G01 F100.00000
G01 X9.86266 Y-2.70151
G01 X9.86842 Y-2.70208
G01 X9.87396 Y-2.70376
G01 X9.87907 Y-2.70649
G01 X9.88354 Y-2.71016
G01 X9.88721 Y-2.71463
G01 X9.88994 Y-2.71974
G01 X9.89162 Y-2.72528
G01 X9.89219 Y-2.73104
G01 X9.89219 Y-2.95309
G01 Z-0.02362
G01 X9.89219 Y-3.20899
G01 Z-0.04387 F50.00000
G01 F100.00000
G01 X9.89219 Y-3.43104
G01 X9.89162 Y-3.43680
G01 X9.88994 Y-3.44234
G01 X9.88721 Y-3.44744
G01 X9.88354 Y-3.45192
G01 X9.87907 Y-3.45559
G01 X9.87396 Y-3.45832
G01 X9.86842 Y-3.46000
G01 X9.86266 Y-3.46057
G01 X9.34061 Y-3.46057
G01 Z-0.02362
G01 X9.08471 Y-3.46057
G01 Z-0.04387 F50.00000
G01 F100.00000
G01 X8.56266 Y-3.46057
G01 X8.55690 Y-3.46000
G01 X8.55136 Y-3.45832
G01 X8.54626 Y-3.45559
G01 X8.54178 Y-3.45192
G01 X8.53811 Y-3.44744
G01 X8.53538 Y-3.44234
G01 X8.53370 Y-3.43680
G01 X8.53313 Y-3.43104
G01 Z-0.05118 F50.00000 ( plunge. )
G04 P0 ( dwell for no time -- G64 should not smooth over this point )
G01 F100.00000
G01 X8.53313 Y-3.43104
G01 X8.53313 Y-3.20899
G01 Z-0.02362
G01 X8.53313 Y-2.95309
G01 Z-0.05118 F50.00000
G01 F100.00000
G01 X8.53313 Y-2.73104
G01 X8.53370 Y-2.72528
G01 X8.53538 Y-2.71974
G01 X8.53811 Y-2.71463
G01 X8.54178 Y-2.71016
G01 X8.54626 Y-2.70649
G01 X8.55136 Y-2.70376
G01 X8.55690 Y-2.70208
G01 X8.56266 Y-2.70151
G01 X9.08471 Y-2.70151
G01 Z-0.02362
G01 X9.34061 Y-2.70151
G01 Z-0.05118 F50.00000
G01 F100.00000
G01 X9.86266 Y-2.70151
G01 X9.86842 Y-2.70208
G01 X9.87396 Y-2.70376
G01 X9.87907 Y-2.70649
G01 X9.88354 Y-2.71016
G01 X9.88721 Y-2.71463
G01 X9.88994 Y-2.71974
G01 X9.89162 Y-2.72528
G01 X9.89219 Y-2.73104
G01 X9.89219 Y-2.95309
G01 Z-0.02362
G01 X9.89219 Y-3.20899
G01 Z-0.05118 F50.00000
G01 F100.00000
G01 X9.89219 Y-3.43104
G01 X9.89162 Y-3.43680
G01 X9.88994 Y-3.44234
G01 X9.88721 Y-3.44744
G01 X9.88354 Y-3.45192
G01 X9.87907 Y-3.45559
G01 X9.87396 Y-3.45832
G01 X9.86842 Y-3.46000
G01 X9.86266 Y-3.46057
G01 X9.34061 Y-3.46057
G01 Z-0.02362
G01 X9.08471 Y-3.46057
G01 Z-0.05118 F50.00000
G01 F100.00000
G01 X8.56266 Y-3.46057
G01 X8.55690 Y-3.46000
G01 X8.55136 Y-3.45832
G01 X8.54626 Y-3.45559
G01 X8.54178 Y-3.45192
G01 X8.53811 Y-3.44744
G01 X8.53538 Y-3.44234
G01 X8.53370 Y-3.43680
G01 X8.53313 Y-3.43104
( Piece #4, position [1;1] )

G04 P0 ( dwell for no time -- G64 should not smooth over this point )
G00 Z0.08000 ( retract )

G00 X4.56417 Y-1.73104 ( rapid move to begin. )
G01 Z-0.00731 F50.00000 ( plunge. )
G04 P0 ( dwell for no time -- G64 should not smooth over this point )
G01 F100.00000
G01 X4.56417 Y-1.73104
G01 X4.56474 Y-1.73680
G01 X4.56642 Y-1.74234
G01 X4.56915 Y-1.74744
G01 X4.57282 Y-1.75192
G01 X4.57730 Y-1.75559
G01 X4.58240 Y-1.75832
G01 X4.58794 Y-1.76000
G01 X4.59370 Y-1.76057
G01 X4.71575 Y-1.76057
G01 X4.97165 Y-1.76057
G01 X5.09370 Y-1.76057
G01 X5.09946 Y-1.76000
G01 X5.10500 Y-1.75832
G01 X5.11010 Y-1.75559
G01 X5.11458 Y-1.75192
G01 X5.11825 Y-1.74744
G01 X5.12098 Y-1.74234
G01 X5.12266 Y-1.73680
G01 X5.12323 Y-1.73104
G01 X5.12323 Y-1.60899
G01 X5.12323 Y-1.35309
G01 X5.12323 Y-1.23104
G01 X5.12266 Y-1.22528
G01 X5.12098 Y-1.21974
G01 X5.11825 Y-1.21463
G01 X5.11458 Y-1.21016
G01 X5.11010 Y-1.20649
G01 X5.10500 Y-1.20376
G01 X5.09946 Y-1.20208
G01 X5.09370 Y-1.20151
G01 X5.08794 Y-1.20208
G01 X5.08240 Y-1.20376
G01 X5.07730 Y-1.20649
G01 X5.07282 Y-1.21016
G01 X4.91330 Y-1.36968
G01 X4.73235 Y-1.55064
G01 X4.57282 Y-1.71016
G01 X4.56915 Y-1.71463
G01 X4.56642 Y-1.71974
G01 X4.56474 Y-1.72528
G01 X4.56417 Y-1.73104
G01 Z-0.01462 F50.00000 ( plunge. )
G04 P0 ( dwell for no time -- G64 should not smooth over this point )
G01 F100.00000
G01 X4.56417 Y-1.73104
G01 X4.56474 Y-1.73680
G01 X4.56642 Y-1.74234
G01 X4.56915 Y-1.74744
G01 X4.57282 Y-1.75192
G01 X4.57730 Y-1.75559
G01 X4.58240 Y-1.75832
G01 X4.58794 Y-1.76000
G01 X4.59370 Y-1.76057
G01 X4.71575 Y-1.76057
G01 X4.97165 Y-1.76057
G01 X5.09370 Y-1.76057
G01 X5.09946 Y-1.76000
G01 X5.10500 Y-1.75832
G01 X5.11010 Y-1.75559
G01 X5.11458 Y-1.75192
G01 X5.11825 Y-1.74744
G01 X5.12098 Y-1.74234
G01 X5.12266 Y-1.73680
G01 X5.12323 Y-1.73104
G01 X5.12323 Y-1.60899
G01 X5.12323 Y-1.35309
G01 X5.12323 Y-1.23104
G01 X5.12266 Y-1.22528
G01 X5.12098 Y-1.21974
G01 X5.11825 Y-1.21463
G01 X5.11458 Y-1.21016
G01 X5.11010 Y-1.20649
G01 X5.10500 Y-1.20376
G01 X5.09946 Y-1.20208
G01 X5.09370 Y-1.20151
G01 X5.08794 Y-1.20208
G01 X5.08240 Y-1.20376
G01 X5.07730 Y-1.20649
G01 X5.07282 Y-1.21016
G01 X4.91330 Y-1.36968
G01 X4.73235 Y-1.55064
G01 X4.57282 Y-1.71016
G01 X4.56915 Y-1.71463
G01 X4.56642 Y-1.71974
G01 X4.56474 Y-1.72528
G01 X4.56417 Y-1.73104
G01 Z-0.02193 F50.00000 ( plunge. )
G04 P0 ( dwell for no time -- G64 should not smooth over this point )
G01 F100.00000
G01 X4.56417 Y-1.73104
G01 X4.56474 Y-1.73680
G01 X4.56642 Y-1.74234
G01 X4.56915 Y-1.74744
G01 X4.57282 Y-1.75192
G01 X4.57730 Y-1.75559
G01 X4.58240 Y-1.75832
G01 X4.58794 Y-1.76000
G01 X4.59370 Y-1.76057
G01 X4.71575 Y-1.76057
G01 X4.97165 Y-1.76057
G01 X5.09370 Y-1.76057
G01 X5.09946 Y-1.76000
G01 X5.10500 Y-1.75832
G01 X5.11010 Y-1.75559
G01 X5.11458 Y-1.75192
G01 X5.11825 Y-1.74744
G01 X5.12098 Y-1.74234
G01 X5.12266 Y-1.73680
G01 X5.12323 Y-1.73104
G01 X5.12323 Y-1.60899
G01 X5.12323 Y-1.35309
G01 X5.12323 Y-1.23104
G01 X5.12266 Y-1.22528
G01 X5.12098 Y-1.21974
G01 X5.11825 Y-1.21463
G01 X5.11458 Y-1.21016
G01 X5.11010 Y-1.20649
G01 X5.10500 Y-1.20376
G01 X5.09946 Y-1.20208
G01 X5.09370 Y-1.20151
G01 X5.08794 Y-1.20208
G01 X5.08240 Y-1.20376
G01 X5.07730 Y-1.20649
G01 X5.07282 Y-1.21016
G01 X4.91330 Y-1.36968
G01 X4.73235 Y-1.55064
G01 X4.57282 Y-1.71016
G01 X4.56915 Y-1.71463
G01 X4.56642 Y-1.71974
G01 X4.56474 Y-1.72528
G01 X4.56417 Y-1.73104
G01 Z-0.02925 F50.00000 ( plunge. )
G04 P0 ( dwell for no time -- G64 should not smooth over this point )
G01 F100.00000
G01 X4.56417 Y-1.73104
G01 X4.56474 Y-1.73680
G01 X4.56642 Y-1.74234
G01 X4.56915 Y-1.74744
G01 X4.57282 Y-1.75192
G01 X4.57730 Y-1.75559
G01 X4.58240 Y-1.75832
G01 X4.58794 Y-1.76000
G01 X4.59370 Y-1.76057
G01 X4.71575 Y-1.76057
G01 Z-0.02362
G01 X4.97165 Y-1.76057
G01 Z-0.02925 F50.00000
G01 F100.00000
G01 X5.09370 Y-1.76057
G01 X5.09946 Y-1.76000
G01 X5.10500 Y-1.75832
G01 X5.11010 Y-1.75559
G01 X5.11458 Y-1.75192
G01 X5.11825 Y-1.74744
G01 X5.12098 Y-1.74234
G01 X5.12266 Y-1.73680
G01 X5.12323 Y-1.73104
G01 X5.12323 Y-1.60899
G01 Z-0.02362
G01 X5.12323 Y-1.35309
G01 Z-0.02925 F50.00000
G01 F100.00000
G01 X5.12323 Y-1.23104
G01 X5.12266 Y-1.22528
G01 X5.12098 Y-1.21974
G01 X5.11825 Y-1.21463
G01 X5.11458 Y-1.21016
G01 X5.11010 Y-1.20649
G01 X5.10500 Y-1.20376
G01 X5.09946 Y-1.20208
G01 X5.09370 Y-1.20151
G01 X5.08794 Y-1.20208
G01 X5.08240 Y-1.20376
G01 X5.07730 Y-1.20649
G01 X5.07282 Y-1.21016
G01 X4.91330 Y-1.36968
G01 Z-0.02362
G01 X4.73235 Y-1.55064
G01 Z-0.02925 F50.00000
G01 F100.00000
G01 X4.57282 Y-1.71016
G01 X4.56915 Y-1.71463
G01 X4.56642 Y-1.71974
G01 X4.56474 Y-1.72528
G01 X4.56417 Y-1.73104
G01 Z-0.03656 F50.00000 ( plunge. )
G04 P0 ( dwell for no time -- G64 should not smooth over this point )
G01 F100.00000
G01 X4.56417 Y-1.73104
G01 X4.56474 Y-1.73680
G01 X4.56642 Y-1.74234
G01 X4.56915 Y-1.74744
G01 X4.57282 Y-1.75192
G01 X4.57730 Y-1.75559
G01 X4.58240 Y-1.75832
G01 X4.58794 Y-1.76000
G01 X4.59370 Y-1.76057
G01 X4.71575 Y-1.76057
G01 Z-0.02362
G01 X4.97165 Y-1.76057
G01 Z-0.03656 F50.00000
G01 F100.00000
G01 X5.09370 Y-1.76057
G01 X5.09946 Y-1.76000
G01 X5.10500 Y-1.75832
G01 X5.11010 Y-1.75559
G01 X5.11458 Y-1.75192
G01 X5.11825 Y-1.74744
G01 X5.12098 Y-1.74234
G01 X5.12266 Y-1.73680
G01 X5.12323 Y-1.73104
G01 X5.12323 Y-1.60899
G01 Z-0.02362
G01 X5.12323 Y-1.35309
G01 Z-0.03656 F50.00000
G01 F100.00000
G01 X5.12323 Y-1.23104
G01 X5.12266 Y-1.22528
G01 X5.12098 Y-1.21974
G01 X5.11825 Y-1.21463
G01 X5.11458 Y-1.21016
G01 X5.11010 Y-1.20649
G01 X5.10500 Y-1.20376
G01 X5.09946 Y-1.20208
G01 X5.09370 Y-1.20151
G01 X5.08794 Y-1.20208
G01 X5.08240 Y-1.20376
G01 X5.07730 Y-1.20649
G01 X5.07282 Y-1.21016
G01 X4.91330 Y-1.36968
G01 Z-0.02362
G01 X4.73235 Y-1.55064
G01 Z-0.03656 F50.00000
G01 F100.00000
G01 X4.57282 Y-1.71016
G01 X4.56915 Y-1.71463
G01 X4.56642 Y-1.71974
G01 X4.56474 Y-1.72528
G01 X4.56417 Y-1.73104
G01 Z-0.04387 F50.00000 ( plunge. )
G04 P0 ( dwell for no time -- G64 should not smooth over this point )
G01 F100.00000
G01 X4.56417 Y-1.73104
G01 X4.56474 Y-1.73680
G01 X4.56642 Y-1.74234
G01 X4.56915 Y-1.74744
G01 X4.57282 Y-1.75192
G01 X4.57730 Y-1.75559
G01 X4.58240 Y-1.75832
G01 X4.58794 Y-1.76000
G01 X4.59370 Y-1.76057
G01 X4.71575 Y-1.76057
G01 Z-0.02362
G01 X4.97165 Y-1.76057
G01 Z-0.04387 F50.00000
G01 F100.00000
G01 X5.09370 Y-1.76057
G01 X5.09946 Y-1.76000
G01 X5.10500 Y-1.75832
G01 X5.11010 Y-1.75559
G01 X5.11458 Y-1.75192
G01 X5.11825 Y-1.74744
G01 X5.12098 Y-1.74234
G01 X5.12266 Y-1.73680
G01 X5.12323 Y-1.73104
G01 X5.12323 Y-1.60899
G01 Z-0.02362
G01 X5.12323 Y-1.35309
G01 Z-0.04387 F50.00000
G01 F100.00000
G01 X5.12323 Y-1.23104
G01 X5.12266 Y-1.22528
G01 X5.12098 Y-1.21974
G01 X5.11825 Y-1.21463
G01 X5.11458 Y-1.21016
G01 X5.11010 Y-1.20649
G01 X5.10500 Y-1.20376
G01 X5.09946 Y-1.20208
G01 X5.09370 Y-1.20151
G01 X5.08794 Y-1.20208
G01 X5.08240 Y-1.20376
G01 X5.07730 Y-1.20649
G01 X5.07282 Y-1.21016
G01 X4.91330 Y-1.36968
G01 Z-0.02362
G01 X4.73235 Y-1.55064
G01 Z-0.04387 F50.00000
G01 F100.00000
G01 X4.57282 Y-1.71016
G01 X4.56915 Y-1.71463
G01 X4.56642 Y-1.71974
G01 X4.56474 Y-1.72528
G01 X4.56417 Y-1.73104
G01 Z-0.05118 F50.00000 ( plunge. )
G04 P0 ( dwell for no time -- G64 should not smooth over this point )
G01 F100.00000
G01 X4.56417 Y-1.73104
G01 X4.56474 Y-1.73680
G01 X4.56642 Y-1.74234
G01 X4.56915 Y-1.74744
G01 X4.57282 Y-1.75192
G01 X4.57730 Y-1.75559
G01 X4.58240 Y-1.75832
G01 X4.58794 Y-1.76000
G01 X4.59370 Y-1.76057
G01 X4.71575 Y-1.76057
G01 Z-0.02362
G01 X4.97165 Y-1.76057
G01 Z-0.05118 F50.00000
G01 F100.00000
G01 X5.09370 Y-1.76057
G01 X5.09946 Y-1.76000
G01 X5.10500 Y-1.75832
G01 X5.11010 Y-1.75559
G01 X5.11458 Y-1.75192
G01 X5.11825 Y-1.74744
G01 X5.12098 Y-1.74234
G01 X5.12266 Y-1.73680
G01 X5.12323 Y-1.73104
G01 X5.12323 Y-1.60899
G01 Z-0.02362
G01 X5.12323 Y-1.35309
G01 Z-0.05118 F50.00000
G01 F100.00000
G01 X5.12323 Y-1.23104
G01 X5.12266 Y-1.22528
G01 X5.12098 Y-1.21974
G01 X5.11825 Y-1.21463
G01 X5.11458 Y-1.21016
G01 X5.11010 Y-1.20649
G01 X5.10500 Y-1.20376
G01 X5.09946 Y-1.20208
G01 X5.09370 Y-1.20151
G01 X5.08794 Y-1.20208
G01 X5.08240 Y-1.20376
G01 X5.07730 Y-1.20649
G01 X5.07282 Y-1.21016
G01 X4.91330 Y-1.36968
G01 Z-0.02362
G01 X4.73235 Y-1.55064
G01 Z-0.05118 F50.00000
G01 F100.00000
G01 X4.57282 Y-1.71016
G01 X4.56915 Y-1.71463
G01 X4.56642 Y-1.71974
G01 X4.56474 Y-1.72528
G01 X4.56417 Y-1.73104
G04 P0 ( dwell for no time -- G64 should not smooth over this point )
G00 Z0.08000 ( retract )

G00 X5.86417 Y-3.43104 ( rapid move to begin. )
G01 Z-0.00731 F50.00000 ( plunge. )
G04 P0 ( dwell for no time -- G64 should not smooth over this point )
G01 F100.00000
G01 X5.86417 Y-3.43104
G01 X5.86417 Y-3.20899
G01 X5.86417 Y-2.95309
G01 X5.86417 Y-2.73104
G01 X5.86474 Y-2.72528
G01 X5.86642 Y-2.71974
G01 X5.86915 Y-2.71463
G01 X5.87282 Y-2.71016
G01 X5.87730 Y-2.70649
G01 X5.88240 Y-2.70376
G01 X5.88794 Y-2.70208
G01 X5.89370 Y-2.70151
G01 X6.41575 Y-2.70151
G01 X6.67165 Y-2.70151
G01 X7.19370 Y-2.70151
G01 X7.19946 Y-2.70208
G01 X7.20500 Y-2.70376
G01 X7.21010 Y-2.70649
G01 X7.21458 Y-2.71016
G01 X7.21825 Y-2.71463
G01 X7.22098 Y-2.71974
G01 X7.22266 Y-2.72528
G01 X7.22323 Y-2.73104
G01 X7.22323 Y-2.95309
G01 X7.22323 Y-3.20899
G01 X7.22323 Y-3.43104
G01 X7.22266 Y-3.43680
G01 X7.22098 Y-3.44234
G01 X7.21825 Y-3.44744
G01 X7.21458 Y-3.45192
G01 X7.21010 Y-3.45559
G01 X7.20500 Y-3.45832
G01 X7.19946 Y-3.46000
G01 X7.19370 Y-3.46057
G01 X6.67165 Y-3.46057
G01 X6.41575 Y-3.46057
G01 X5.89370 Y-3.46057
G01 X5.88794 Y-3.46000
G01 X5.88240 Y-3.45832
G01 X5.87730 Y-3.45559
G01 X5.87282 Y-3.45192
G01 X5.86915 Y-3.44744
G01 X5.86642 Y-3.44234
G01 X5.86474 Y-3.43680
G01 X5.86417 Y-3.43104
G01 Z-0.01462 F50.00000 ( plunge. )
G04 P0 ( dwell for no time -- G64 should not smooth over this point )
G01 F100.00000
G01 X5.86417 Y-3.43104
G01 X5.86417 Y-3.20899
G01 X5.86417 Y-2.95309
G01 X5.86417 Y-2.73104
G01 X5.86474 Y-2.72528
G01 X5.86642 Y-2.71974
G01 X5.86915 Y-2.71463
G01 X5.87282 Y-2.71016
G01 X5.87730 Y-2.70649
G01 X5.88240 Y-2.70376
G01 X5.88794 Y-2.70208
G01 X5.89370 Y-2.70151
G01 X6.41575 Y-2.70151
G01 X6.67165 Y-2.70151
G01 X7.19370 Y-2.70151
G01 X7.19946 Y-2.70208
G01 X7.20500 Y-2.70376
G01 X7.21010 Y-2.70649
G01 X7.21458 Y-2.71016
G01 X7.21825 Y-2.71463
G01 X7.22098 Y-2.71974
G01 X7.22266 Y-2.72528
G01 X7.22323 Y-2.73104
G01 X7.22323 Y-2.95309
G01 X7.22323 Y-3.20899
G01 X7.22323 Y-3.43104
G01 X7.22266 Y-3.43680
G01 X7.22098 Y-3.44234
G01 X7.21825 Y-3.44744
G01 X7.21458 Y-3.45192
G01 X7.21010 Y-3.45559
G01 X7.20500 Y-3.45832
G01 X7.19946 Y-3.46000
G01 X7.19370 Y-3.46057
G01 X6.67165 Y-3.46057
G01 X6.41575 Y-3.46057
G01 X5.89370 Y-3.46057
G01 X5.88794 Y-3.46000
G01 X5.88240 Y-3.45832
G01 X5.87730 Y-3.45559
G01 X5.87282 Y-3.45192
G01 X5.86915 Y-3.44744
G01 X5.86642 Y-3.44234
G01 X5.86474 Y-3.43680
G01 X5.86417 Y-3.43104
G01 Z-0.02193 F50.00000 ( plunge. )
G04 P0 ( dwell for no time -- G64 should not smooth over this point )
G01 F100.00000
G01 X5.86417 Y-3.43104
G01 X5.86417 Y-3.20899
G01 X5.86417 Y-2.95309
G01 X5.86417 Y-2.73104
G01 X5.86474 Y-2.72528
G01 X5.86642 Y-2.71974
G01 X5.86915 Y-2.71463
G01 X5.87282 Y-2.71016
G01 X5.87730 Y-2.70649
G01 X5.88240 Y-2.70376
G01 X5.88794 Y-2.70208
G01 X5.89370 Y-2.70151
G01 X6.41575 Y-2.70151
G01 X6.67165 Y-2.70151
G01 X7.19370 Y-2.70151
G01 X7.19946 Y-2.70208
G01 X7.20500 Y-2.70376
G01 X7.21010 Y-2.70649
G01 X7.21458 Y-2.71016
G01 X7.21825 Y-2.71463
G01 X7.22098 Y-2.71974
G01 X7.22266 Y-2.72528
G01 X7.22323 Y-2.73104
G01 X7.22323 Y-2.95309
G01 X7.22323 Y-3.20899
G01 X7.22323 Y-3.43104
G01 X7.22266 Y-3.43680
G01 X7.22098 Y-3.44234
G01 X7.21825 Y-3.44744
G01 X7.21458 Y-3.45192
G01 X7.21010 Y-3.45559
G01 X7.20500 Y-3.45832
G01 X7.19946 Y-3.46000
G01 X7.19370 Y-3.46057
G01 X6.67165 Y-3.46057
G01 X6.41575 Y-3.46057
G01 X5.89370 Y-3.46057
G01 X5.88794 Y-3.46000
G01 X5.88240 Y-3.45832
G01 X5.87730 Y-3.45559
G01 X5.87282 Y-3.45192
G01 X5.86915 Y-3.44744
G01 X5.86642 Y-3.44234
G01 X5.86474 Y-3.43680
G01 X5.86417 Y-3.43104
G01 Z-0.02925 F50.00000 ( plunge. )
G04 P0 ( dwell for no time -- G64 should not smooth over this point )
G01 F100.00000
G01 X5.86417 Y-3.43104
G01 X5.86417 Y-3.20899
G01 Z-0.02362
G01 X5.86417 Y-2.95309
G01 Z-0.02925 F50.00000
G01 F100.00000
G01 X5.86417 Y-2.73104
G01 X5.86474 Y-2.72528
G01 X5.86642 Y-2.71974
G01 X5.86915 Y-2.71463
G01 X5.87282 Y-2.71016
G01 X5.87730 Y-2.70649
G01 X5.88240 Y-2.70376
G01 X5.88794 Y-2.70208
G01 X5.89370 Y-2.70151
G01 X6.41575 Y-2.70151
G01 Z-0.02362
G01 X6.67165 Y-2.70151
G01 Z-0.02925 F50.00000
G01 F100.00000
G01 X7.19370 Y-2.70151
G01 X7.19946 Y-2.70208
G01 X7.20500 Y-2.70376
G01 X7.21010 Y-2.70649
G01 X7.21458 Y-2.71016
G01 X7.21825 Y-2.71463
G01 X7.22098 Y-2.71974
G01 X7.22266 Y-2.72528
G01 X7.22323 Y-2.73104
G01 X7.22323 Y-2.95309
G01 Z-0.02362
G01 X7.22323 Y-3.20899
G01 Z-0.02925 F50.00000
G01 F100.00000
G01 X7.22323 Y-3.43104
G01 X7.22266 Y-3.43680
G01 X7.22098 Y-3.44234
G01 X7.21825 Y-3.44744
G01 X7.21458 Y-3.45192
G01 X7.21010 Y-3.45559
G01 X7.20500 Y-3.45832
G01 X7.19946 Y-3.46000
G01 X7.19370 Y-3.46057
G01 X6.67165 Y-3.46057
G01 Z-0.02362
G01 X6.41575 Y-3.46057
G01 Z-0.02925 F50.00000
G01 F100.00000
G01 X5.89370 Y-3.46057
G01 X5.88794 Y-3.46000
G01 X5.88240 Y-3.45832
G01 X5.87730 Y-3.45559
G01 X5.87282 Y-3.45192
G01 X5.86915 Y-3.44744
G01 X5.86642 Y-3.44234
G01 X5.86474 Y-3.43680
G01 X5.86417 Y-3.43104
G01 Z-0.03656 F50.00000 ( plunge. )
G04 P0 ( dwell for no time -- G64 should not smooth over this point )
G01 F100.00000
G01 X5.86417 Y-3.43104
G01 X5.86417 Y-3.20899
G01 Z-0.02362
G01 X5.86417 Y-2.95309
G01 Z-0.03656 F50.00000
G01 F100.00000
G01 X5.86417 Y-2.73104
G01 X5.86474 Y-2.72528
G01 X5.86642 Y-2.71974
G01 X5.86915 Y-2.71463
G01 X5.87282 Y-2.71016
G01 X5.87730 Y-2.70649
G01 X5.88240 Y-2.70376
G01 X5.88794 Y-2.70208
G01 X5.89370 Y-2.70151
G01 X6.41575 Y-2.70151
G01 Z-0.02362
G01 X6.67165 Y-2.70151
G01 Z-0.03656 F50.00000
G01 F100.00000
G01 X7.19370 Y-2.70151
G01 X7.19946 Y-2.70208
G01 X7.20500 Y-2.70376
G01 X7.21010 Y-2.70649
G01 X7.21458 Y-2.71016
G01 X7.21825 Y-2.71463
G01 X7.22098 Y-2.71974
G01 X7.22266 Y-2.72528
G01 X7.22323 Y-2.73104
G01 X7.22323 Y-2.95309
G01 Z-0.02362
G01 X7.22323 Y-3.20899
G01 Z-0.03656 F50.00000
G01 F100.00000
G01 X7.22323 Y-3.43104
G01 X7.22266 Y-3.43680
G01 X7.22098 Y-3.44234
G01 X7.21825 Y-3.44744
G01 X7.21458 Y-3.45192
G01 X7.21010 Y-3.45559
G01 X7.20500 Y-3.45832
G01 X7.19946 Y-3.46000
G01 X7.19370 Y-3.46057
G01 X6.67165 Y-3.46057
G01 Z-0.02362
G01 X6.41575 Y-3.46057
G01 Z-0.03656 F50.00000
G01 F100.00000
G01 X5.89370 Y-3.46057
G01 X5.88794 Y-3.46000
G01 X5.88240 Y-3.45832
G01 X5.87730 Y-3.45559
G01 X5.87282 Y-3.45192
G01 X5.86915 Y-3.44744
G01 X5.86642 Y-3.44234
G01 X5.86474 Y-3.43680
G01 X5.86417 Y-3.43104
G01 Z-0.04387 F50.00000 ( plunge. )
G04 P0 ( dwell for no time -- G64 should not smooth over this point )
G01 F100.00000
G01 X5.86417 Y-3.43104
G01 X5.86417 Y-3.20899
G01 Z-0.02362
G01 X5.86417 Y-2.95309
G01 Z-0.04387 F50.00000
G01 F100.00000
G01 X5.86417 Y-2.73104
G01 X5.86474 Y-2.72528
G01 X5.86642 Y-2.71974
G01 X5.86915 Y-2.71463
G01 X5.87282 Y-2.71016
G01 X5.87730 Y-2.70649
G01 X5.88240 Y-2.70376
G01 X5.88794 Y-2.70208
G01 X5.89370 Y-2.70151
G01 X6.41575 Y-2.70151
G01 Z-0.02362
G01 X6.67165 Y-2.70151
G01 Z-0.04387 F50.00000
G01 F100.00000
G01 X7.19370 Y-2.70151
G01 X7.19946 Y-2.70208
G01 X7.20500 Y-2.70376
G01 X7.21010 Y-2.70649
G01 X7.21458 Y-2.71016
G01 X7.21825 Y-2.71463
G01 X7.22098 Y-2.71974
G01 X7.22266 Y-2.72528
G01 X7.22323 Y-2.73104
G01 X7.22323 Y-2.95309
G01 Z-0.02362
G01 X7.22323 Y-3.20899
G01 Z-0.04387 F50.00000
G01 F100.00000
G01 X7.22323 Y-3.43104
G01 X7.22266 Y-3.43680
G01 X7.22098 Y-3.44234
G01 X7.21825 Y-3.44744
G01 X7.21458 Y-3.45192
G01 X7.21010 Y-3.45559
G01 X7.20500 Y-3.45832
G01 X7.19946 Y-3.46000
G01 X7.19370 Y-3.46057
G01 X6.67165 Y-3.46057
G01 Z-0.02362
G01 X6.41575 Y-3.46057
G01 Z-0.04387 F50.00000
G01 F100.00000
G01 X5.89370 Y-3.46057
G01 X5.88794 Y-3.46000
G01 X5.88240 Y-3.45832
G01 X5.87730 Y-3.45559
G01 X5.87282 Y-3.45192
G01 X5.86915 Y-3.44744
G01 X5.86642 Y-3.44234
G01 X5.86474 Y-3.43680
G01 X5.86417 Y-3.43104
G01 Z-0.05118 F50.00000 ( plunge. )
G04 P0 ( dwell for no time -- G64 should not smooth over this point )
G01 F100.00000
G01 X5.86417 Y-3.43104
G01 X5.86417 Y-3.20899
G01 Z-0.02362
G01 X5.86417 Y-2.95309
G01 Z-0.05118 F50.00000
G01 F100.00000
G01 X5.86417 Y-2.73104
G01 X5.86474 Y-2.72528
G01 X5.86642 Y-2.71974
G01 X5.86915 Y-2.71463
G01 X5.87282 Y-2.71016
G01 X5.87730 Y-2.70649
G01 X5.88240 Y-2.70376
G01 X5.88794 Y-2.70208
G01 X5.89370 Y-2.70151
G01 X6.41575 Y-2.70151
G01 Z-0.02362
G01 X6.67165 Y-2.70151
G01 Z-0.05118 F50.00000
G01 F100.00000
G01 X7.19370 Y-2.70151
G01 X7.19946 Y-2.70208
G01 X7.20500 Y-2.70376
G01 X7.21010 Y-2.70649
G01 X7.21458 Y-2.71016
G01 X7.21825 Y-2.71463
G01 X7.22098 Y-2.71974
G01 X7.22266 Y-2.72528
G01 X7.22323 Y-2.73104
G01 X7.22323 Y-2.95309
G01 Z-0.02362
G01 X7.22323 Y-3.20899
G01 Z-0.05118 F50.00000
G01 F100.00000
G01 X7.22323 Y-3.43104
G01 X7.22266 Y-3.43680
G01 X7.22098 Y-3.44234
G01 X7.21825 Y-3.44744
G01 X7.21458 Y-3.45192
G01 X7.21010 Y-3.45559
G01 X7.20500 Y-3.45832
G01 X7.19946 Y-3.46000
G01 X7.19370 Y-3.46057
G01 X6.67165 Y-3.46057
G01 Z-0.02362
G01 X6.41575 Y-3.46057
G01 Z-0.05118 F50.00000
G01 F100.00000
G01 X5.89370 Y-3.46057
G01 X5.88794 Y-3.46000
G01 X5.88240 Y-3.45832
G01 X5.87730 Y-3.45559
G01 X5.87282 Y-3.45192
G01 X5.86915 Y-3.44744
G01 X5.86642 Y-3.44234
G01 X5.86474 Y-3.43680
G01 X5.86417 Y-3.43104
( Piece #5, position [0;2] )

G04 P0 ( dwell for no time -- G64 should not smooth over this point )
G00 Z0.08000 ( retract )

G00 X4.56417 Y0.53792 ( rapid move to begin. )
G01 Z-0.00731 F50.00000 ( plunge. )
G04 P0 ( dwell for no time -- G64 should not smooth over this point )
G01 F100.00000
G01 X4.56417 Y0.53792
G01 X4.56474 Y0.53216
G01 X4.56642 Y0.52662
G01 X4.56915 Y0.52152
G01 X4.57282 Y0.51704
G01 X4.57730 Y0.51337
G01 X4.58240 Y0.51064
G01 X4.58794 Y0.50896
G01 X4.59370 Y0.50839
G01 X4.71575 Y0.50839
G01 X4.97165 Y0.50839
G01 X5.09370 Y0.50839
G01 X5.09946 Y0.50896
G01 X5.10500 Y0.51064
G01 X5.11010 Y0.51337
G01 X5.11458 Y0.51704
G01 X5.11825 Y0.52152
G01 X5.12098 Y0.52662
G01 X5.12266 Y0.53216
G01 X5.12323 Y0.53792
G01 X5.12323 Y0.65997
G01 X5.12323 Y0.91587
G01 X5.12323 Y1.03792
G01 X5.12266 Y1.04368
G01 X5.12098 Y1.04922
G01 X5.11825 Y1.05433
G01 X5.11458 Y1.05880
G01 X5.11010 Y1.06247
G01 X5.10500 Y1.06520
G01 X5.09946 Y1.06688
G01 X5.09370 Y1.06745
G01 X5.08794 Y1.06688
G01 X5.08240 Y1.06520
G01 X5.07730 Y1.06247
G01 X5.07282 Y1.05880
G01 X4.91330 Y0.89928
G01 X4.73235 Y0.71832
G01 X4.57282 Y0.55880
G01 X4.56915 Y0.55433
G01 X4.56642 Y0.54922
G01 X4.56474 Y0.54368
G01 X4.56417 Y0.53792
G01 Z-0.01462 F50.00000 ( plunge. )
G04 P0 ( dwell for no time -- G64 should not smooth over this point )
G01 F100.00000
G01 X4.56417 Y0.53792
G01 X4.56474 Y0.53216
G01 X4.56642 Y0.52662
G01 X4.56915 Y0.52152
G01 X4.57282 Y0.51704
G01 X4.57730 Y0.51337
G01 X4.58240 Y0.51064
G01 X4.58794 Y0.50896
G01 X4.59370 Y0.50839
G01 X4.71575 Y0.50839
G01 X4.97165 Y0.50839
G01 X5.09370 Y0.50839
G01 X5.09946 Y0.50896
G01 X5.10500 Y0.51064
G01 X5.11010 Y0.51337
G01 X5.11458 Y0.51704
G01 X5.11825 Y0.52152
G01 X5.12098 Y0.52662
G01 X5.12266 Y0.53216
G01 X5.12323 Y0.53792
G01 X5.12323 Y0.65997
G01 X5.12323 Y0.91587
G01 X5.12323 Y1.03792
G01 X5.12266 Y1.04368
G01 X5.12098 Y1.04922
G01 X5.11825 Y1.05433
G01 X5.11458 Y1.05880
G01 X5.11010 Y1.06247
G01 X5.10500 Y1.06520
G01 X5.09946 Y1.06688
G01 X5.09370 Y1.06745
G01 X5.08794 Y1.06688
G01 X5.08240 Y1.06520
G01 X5.07730 Y1.06247
G01 X5.07282 Y1.05880
G01 X4.91330 Y0.89928
G01 X4.73235 Y0.71832
G01 X4.57282 Y0.55880
G01 X4.56915 Y0.55433
G01 X4.56642 Y0.54922
G01 X4.56474 Y0.54368
G01 X4.56417 Y0.53792
G01 Z-0.02193 F50.00000 ( plunge. )
G04 P0 ( dwell for no time -- G64 should not smooth over this point )
G01 F100.00000
G01 X4.56417 Y0.53792
G01 X4.56474 Y0.53216
G01 X4.56642 Y0.52662
G01 X4.56915 Y0.52152
G01 X4.57282 Y0.51704
G01 X4.57730 Y0.51337
G01 X4.58240 Y0.51064
G01 X4.58794 Y0.50896
G01 X4.59370 Y0.50839
G01 X4.71575 Y0.50839
G01 X4.97165 Y0.50839
G01 X5.09370 Y0.50839
G01 X5.09946 Y0.50896
G01 X5.10500 Y0.51064
G01 X5.11010 Y0.51337
G01 X5.11458 Y0.51704
G01 X5.11825 Y0.52152
G01 X5.12098 Y0.52662
G01 X5.12266 Y0.53216
G01 X5.12323 Y0.53792
G01 X5.12323 Y0.65997
G01 X5.12323 Y0.91587
G01 X5.12323 Y1.03792
G01 X5.12266 Y1.04368
G01 X5.12098 Y1.04922
G01 X5.11825 Y1.05433
G01 X5.11458 Y1.05880
G01 X5.11010 Y1.06247
G01 X5.10500 Y1.06520
G01 X5.09946 Y1.06688
G01 X5.09370 Y1.06745
G01 X5.08794 Y1.06688
G01 X5.08240 Y1.06520
G01 X5.07730 Y1.06247
G01 X5.07282 Y1.05880
G01 X4.91330 Y0.89928
G01 X4.73235 Y0.71832
G01 X4.57282 Y0.55880
G01 X4.56915 Y0.55433
G01 X4.56642 Y0.54922
G01 X4.56474 Y0.54368
G01 X4.56417 Y0.53792
G01 Z-0.02925 F50.00000 ( plunge. )
G04 P0 ( dwell for no time -- G64 should not smooth over this point )
G01 F100.00000
G01 X4.56417 Y0.53792
G01 X4.56474 Y0.53216
G01 X4.56642 Y0.52662
G01 X4.56915 Y0.52152
G01 X4.57282 Y0.51704
G01 X4.57730 Y0.51337
G01 X4.58240 Y0.51064
G01 X4.58794 Y0.50896
G01 X4.59370 Y0.50839
G01 X4.71575 Y0.50839
G01 Z-0.02362
G01 X4.97165 Y0.50839
G01 Z-0.02925 F50.00000
G01 F100.00000
G01 X5.09370 Y0.50839
G01 X5.09946 Y0.50896
G01 X5.10500 Y0.51064
G01 X5.11010 Y0.51337
G01 X5.11458 Y0.51704
G01 X5.11825 Y0.52152
G01 X5.12098 Y0.52662
G01 X5.12266 Y0.53216
G01 X5.12323 Y0.53792
G01 X5.12323 Y0.65997
G01 Z-0.02362
G01 X5.12323 Y0.91587
G01 Z-0.02925 F50.00000
G01 F100.00000
G01 X5.12323 Y1.03792
G01 X5.12266 Y1.04368
G01 X5.12098 Y1.04922
G01 X5.11825 Y1.05433
G01 X5.11458 Y1.05880
G01 X5.11010 Y1.06247
G01 X5.10500 Y1.06520
G01 X5.09946 Y1.06688
G01 X5.09370 Y1.06745
G01 X5.08794 Y1.06688
G01 X5.08240 Y1.06520
G01 X5.07730 Y1.06247
G01 X5.07282 Y1.05880
G01 X4.91330 Y0.89928
G01 Z-0.02362
G01 X4.73235 Y0.71832
G01 Z-0.02925 F50.00000
G01 F100.00000
G01 X4.57282 Y0.55880
G01 X4.56915 Y0.55433
G01 X4.56642 Y0.54922
G01 X4.56474 Y0.54368
G01 X4.56417 Y0.53792
G01 Z-0.03656 F50.00000 ( plunge. )
G04 P0 ( dwell for no time -- G64 should not smooth over this point )
G01 F100.00000
G01 X4.56417 Y0.53792
G01 X4.56474 Y0.53216
G01 X4.56642 Y0.52662
G01 X4.56915 Y0.52152
G01 X4.57282 Y0.51704
G01 X4.57730 Y0.51337
G01 X4.58240 Y0.51064
G01 X4.58794 Y0.50896
G01 X4.59370 Y0.50839
G01 X4.71575 Y0.50839
G01 Z-0.02362
G01 X4.97165 Y0.50839
G01 Z-0.03656 F50.00000
G01 F100.00000
G01 X5.09370 Y0.50839
G01 X5.09946 Y0.50896
G01 X5.10500 Y0.51064
G01 X5.11010 Y0.51337
G01 X5.11458 Y0.51704
G01 X5.11825 Y0.52152
G01 X5.12098 Y0.52662
G01 X5.12266 Y0.53216
G01 X5.12323 Y0.53792
G01 X5.12323 Y0.65997
G01 Z-0.02362
G01 X5.12323 Y0.91587
G01 Z-0.03656 F50.00000
G01 F100.00000
G01 X5.12323 Y1.03792
G01 X5.12266 Y1.04368
G01 X5.12098 Y1.04922
G01 X5.11825 Y1.05433
G01 X5.11458 Y1.05880
G01 X5.11010 Y1.06247
G01 X5.10500 Y1.06520
G01 X5.09946 Y1.06688
G01 X5.09370 Y1.06745
G01 X5.08794 Y1.06688
G01 X5.08240 Y1.06520
G01 X5.07730 Y1.06247
G01 X5.07282 Y1.05880
G01 X4.91330 Y0.89928
G01 Z-0.02362
G01 X4.73235 Y0.71832
G01 Z-0.03656 F50.00000
G01 F100.00000
G01 X4.57282 Y0.55880
G01 X4.56915 Y0.55433
G01 X4.56642 Y0.54922
G01 X4.56474 Y0.54368
G01 X4.56417 Y0.53792
G01 Z-0.04387 F50.00000 ( plunge. )
G04 P0 ( dwell for no time -- G64 should not smooth over this point )
G01 F100.00000
G01 X4.56417 Y0.53792
G01 X4.56474 Y0.53216
G01 X4.56642 Y0.52662
G01 X4.56915 Y0.52152
G01 X4.57282 Y0.51704
G01 X4.57730 Y0.51337
G01 X4.58240 Y0.51064
G01 X4.58794 Y0.50896
G01 X4.59370 Y0.50839
G01 X4.71575 Y0.50839
G01 Z-0.02362
G01 X4.97165 Y0.50839
G01 Z-0.04387 F50.00000
G01 F100.00000
G01 X5.09370 Y0.50839
G01 X5.09946 Y0.50896
G01 X5.10500 Y0.51064
G01 X5.11010 Y0.51337
G01 X5.11458 Y0.51704
G01 X5.11825 Y0.52152
G01 X5.12098 Y0.52662
G01 X5.12266 Y0.53216
G01 X5.12323 Y0.53792
G01 X5.12323 Y0.65997
G01 Z-0.02362
G01 X5.12323 Y0.91587
G01 Z-0.04387 F50.00000
G01 F100.00000
G01 X5.12323 Y1.03792
G01 X5.12266 Y1.04368
G01 X5.12098 Y1.04922
G01 X5.11825 Y1.05433
G01 X5.11458 Y1.05880
G01 X5.11010 Y1.06247
G01 X5.10500 Y1.06520
G01 X5.09946 Y1.06688
G01 X5.09370 Y1.06745
G01 X5.08794 Y1.06688
G01 X5.08240 Y1.06520
G01 X5.07730 Y1.06247
G01 X5.07282 Y1.05880
G01 X4.91330 Y0.89928
G01 Z-0.02362
G01 X4.73235 Y0.71832
G01 Z-0.04387 F50.00000
G01 F100.00000
G01 X4.57282 Y0.55880
G01 X4.56915 Y0.55433
G01 X4.56642 Y0.54922
G01 X4.56474 Y0.54368
G01 X4.56417 Y0.53792
G01 Z-0.05118 F50.00000 ( plunge. )
G04 P0 ( dwell for no time -- G64 should not smooth over this point )
G01 F100.00000
G01 X4.56417 Y0.53792
G01 X4.56474 Y0.53216
G01 X4.56642 Y0.52662
G01 X4.56915 Y0.52152
G01 X4.57282 Y0.51704
G01 X4.57730 Y0.51337
G01 X4.58240 Y0.51064
G01 X4.58794 Y0.50896
G01 X4.59370 Y0.50839
G01 X4.71575 Y0.50839
G01 Z-0.02362
G01 X4.97165 Y0.50839
G01 Z-0.05118 F50.00000
G01 F100.00000
G01 X5.09370 Y0.50839
G01 X5.09946 Y0.50896
G01 X5.10500 Y0.51064
G01 X5.11010 Y0.51337
G01 X5.11458 Y0.51704
G01 X5.11825 Y0.52152
G01 X5.12098 Y0.52662
G01 X5.12266 Y0.53216
G01 X5.12323 Y0.53792
G01 X5.12323 Y0.65997
G01 Z-0.02362
G01 X5.12323 Y0.91587
G01 Z-0.05118 F50.00000
G01 F100.00000
G01 X5.12323 Y1.03792
G01 X5.12266 Y1.04368
G01 X5.12098 Y1.04922
G01 X5.11825 Y1.05433
G01 X5.11458 Y1.05880
G01 X5.11010 Y1.06247
G01 X5.10500 Y1.06520
G01 X5.09946 Y1.06688
G01 X5.09370 Y1.06745
G01 X5.08794 Y1.06688
G01 X5.08240 Y1.06520
G01 X5.07730 Y1.06247
G01 X5.07282 Y1.05880
G01 X4.91330 Y0.89928
G01 Z-0.02362
G01 X4.73235 Y0.71832
G01 Z-0.05118 F50.00000
G01 F100.00000
G01 X4.57282 Y0.55880
G01 X4.56915 Y0.55433
G01 X4.56642 Y0.54922
G01 X4.56474 Y0.54368
G01 X4.56417 Y0.53792
G04 P0 ( dwell for no time -- G64 should not smooth over this point )
G00 Z0.08000 ( retract )

G00 X5.86417 Y-1.16208 ( rapid move to begin. )
G01 Z-0.00731 F50.00000 ( plunge. )
G04 P0 ( dwell for no time -- G64 should not smooth over this point )
G01 F100.00000
G01 X5.86417 Y-1.16208
G01 X5.86417 Y-0.94003
G01 X5.86417 Y-0.68413
G01 X5.86417 Y-0.46208
G01 X5.86474 Y-0.45632
G01 X5.86642 Y-0.45078
G01 X5.86915 Y-0.44567
G01 X5.87282 Y-0.44120
G01 X5.87730 Y-0.43753
G01 X5.88240 Y-0.43480
G01 X5.88794 Y-0.43312
G01 X5.89370 Y-0.43255
G01 X6.41575 Y-0.43255
G01 X6.67165 Y-0.43255
G01 X7.19370 Y-0.43255
G01 X7.19946 Y-0.43312
G01 X7.20500 Y-0.43480
G01 X7.21010 Y-0.43753
G01 X7.21458 Y-0.44120
G01 X7.21825 Y-0.44567
G01 X7.22098 Y-0.45078
G01 X7.22266 Y-0.45632
G01 X7.22323 Y-0.46208
G01 X7.22323 Y-0.68413
G01 X7.22323 Y-0.94003
G01 X7.22323 Y-1.16208
G01 X7.22266 Y-1.16784
G01 X7.22098 Y-1.17338
G01 X7.21825 Y-1.17848
G01 X7.21458 Y-1.18296
G01 X7.21010 Y-1.18663
G01 X7.20500 Y-1.18936
G01 X7.19946 Y-1.19104
G01 X7.19370 Y-1.19161
G01 X6.67165 Y-1.19161
G01 X6.41575 Y-1.19161
G01 X5.89370 Y-1.19161
G01 X5.88794 Y-1.19104
G01 X5.88240 Y-1.18936
G01 X5.87730 Y-1.18663
G01 X5.87282 Y-1.18296
G01 X5.86915 Y-1.17848
G01 X5.86642 Y-1.17338
G01 X5.86474 Y-1.16784
G01 X5.86417 Y-1.16208
G01 Z-0.01462 F50.00000 ( plunge. )
G04 P0 ( dwell for no time -- G64 should not smooth over this point )
G01 F100.00000
G01 X5.86417 Y-1.16208
G01 X5.86417 Y-0.94003
G01 X5.86417 Y-0.68413
G01 X5.86417 Y-0.46208
G01 X5.86474 Y-0.45632
G01 X5.86642 Y-0.45078
G01 X5.86915 Y-0.44567
G01 X5.87282 Y-0.44120
G01 X5.87730 Y-0.43753
G01 X5.88240 Y-0.43480
G01 X5.88794 Y-0.43312
G01 X5.89370 Y-0.43255
G01 X6.41575 Y-0.43255
G01 X6.67165 Y-0.43255
G01 X7.19370 Y-0.43255
G01 X7.19946 Y-0.43312
G01 X7.20500 Y-0.43480
G01 X7.21010 Y-0.43753
G01 X7.21458 Y-0.44120
G01 X7.21825 Y-0.44567
G01 X7.22098 Y-0.45078
G01 X7.22266 Y-0.45632
G01 X7.22323 Y-0.46208
G01 X7.22323 Y-0.68413
G01 X7.22323 Y-0.94003
G01 X7.22323 Y-1.16208
G01 X7.22266 Y-1.16784
G01 X7.22098 Y-1.17338
G01 X7.21825 Y-1.17848
G01 X7.21458 Y-1.18296
G01 X7.21010 Y-1.18663
G01 X7.20500 Y-1.18936
G01 X7.19946 Y-1.19104
G01 X7.19370 Y-1.19161
G01 X6.67165 Y-1.19161
G01 X6.41575 Y-1.19161
G01 X5.89370 Y-1.19161
G01 X5.88794 Y-1.19104
G01 X5.88240 Y-1.18936
G01 X5.87730 Y-1.18663
G01 X5.87282 Y-1.18296
G01 X5.86915 Y-1.17848
G01 X5.86642 Y-1.17338
G01 X5.86474 Y-1.16784
G01 X5.86417 Y-1.16208
G01 Z-0.02193 F50.00000 ( plunge. )
G04 P0 ( dwell for no time -- G64 should not smooth over this point )
G01 F100.00000
G01 X5.86417 Y-1.16208
G01 X5.86417 Y-0.94003
G01 X5.86417 Y-0.68413
G01 X5.86417 Y-0.46208
G01 X5.86474 Y-0.45632
G01 X5.86642 Y-0.45078
G01 X5.86915 Y-0.44567
G01 X5.87282 Y-0.44120
G01 X5.87730 Y-0.43753
G01 X5.88240 Y-0.43480
G01 X5.88794 Y-0.43312
G01 X5.89370 Y-0.43255
G01 X6.41575 Y-0.43255
G01 X6.67165 Y-0.43255
G01 X7.19370 Y-0.43255
G01 X7.19946 Y-0.43312
G01 X7.20500 Y-0.43480
G01 X7.21010 Y-0.43753
G01 X7.21458 Y-0.44120
G01 X7.21825 Y-0.44567
G01 X7.22098 Y-0.45078
G01 X7.22266 Y-0.45632
G01 X7.22323 Y-0.46208
G01 X7.22323 Y-0.68413
G01 X7.22323 Y-0.94003
G01 X7.22323 Y-1.16208
G01 X7.22266 Y-1.16784
G01 X7.22098 Y-1.17338
G01 X7.21825 Y-1.17848
G01 X7.21458 Y-1.18296
G01 X7.21010 Y-1.18663
G01 X7.20500 Y-1.18936
G01 X7.19946 Y-1.19104
G01 X7.19370 Y-1.19161
G01 X6.67165 Y-1.19161
G01 X6.41575 Y-1.19161
G01 X5.89370 Y-1.19161
G01 X5.88794 Y-1.19104
G01 X5.88240 Y-1.18936
G01 X5.87730 Y-1.18663
G01 X5.87282 Y-1.18296
G01 X5.86915 Y-1.17848
G01 X5.86642 Y-1.17338
G01 X5.86474 Y-1.16784
G01 X5.86417 Y-1.16208
G01 Z-0.02925 F50.00000 ( plunge. )
G04 P0 ( dwell for no time -- G64 should not smooth over this point )
G01 F100.00000
G01 X5.86417 Y-1.16208
G01 X5.86417 Y-0.94003
G01 Z-0.02362
G01 X5.86417 Y-0.68413
G01 Z-0.02925 F50.00000
G01 F100.00000
G01 X5.86417 Y-0.46208
G01 X5.86474 Y-0.45632
G01 X5.86642 Y-0.45078
G01 X5.86915 Y-0.44567
G01 X5.87282 Y-0.44120
G01 X5.87730 Y-0.43753
G01 X5.88240 Y-0.43480
G01 X5.88794 Y-0.43312
G01 X5.89370 Y-0.43255
G01 X6.41575 Y-0.43255
G01 Z-0.02362
G01 X6.67165 Y-0.43255
G01 Z-0.02925 F50.00000
G01 F100.00000
G01 X7.19370 Y-0.43255
G01 X7.19946 Y-0.43312
G01 X7.20500 Y-0.43480
G01 X7.21010 Y-0.43753
G01 X7.21458 Y-0.44120
G01 X7.21825 Y-0.44567
G01 X7.22098 Y-0.45078
G01 X7.22266 Y-0.45632
G01 X7.22323 Y-0.46208
G01 X7.22323 Y-0.68413
G01 Z-0.02362
G01 X7.22323 Y-0.94003
G01 Z-0.02925 F50.00000
G01 F100.00000
G01 X7.22323 Y-1.16208
G01 X7.22266 Y-1.16784
G01 X7.22098 Y-1.17338
G01 X7.21825 Y-1.17848
G01 X7.21458 Y-1.18296
G01 X7.21010 Y-1.18663
G01 X7.20500 Y-1.18936
G01 X7.19946 Y-1.19104
G01 X7.19370 Y-1.19161
G01 X6.67165 Y-1.19161
G01 Z-0.02362
G01 X6.41575 Y-1.19161
G01 Z-0.02925 F50.00000
G01 F100.00000
G01 X5.89370 Y-1.19161
G01 X5.88794 Y-1.19104
G01 X5.88240 Y-1.18936
G01 X5.87730 Y-1.18663
G01 X5.87282 Y-1.18296
G01 X5.86915 Y-1.17848
G01 X5.86642 Y-1.17338
G01 X5.86474 Y-1.16784
G01 X5.86417 Y-1.16208
G01 Z-0.03656 F50.00000 ( plunge. )
G04 P0 ( dwell for no time -- G64 should not smooth over this point )
G01 F100.00000
G01 X5.86417 Y-1.16208
G01 X5.86417 Y-0.94003
G01 Z-0.02362
G01 X5.86417 Y-0.68413
G01 Z-0.03656 F50.00000
G01 F100.00000
G01 X5.86417 Y-0.46208
G01 X5.86474 Y-0.45632
G01 X5.86642 Y-0.45078
G01 X5.86915 Y-0.44567
G01 X5.87282 Y-0.44120
G01 X5.87730 Y-0.43753
G01 X5.88240 Y-0.43480
G01 X5.88794 Y-0.43312
G01 X5.89370 Y-0.43255
G01 X6.41575 Y-0.43255
G01 Z-0.02362
G01 X6.67165 Y-0.43255
G01 Z-0.03656 F50.00000
G01 F100.00000
G01 X7.19370 Y-0.43255
G01 X7.19946 Y-0.43312
G01 X7.20500 Y-0.43480
G01 X7.21010 Y-0.43753
G01 X7.21458 Y-0.44120
G01 X7.21825 Y-0.44567
G01 X7.22098 Y-0.45078
G01 X7.22266 Y-0.45632
G01 X7.22323 Y-0.46208
G01 X7.22323 Y-0.68413
G01 Z-0.02362
G01 X7.22323 Y-0.94003
G01 Z-0.03656 F50.00000
G01 F100.00000
G01 X7.22323 Y-1.16208
G01 X7.22266 Y-1.16784
G01 X7.22098 Y-1.17338
G01 X7.21825 Y-1.17848
G01 X7.21458 Y-1.18296
G01 X7.21010 Y-1.18663
G01 X7.20500 Y-1.18936
G01 X7.19946 Y-1.19104
G01 X7.19370 Y-1.19161
G01 X6.67165 Y-1.19161
G01 Z-0.02362
G01 X6.41575 Y-1.19161
G01 Z-0.03656 F50.00000
G01 F100.00000
G01 X5.89370 Y-1.19161
G01 X5.88794 Y-1.19104
G01 X5.88240 Y-1.18936
G01 X5.87730 Y-1.18663
G01 X5.87282 Y-1.18296
G01 X5.86915 Y-1.17848
G01 X5.86642 Y-1.17338
G01 X5.86474 Y-1.16784
G01 X5.86417 Y-1.16208
G01 Z-0.04387 F50.00000 ( plunge. )
G04 P0 ( dwell for no time -- G64 should not smooth over this point )
G01 F100.00000
G01 X5.86417 Y-1.16208
G01 X5.86417 Y-0.94003
G01 Z-0.02362
G01 X5.86417 Y-0.68413
G01 Z-0.04387 F50.00000
G01 F100.00000
G01 X5.86417 Y-0.46208
G01 X5.86474 Y-0.45632
G01 X5.86642 Y-0.45078
G01 X5.86915 Y-0.44567
G01 X5.87282 Y-0.44120
G01 X5.87730 Y-0.43753
G01 X5.88240 Y-0.43480
G01 X5.88794 Y-0.43312
G01 X5.89370 Y-0.43255
G01 X6.41575 Y-0.43255
G01 Z-0.02362
G01 X6.67165 Y-0.43255
G01 Z-0.04387 F50.00000
G01 F100.00000
G01 X7.19370 Y-0.43255
G01 X7.19946 Y-0.43312
G01 X7.20500 Y-0.43480
G01 X7.21010 Y-0.43753
G01 X7.21458 Y-0.44120
G01 X7.21825 Y-0.44567
G01 X7.22098 Y-0.45078
G01 X7.22266 Y-0.45632
G01 X7.22323 Y-0.46208
G01 X7.22323 Y-0.68413
G01 Z-0.02362
G01 X7.22323 Y-0.94003
G01 Z-0.04387 F50.00000
G01 F100.00000
G01 X7.22323 Y-1.16208
G01 X7.22266 Y-1.16784
G01 X7.22098 Y-1.17338
G01 X7.21825 Y-1.17848
G01 X7.21458 Y-1.18296
G01 X7.21010 Y-1.18663
G01 X7.20500 Y-1.18936
G01 X7.19946 Y-1.19104
G01 X7.19370 Y-1.19161
G01 X6.67165 Y-1.19161
G01 Z-0.02362
G01 X6.41575 Y-1.19161
G01 Z-0.04387 F50.00000
G01 F100.00000
G01 X5.89370 Y-1.19161
G01 X5.88794 Y-1.19104
G01 X5.88240 Y-1.18936
G01 X5.87730 Y-1.18663
G01 X5.87282 Y-1.18296
G01 X5.86915 Y-1.17848
G01 X5.86642 Y-1.17338
G01 X5.86474 Y-1.16784
G01 X5.86417 Y-1.16208
G01 Z-0.05118 F50.00000 ( plunge. )
G04 P0 ( dwell for no time -- G64 should not smooth over this point )
G01 F100.00000
G01 X5.86417 Y-1.16208
G01 X5.86417 Y-0.94003
G01 Z-0.02362
G01 X5.86417 Y-0.68413
G01 Z-0.05118 F50.00000
G01 F100.00000
G01 X5.86417 Y-0.46208
G01 X5.86474 Y-0.45632
G01 X5.86642 Y-0.45078
G01 X5.86915 Y-0.44567
G01 X5.87282 Y-0.44120
G01 X5.87730 Y-0.43753
G01 X5.88240 Y-0.43480
G01 X5.88794 Y-0.43312
G01 X5.89370 Y-0.43255
G01 X6.41575 Y-0.43255
G01 Z-0.02362
G01 X6.67165 Y-0.43255
G01 Z-0.05118 F50.00000
G01 F100.00000
G01 X7.19370 Y-0.43255
G01 X7.19946 Y-0.43312
G01 X7.20500 Y-0.43480
G01 X7.21010 Y-0.43753
G01 X7.21458 Y-0.44120
G01 X7.21825 Y-0.44567
G01 X7.22098 Y-0.45078
G01 X7.22266 Y-0.45632
G01 X7.22323 Y-0.46208
G01 X7.22323 Y-0.68413
G01 Z-0.02362
G01 X7.22323 Y-0.94003
G01 Z-0.05118 F50.00000
G01 F100.00000
G01 X7.22323 Y-1.16208
G01 X7.22266 Y-1.16784
G01 X7.22098 Y-1.17338
G01 X7.21825 Y-1.17848
G01 X7.21458 Y-1.18296
G01 X7.21010 Y-1.18663
G01 X7.20500 Y-1.18936
G01 X7.19946 Y-1.19104
G01 X7.19370 Y-1.19161
G01 X6.67165 Y-1.19161
G01 Z-0.02362
G01 X6.41575 Y-1.19161
G01 Z-0.05118 F50.00000
G01 F100.00000
G01 X5.89370 Y-1.19161
G01 X5.88794 Y-1.19104
G01 X5.88240 Y-1.18936
G01 X5.87730 Y-1.18663
G01 X5.87282 Y-1.18296
G01 X5.86915 Y-1.17848
G01 X5.86642 Y-1.17338
G01 X5.86474 Y-1.16784
G01 X5.86417 Y-1.16208
( Piece #6, position [1;2] )

G04 P0 ( dwell for no time -- G64 should not smooth over this point )
G00 Z0.08000 ( retract )

G00 X7.23313 Y0.53792 ( rapid move to begin. )
G01 Z-0.00731 F50.00000 ( plunge. )
G04 P0 ( dwell for no time -- G64 should not smooth over this point )
G01 F100.00000
G01 X7.23313 Y0.53792
G01 X7.23370 Y0.53216
G01 X7.23538 Y0.52662
G01 X7.23811 Y0.52152
G01 X7.24178 Y0.51704
G01 X7.24626 Y0.51337
G01 X7.25136 Y0.51064
G01 X7.25690 Y0.50896
G01 X7.26266 Y0.50839
G01 X7.38471 Y0.50839
G01 X7.64061 Y0.50839
G01 X7.76266 Y0.50839
G01 X7.76842 Y0.50896
G01 X7.77396 Y0.51064
G01 X7.77907 Y0.51337
G01 X7.78354 Y0.51704
G01 X7.78721 Y0.52152
G01 X7.78994 Y0.52662
G01 X7.79162 Y0.53216
G01 X7.79219 Y0.53792
G01 X7.79219 Y0.65997
G01 X7.79219 Y0.91587
G01 X7.79219 Y1.03792
G01 X7.79162 Y1.04368
G01 X7.78994 Y1.04922
G01 X7.78721 Y1.05433
G01 X7.78354 Y1.05880
G01 X7.77907 Y1.06247
G01 X7.77396 Y1.06520
G01 X7.76842 Y1.06688
G01 X7.76266 Y1.06745
G01 X7.75690 Y1.06688
G01 X7.75136 Y1.06520
G01 X7.74626 Y1.06247
G01 X7.74178 Y1.05880
G01 X7.58226 Y0.89928
G01 X7.40131 Y0.71832
G01 X7.24178 Y0.55880
G01 X7.23811 Y0.55433
G01 X7.23538 Y0.54922
G01 X7.23370 Y0.54368
G01 X7.23313 Y0.53792
G01 Z-0.01462 F50.00000 ( plunge. )
G04 P0 ( dwell for no time -- G64 should not smooth over this point )
G01 F100.00000
G01 X7.23313 Y0.53792
G01 X7.23370 Y0.53216
G01 X7.23538 Y0.52662
G01 X7.23811 Y0.52152
G01 X7.24178 Y0.51704
G01 X7.24626 Y0.51337
G01 X7.25136 Y0.51064
G01 X7.25690 Y0.50896
G01 X7.26266 Y0.50839
G01 X7.38471 Y0.50839
G01 X7.64061 Y0.50839
G01 X7.76266 Y0.50839
G01 X7.76842 Y0.50896
G01 X7.77396 Y0.51064
G01 X7.77907 Y0.51337
G01 X7.78354 Y0.51704
G01 X7.78721 Y0.52152
G01 X7.78994 Y0.52662
G01 X7.79162 Y0.53216
G01 X7.79219 Y0.53792
G01 X7.79219 Y0.65997
G01 X7.79219 Y0.91587
G01 X7.79219 Y1.03792
G01 X7.79162 Y1.04368
G01 X7.78994 Y1.04922
G01 X7.78721 Y1.05433
G01 X7.78354 Y1.05880
G01 X7.77907 Y1.06247
G01 X7.77396 Y1.06520
G01 X7.76842 Y1.06688
G01 X7.76266 Y1.06745
G01 X7.75690 Y1.06688
G01 X7.75136 Y1.06520
G01 X7.74626 Y1.06247
G01 X7.74178 Y1.05880
G01 X7.58226 Y0.89928
G01 X7.40131 Y0.71832
G01 X7.24178 Y0.55880
G01 X7.23811 Y0.55433
G01 X7.23538 Y0.54922
G01 X7.23370 Y0.54368
G01 X7.23313 Y0.53792
G01 Z-0.02193 F50.00000 ( plunge. )
G04 P0 ( dwell for no time -- G64 should not smooth over this point )
G01 F100.00000
G01 X7.23313 Y0.53792
G01 X7.23370 Y0.53216
G01 X7.23538 Y0.52662
G01 X7.23811 Y0.52152
G01 X7.24178 Y0.51704
G01 X7.24626 Y0.51337
G01 X7.25136 Y0.51064
G01 X7.25690 Y0.50896
G01 X7.26266 Y0.50839
G01 X7.38471 Y0.50839
G01 X7.64061 Y0.50839
G01 X7.76266 Y0.50839
G01 X7.76842 Y0.50896
G01 X7.77396 Y0.51064
G01 X7.77907 Y0.51337
G01 X7.78354 Y0.51704
G01 X7.78721 Y0.52152
G01 X7.78994 Y0.52662
G01 X7.79162 Y0.53216
G01 X7.79219 Y0.53792
G01 X7.79219 Y0.65997
G01 X7.79219 Y0.91587
G01 X7.79219 Y1.03792
G01 X7.79162 Y1.04368
G01 X7.78994 Y1.04922
G01 X7.78721 Y1.05433
G01 X7.78354 Y1.05880
G01 X7.77907 Y1.06247
G01 X7.77396 Y1.06520
G01 X7.76842 Y1.06688
G01 X7.76266 Y1.06745
G01 X7.75690 Y1.06688
G01 X7.75136 Y1.06520
G01 X7.74626 Y1.06247
G01 X7.74178 Y1.05880
G01 X7.58226 Y0.89928
G01 X7.40131 Y0.71832
G01 X7.24178 Y0.55880
G01 X7.23811 Y0.55433
G01 X7.23538 Y0.54922
G01 X7.23370 Y0.54368
G01 X7.23313 Y0.53792
G01 Z-0.02925 F50.00000 ( plunge. )
G04 P0 ( dwell for no time -- G64 should not smooth over this point )
G01 F100.00000
G01 X7.23313 Y0.53792
G01 X7.23370 Y0.53216
G01 X7.23538 Y0.52662
G01 X7.23811 Y0.52152
G01 X7.24178 Y0.51704
G01 X7.24626 Y0.51337
G01 X7.25136 Y0.51064
G01 X7.25690 Y0.50896
G01 X7.26266 Y0.50839
G01 X7.38471 Y0.50839
G01 Z-0.02362
G01 X7.64061 Y0.50839
G01 Z-0.02925 F50.00000
G01 F100.00000
G01 X7.76266 Y0.50839
G01 X7.76842 Y0.50896
G01 X7.77396 Y0.51064
G01 X7.77907 Y0.51337
G01 X7.78354 Y0.51704
G01 X7.78721 Y0.52152
G01 X7.78994 Y0.52662
G01 X7.79162 Y0.53216
G01 X7.79219 Y0.53792
G01 X7.79219 Y0.65997
G01 Z-0.02362
G01 X7.79219 Y0.91587
G01 Z-0.02925 F50.00000
G01 F100.00000
G01 X7.79219 Y1.03792
G01 X7.79162 Y1.04368
G01 X7.78994 Y1.04922
G01 X7.78721 Y1.05433
G01 X7.78354 Y1.05880
G01 X7.77907 Y1.06247
G01 X7.77396 Y1.06520
G01 X7.76842 Y1.06688
G01 X7.76266 Y1.06745
G01 X7.75690 Y1.06688
G01 X7.75136 Y1.06520
G01 X7.74626 Y1.06247
G01 X7.74178 Y1.05880
G01 X7.58226 Y0.89928
G01 Z-0.02362
G01 X7.40131 Y0.71832
G01 Z-0.02925 F50.00000
G01 F100.00000
G01 X7.24178 Y0.55880
G01 X7.23811 Y0.55433
G01 X7.23538 Y0.54922
G01 X7.23370 Y0.54368
G01 X7.23313 Y0.53792
G01 Z-0.03656 F50.00000 ( plunge. )
G04 P0 ( dwell for no time -- G64 should not smooth over this point )
G01 F100.00000
G01 X7.23313 Y0.53792
G01 X7.23370 Y0.53216
G01 X7.23538 Y0.52662
G01 X7.23811 Y0.52152
G01 X7.24178 Y0.51704
G01 X7.24626 Y0.51337
G01 X7.25136 Y0.51064
G01 X7.25690 Y0.50896
G01 X7.26266 Y0.50839
G01 X7.38471 Y0.50839
G01 Z-0.02362
G01 X7.64061 Y0.50839
G01 Z-0.03656 F50.00000
G01 F100.00000
G01 X7.76266 Y0.50839
G01 X7.76842 Y0.50896
G01 X7.77396 Y0.51064
G01 X7.77907 Y0.51337
G01 X7.78354 Y0.51704
G01 X7.78721 Y0.52152
G01 X7.78994 Y0.52662
G01 X7.79162 Y0.53216
G01 X7.79219 Y0.53792
G01 X7.79219 Y0.65997
G01 Z-0.02362
G01 X7.79219 Y0.91587
G01 Z-0.03656 F50.00000
G01 F100.00000
G01 X7.79219 Y1.03792
G01 X7.79162 Y1.04368
G01 X7.78994 Y1.04922
G01 X7.78721 Y1.05433
G01 X7.78354 Y1.05880
G01 X7.77907 Y1.06247
G01 X7.77396 Y1.06520
G01 X7.76842 Y1.06688
G01 X7.76266 Y1.06745
G01 X7.75690 Y1.06688
G01 X7.75136 Y1.06520
G01 X7.74626 Y1.06247
G01 X7.74178 Y1.05880
G01 X7.58226 Y0.89928
G01 Z-0.02362
G01 X7.40131 Y0.71832
G01 Z-0.03656 F50.00000
G01 F100.00000
G01 X7.24178 Y0.55880
G01 X7.23811 Y0.55433
G01 X7.23538 Y0.54922
G01 X7.23370 Y0.54368
G01 X7.23313 Y0.53792
G01 Z-0.04387 F50.00000 ( plunge. )
G04 P0 ( dwell for no time -- G64 should not smooth over this point )
G01 F100.00000
G01 X7.23313 Y0.53792
G01 X7.23370 Y0.53216
G01 X7.23538 Y0.52662
G01 X7.23811 Y0.52152
G01 X7.24178 Y0.51704
G01 X7.24626 Y0.51337
G01 X7.25136 Y0.51064
G01 X7.25690 Y0.50896
G01 X7.26266 Y0.50839
G01 X7.38471 Y0.50839
G01 Z-0.02362
G01 X7.64061 Y0.50839
G01 Z-0.04387 F50.00000
G01 F100.00000
G01 X7.76266 Y0.50839
G01 X7.76842 Y0.50896
G01 X7.77396 Y0.51064
G01 X7.77907 Y0.51337
G01 X7.78354 Y0.51704
G01 X7.78721 Y0.52152
G01 X7.78994 Y0.52662
G01 X7.79162 Y0.53216
G01 X7.79219 Y0.53792
G01 X7.79219 Y0.65997
G01 Z-0.02362
G01 X7.79219 Y0.91587
G01 Z-0.04387 F50.00000
G01 F100.00000
G01 X7.79219 Y1.03792
G01 X7.79162 Y1.04368
G01 X7.78994 Y1.04922
G01 X7.78721 Y1.05433
G01 X7.78354 Y1.05880
G01 X7.77907 Y1.06247
G01 X7.77396 Y1.06520
G01 X7.76842 Y1.06688
G01 X7.76266 Y1.06745
G01 X7.75690 Y1.06688
G01 X7.75136 Y1.06520
G01 X7.74626 Y1.06247
G01 X7.74178 Y1.05880
G01 X7.58226 Y0.89928
G01 Z-0.02362
G01 X7.40131 Y0.71832
G01 Z-0.04387 F50.00000
G01 F100.00000
G01 X7.24178 Y0.55880
G01 X7.23811 Y0.55433
G01 X7.23538 Y0.54922
G01 X7.23370 Y0.54368
G01 X7.23313 Y0.53792
G01 Z-0.05118 F50.00000 ( plunge. )
G04 P0 ( dwell for no time -- G64 should not smooth over this point )
G01 F100.00000
G01 X7.23313 Y0.53792
G01 X7.23370 Y0.53216
G01 X7.23538 Y0.52662
G01 X7.23811 Y0.52152
G01 X7.24178 Y0.51704
G01 X7.24626 Y0.51337
G01 X7.25136 Y0.51064
G01 X7.25690 Y0.50896
G01 X7.26266 Y0.50839
G01 X7.38471 Y0.50839
G01 Z-0.02362
G01 X7.64061 Y0.50839
G01 Z-0.05118 F50.00000
G01 F100.00000
G01 X7.76266 Y0.50839
G01 X7.76842 Y0.50896
G01 X7.77396 Y0.51064
G01 X7.77907 Y0.51337
G01 X7.78354 Y0.51704
G01 X7.78721 Y0.52152
G01 X7.78994 Y0.52662
G01 X7.79162 Y0.53216
G01 X7.79219 Y0.53792
G01 X7.79219 Y0.65997
G01 Z-0.02362
G01 X7.79219 Y0.91587
G01 Z-0.05118 F50.00000
G01 F100.00000
G01 X7.79219 Y1.03792
G01 X7.79162 Y1.04368
G01 X7.78994 Y1.04922
G01 X7.78721 Y1.05433
G01 X7.78354 Y1.05880
G01 X7.77907 Y1.06247
G01 X7.77396 Y1.06520
G01 X7.76842 Y1.06688
G01 X7.76266 Y1.06745
G01 X7.75690 Y1.06688
G01 X7.75136 Y1.06520
G01 X7.74626 Y1.06247
G01 X7.74178 Y1.05880
G01 X7.58226 Y0.89928
G01 Z-0.02362
G01 X7.40131 Y0.71832
G01 Z-0.05118 F50.00000
G01 F100.00000
G01 X7.24178 Y0.55880
G01 X7.23811 Y0.55433
G01 X7.23538 Y0.54922
G01 X7.23370 Y0.54368
G01 X7.23313 Y0.53792
G04 P0 ( dwell for no time -- G64 should not smooth over this point )
G00 Z0.08000 ( retract )

G00 X8.53313 Y-1.16208 ( rapid move to begin. )
G01 Z-0.00731 F50.00000 ( plunge. )
G04 P0 ( dwell for no time -- G64 should not smooth over this point )
G01 F100.00000
G01 X8.53313 Y-1.16208
G01 X8.53313 Y-0.94003
G01 X8.53313 Y-0.68413
G01 X8.53313 Y-0.46208
G01 X8.53370 Y-0.45632
G01 X8.53538 Y-0.45078
G01 X8.53811 Y-0.44567
G01 X8.54178 Y-0.44120
G01 X8.54626 Y-0.43753
G01 X8.55136 Y-0.43480
G01 X8.55690 Y-0.43312
G01 X8.56266 Y-0.43255
G01 X9.08471 Y-0.43255
G01 X9.34061 Y-0.43255
G01 X9.86266 Y-0.43255
G01 X9.86842 Y-0.43312
G01 X9.87396 Y-0.43480
G01 X9.87907 Y-0.43753
G01 X9.88354 Y-0.44120
G01 X9.88721 Y-0.44567
G01 X9.88994 Y-0.45078
G01 X9.89162 Y-0.45632
G01 X9.89219 Y-0.46208
G01 X9.89219 Y-0.68413
G01 X9.89219 Y-0.94003
G01 X9.89219 Y-1.16208
G01 X9.89162 Y-1.16784
G01 X9.88994 Y-1.17338
G01 X9.88721 Y-1.17848
G01 X9.88354 Y-1.18296
G01 X9.87907 Y-1.18663
G01 X9.87396 Y-1.18936
G01 X9.86842 Y-1.19104
G01 X9.86266 Y-1.19161
G01 X9.34061 Y-1.19161
G01 X9.08471 Y-1.19161
G01 X8.56266 Y-1.19161
G01 X8.55690 Y-1.19104
G01 X8.55136 Y-1.18936
G01 X8.54626 Y-1.18663
G01 X8.54178 Y-1.18296
G01 X8.53811 Y-1.17848
G01 X8.53538 Y-1.17338
G01 X8.53370 Y-1.16784
G01 X8.53313 Y-1.16208
G01 Z-0.01462 F50.00000 ( plunge. )
G04 P0 ( dwell for no time -- G64 should not smooth over this point )
G01 F100.00000
G01 X8.53313 Y-1.16208
G01 X8.53313 Y-0.94003
G01 X8.53313 Y-0.68413
G01 X8.53313 Y-0.46208
G01 X8.53370 Y-0.45632
G01 X8.53538 Y-0.45078
G01 X8.53811 Y-0.44567
G01 X8.54178 Y-0.44120
G01 X8.54626 Y-0.43753
G01 X8.55136 Y-0.43480
G01 X8.55690 Y-0.43312
G01 X8.56266 Y-0.43255
G01 X9.08471 Y-0.43255
G01 X9.34061 Y-0.43255
G01 X9.86266 Y-0.43255
G01 X9.86842 Y-0.43312
G01 X9.87396 Y-0.43480
G01 X9.87907 Y-0.43753
G01 X9.88354 Y-0.44120
G01 X9.88721 Y-0.44567
G01 X9.88994 Y-0.45078
G01 X9.89162 Y-0.45632
G01 X9.89219 Y-0.46208
G01 X9.89219 Y-0.68413
G01 X9.89219 Y-0.94003
G01 X9.89219 Y-1.16208
G01 X9.89162 Y-1.16784
G01 X9.88994 Y-1.17338
G01 X9.88721 Y-1.17848
G01 X9.88354 Y-1.18296
G01 X9.87907 Y-1.18663
G01 X9.87396 Y-1.18936
G01 X9.86842 Y-1.19104
G01 X9.86266 Y-1.19161
G01 X9.34061 Y-1.19161
G01 X9.08471 Y-1.19161
G01 X8.56266 Y-1.19161
G01 X8.55690 Y-1.19104
G01 X8.55136 Y-1.18936
G01 X8.54626 Y-1.18663
G01 X8.54178 Y-1.18296
G01 X8.53811 Y-1.17848
G01 X8.53538 Y-1.17338
G01 X8.53370 Y-1.16784
G01 X8.53313 Y-1.16208
G01 Z-0.02193 F50.00000 ( plunge. )
G04 P0 ( dwell for no time -- G64 should not smooth over this point )
G01 F100.00000
G01 X8.53313 Y-1.16208
G01 X8.53313 Y-0.94003
G01 X8.53313 Y-0.68413
G01 X8.53313 Y-0.46208
G01 X8.53370 Y-0.45632
G01 X8.53538 Y-0.45078
G01 X8.53811 Y-0.44567
G01 X8.54178 Y-0.44120
G01 X8.54626 Y-0.43753
G01 X8.55136 Y-0.43480
G01 X8.55690 Y-0.43312
G01 X8.56266 Y-0.43255
G01 X9.08471 Y-0.43255
G01 X9.34061 Y-0.43255
G01 X9.86266 Y-0.43255
G01 X9.86842 Y-0.43312
G01 X9.87396 Y-0.43480
G01 X9.87907 Y-0.43753
G01 X9.88354 Y-0.44120
G01 X9.88721 Y-0.44567
G01 X9.88994 Y-0.45078
G01 X9.89162 Y-0.45632
G01 X9.89219 Y-0.46208
G01 X9.89219 Y-0.68413
G01 X9.89219 Y-0.94003
G01 X9.89219 Y-1.16208
G01 X9.89162 Y-1.16784
G01 X9.88994 Y-1.17338
G01 X9.88721 Y-1.17848
G01 X9.88354 Y-1.18296
G01 X9.87907 Y-1.18663
G01 X9.87396 Y-1.18936
G01 X9.86842 Y-1.19104
G01 X9.86266 Y-1.19161
G01 X9.34061 Y-1.19161
G01 X9.08471 Y-1.19161
G01 X8.56266 Y-1.19161
G01 X8.55690 Y-1.19104
G01 X8.55136 Y-1.18936
G01 X8.54626 Y-1.18663
G01 X8.54178 Y-1.18296
G01 X8.53811 Y-1.17848
G01 X8.53538 Y-1.17338
G01 X8.53370 Y-1.16784
G01 X8.53313 Y-1.16208
G01 Z-0.02925 F50.00000 ( plunge. )
G04 P0 ( dwell for no time -- G64 should not smooth over this point )
G01 F100.00000
G01 X8.53313 Y-1.16208
G01 X8.53313 Y-0.94003
G01 Z-0.02362
G01 X8.53313 Y-0.68413
G01 Z-0.02925 F50.00000
G01 F100.00000
G01 X8.53313 Y-0.46208
G01 X8.53370 Y-0.45632
G01 X8.53538 Y-0.45078
G01 X8.53811 Y-0.44567
G01 X8.54178 Y-0.44120
G01 X8.54626 Y-0.43753
G01 X8.55136 Y-0.43480
G01 X8.55690 Y-0.43312
G01 X8.56266 Y-0.43255
G01 X9.08471 Y-0.43255
G01 Z-0.02362
G01 X9.34061 Y-0.43255
G01 Z-0.02925 F50.00000
G01 F100.00000
G01 X9.86266 Y-0.43255
G01 X9.86842 Y-0.43312
G01 X9.87396 Y-0.43480
G01 X9.87907 Y-0.43753
G01 X9.88354 Y-0.44120
G01 X9.88721 Y-0.44567
