( pcb2gcode 2.5.0 )
( Software-independent Gcode )

G94 ( Inches per minute feed rate. )
G20 ( Units == INCHES. )

G90 ( Absolute coordinates. )
G00 S10000 ( RPM spindle speed. )
G64 P0.00040 ( set maximum deviation from commanded toolpath )
G01 F100.00000 ( Feedrate. )


G00 Z1.00000 (Retract to tool change height)
T1
M5      (Spindle stop.)
G04 P1.00000 (Wait for spindle to stop)
(MSG, Change tool bit to cutter diameter 0.05906in)
M6      (Tool change.)
M0      (Temporary machine stop.)
M3 ( Spindle on clockwise. )
G04 P1.00000 (Wait for spindle to get up to speed)
( Piece #1, position [0;0] )

G04 P0 ( dwell for no time -- G64 should not smooth over this point )
G00 Z0.08000 ( retract )

G00 X4.56417 Y-4.00013 ( rapid move to begin. )
G01 Z-0.00731 F50.00000 ( plunge. )
G04 P0 ( dwell for no time -- G64 should not smooth over this point )
G01 F100.00000
G01 X4.56429 Y-3.99732
G01 X4.56468 Y-3.99453
G01 X4.56533 Y-3.99180
G01 X4.56624 Y-3.98914
G01 X4.56740 Y-3.98657
G01 X4.56880 Y-3.98413
G01 X4.57042 Y-3.98183
G01 X4.57254 Y-3.97941
G01 X4.62791 Y-3.92404
G01 X4.73249 Y-3.81946
G01 X4.91345 Y-3.63851
G01 X5.01680 Y-3.53515
G01 X5.07340 Y-3.47856
G01 X5.07587 Y-3.47647
G01 X5.07820 Y-3.47486
G01 X5.08068 Y-3.47350
G01 X5.08328 Y-3.47237
G01 X5.08597 Y-3.47150
G01 X5.08873 Y-3.47089
G01 X5.09154 Y-3.47055
G01 X5.09437 Y-3.47048
G01 X5.09720 Y-3.47068
G01 X5.09999 Y-3.47115
G01 X5.10311 Y-3.47201
G01 X5.10574 Y-3.47304
G01 X5.10827 Y-3.47432
G01 X5.11066 Y-3.47583
G01 X5.11290 Y-3.47756
G01 X5.11524 Y-3.47980
G01 X5.11707 Y-3.48195
G01 X5.11869 Y-3.48427
G01 X5.11990 Y-3.48638
G01 X5.12108 Y-3.48895
G01 X5.12201 Y-3.49162
G01 X5.12269 Y-3.49437
G01 X5.12305 Y-3.49677
G01 X5.12322 Y-3.49959
G01 X5.12323 Y-3.60713
G01 X5.12323 Y-3.90329
G01 X5.12323 Y-4.00000
G01 X5.12305 Y-4.00322
G01 X5.12261 Y-4.00601
G01 X5.12190 Y-4.00874
G01 X5.12078 Y-4.01176
G01 X5.11954 Y-4.01430
G01 X5.11782 Y-4.01703
G01 X5.11582 Y-4.01956
G01 X5.11385 Y-4.02158
G01 X5.11170 Y-4.02341
G01 X5.10939 Y-4.02502
G01 X5.10693 Y-4.02640
G01 X5.10472 Y-4.02739
G01 X5.10205 Y-4.02832
G01 X5.09931 Y-4.02899
G01 X5.09692 Y-4.02935
G01 X5.09410 Y-4.02952
G01 X4.98087 Y-4.02952
G01 X4.70216 Y-4.02951
G01 X4.59249 Y-4.02950
G01 X4.58969 Y-4.02925
G01 X4.58692 Y-4.02874
G01 X4.58422 Y-4.02796
G01 X4.58160 Y-4.02693
G01 X4.57909 Y-4.02566
G01 X4.57671 Y-4.02415
G01 X4.57449 Y-4.02243
G01 X4.57245 Y-4.02050
G01 X4.57059 Y-4.01838
G01 X4.56895 Y-4.01610
G01 X4.56753 Y-4.01367
G01 X4.56634 Y-4.01111
G01 X4.56541 Y-4.00846
G01 X4.56473 Y-4.00573
G01 X4.56432 Y-4.00294
G01 X4.56417 Y-4.00013
G01 Z-0.01462 F50.00000 ( plunge. )
G04 P0 ( dwell for no time -- G64 should not smooth over this point )
G01 F100.00000
G01 X4.56429 Y-3.99732
G01 X4.56468 Y-3.99453
G01 X4.56533 Y-3.99180
G01 X4.56624 Y-3.98914
G01 X4.56740 Y-3.98657
G01 X4.56880 Y-3.98413
G01 X4.57042 Y-3.98183
G01 X4.57254 Y-3.97941
G01 X4.62791 Y-3.92404
G01 X4.73249 Y-3.81946
G01 X4.91345 Y-3.63851
G01 X5.01680 Y-3.53515
G01 X5.07340 Y-3.47856
G01 X5.07587 Y-3.47647
G01 X5.07820 Y-3.47486
G01 X5.08068 Y-3.47350
G01 X5.08328 Y-3.47237
G01 X5.08597 Y-3.47150
G01 X5.08873 Y-3.47089
G01 X5.09154 Y-3.47055
G01 X5.09437 Y-3.47048
G01 X5.09720 Y-3.47068
G01 X5.09999 Y-3.47115
G01 X5.10311 Y-3.47201
G01 X5.10574 Y-3.47304
G01 X5.10827 Y-3.47432
G01 X5.11066 Y-3.47583
G01 X5.11290 Y-3.47756
G01 X5.11524 Y-3.47980
G01 X5.11707 Y-3.48195
G01 X5.11869 Y-3.48427
G01 X5.11990 Y-3.48638
G01 X5.12108 Y-3.48895
G01 X5.12201 Y-3.49162
G01 X5.12269 Y-3.49437
G01 X5.12305 Y-3.49677
G01 X5.12322 Y-3.49959
G01 X5.12323 Y-3.60713
G01 X5.12323 Y-3.90329
G01 X5.12323 Y-4.00000
G01 X5.12305 Y-4.00322
G01 X5.12261 Y-4.00601
G01 X5.12190 Y-4.00874
G01 X5.12078 Y-4.01176
G01 X5.11954 Y-4.01430
G01 X5.11782 Y-4.01703
G01 X5.11582 Y-4.01956
G01 X5.11385 Y-4.02158
G01 X5.11170 Y-4.02341
G01 X5.10939 Y-4.02502
G01 X5.10693 Y-4.02640
G01 X5.10472 Y-4.02739
G01 X5.10205 Y-4.02832
G01 X5.09931 Y-4.02899
G01 X5.09692 Y-4.02935
G01 X5.09410 Y-4.02952
G01 X4.98087 Y-4.02952
G01 X4.70216 Y-4.02951
G01 X4.59249 Y-4.02950
G01 X4.58969 Y-4.02925
G01 X4.58692 Y-4.02874
G01 X4.58422 Y-4.02796
G01 X4.58160 Y-4.02693
G01 X4.57909 Y-4.02566
G01 X4.57671 Y-4.02415
G01 X4.57449 Y-4.02243
G01 X4.57245 Y-4.02050
G01 X4.57059 Y-4.01838
G01 X4.56895 Y-4.01610
G01 X4.56753 Y-4.01367
G01 X4.56634 Y-4.01111
G01 X4.56541 Y-4.00846
G01 X4.56473 Y-4.00573
G01 X4.56432 Y-4.00294
G01 X4.56417 Y-4.00013
G01 Z-0.02193 F50.00000 ( plunge. )
G04 P0 ( dwell for no time -- G64 should not smooth over this point )
G01 F100.00000
G01 X4.56429 Y-3.99732
G01 X4.56468 Y-3.99453
G01 X4.56533 Y-3.99180
G01 X4.56624 Y-3.98914
G01 X4.56740 Y-3.98657
G01 X4.56880 Y-3.98413
G01 X4.57042 Y-3.98183
G01 X4.57254 Y-3.97941
G01 X4.62791 Y-3.92404
G01 X4.73249 Y-3.81946
G01 X4.91345 Y-3.63851
G01 X5.01680 Y-3.53515
G01 X5.07340 Y-3.47856
G01 X5.07587 Y-3.47647
G01 X5.07820 Y-3.47486
G01 X5.08068 Y-3.47350
G01 X5.08328 Y-3.47237
G01 X5.08597 Y-3.47150
G01 X5.08873 Y-3.47089
G01 X5.09154 Y-3.47055
G01 X5.09437 Y-3.47048
G01 X5.09720 Y-3.47068
G01 X5.09999 Y-3.47115
G01 X5.10311 Y-3.47201
G01 X5.10574 Y-3.47304
G01 X5.10827 Y-3.47432
G01 X5.11066 Y-3.47583
G01 X5.11290 Y-3.47756
G01 X5.11524 Y-3.47980
G01 X5.11707 Y-3.48195
G01 X5.11869 Y-3.48427
G01 X5.11990 Y-3.48638
G01 X5.12108 Y-3.48895
G01 X5.12201 Y-3.49162
G01 X5.12269 Y-3.49437
G01 X5.12305 Y-3.49677
G01 X5.12322 Y-3.49959
G01 X5.12323 Y-3.60713
G01 X5.12323 Y-3.90329
G01 X5.12323 Y-4.00000
G01 X5.12305 Y-4.00322
G01 X5.12261 Y-4.00601
G01 X5.12190 Y-4.00874
G01 X5.12078 Y-4.01176
G01 X5.11954 Y-4.01430
G01 X5.11782 Y-4.01703
G01 X5.11582 Y-4.01956
G01 X5.11385 Y-4.02158
G01 X5.11170 Y-4.02341
G01 X5.10939 Y-4.02502
G01 X5.10693 Y-4.02640
G01 X5.10472 Y-4.02739
G01 X5.10205 Y-4.02832
G01 X5.09931 Y-4.02899
G01 X5.09692 Y-4.02935
G01 X5.09410 Y-4.02952
G01 X4.98087 Y-4.02952
G01 X4.70216 Y-4.02951
G01 X4.59249 Y-4.02950
G01 X4.58969 Y-4.02925
G01 X4.58692 Y-4.02874
G01 X4.58422 Y-4.02796
G01 X4.58160 Y-4.02693
G01 X4.57909 Y-4.02566
G01 X4.57671 Y-4.02415
G01 X4.57449 Y-4.02243
G01 X4.57245 Y-4.02050
G01 X4.57059 Y-4.01838
G01 X4.56895 Y-4.01610
G01 X4.56753 Y-4.01367
G01 X4.56634 Y-4.01111
G01 X4.56541 Y-4.00846
G01 X4.56473 Y-4.00573
G01 X4.56432 Y-4.00294
G01 X4.56417 Y-4.00013
G01 Z-0.02925 F50.00000 ( plunge. )
G04 P0 ( dwell for no time -- G64 should not smooth over this point )
G01 F100.00000
G00 Z-0.02362
G01 X4.56429 Y-3.99732
G01 X4.56468 Y-3.99453
G01 X4.56533 Y-3.99180
G01 X4.56624 Y-3.98914
G01 X4.56740 Y-3.98657
G01 X4.56880 Y-3.98413
G01 X4.57042 Y-3.98183
G01 X4.57254 Y-3.97941
G01 X4.62791 Y-3.92404
G01 Z-0.02925 F50.00000
G01 F100.00000
G01 X4.73249 Y-3.81946
G00 Z-0.02362
G01 X4.91345 Y-3.63851
G01 Z-0.02925 F50.00000
G01 F100.00000
G01 X5.01680 Y-3.53515
G00 Z-0.02362
G01 X5.07340 Y-3.47856
G01 X5.07587 Y-3.47647
G01 X5.07820 Y-3.47486
G01 X5.08068 Y-3.47350
G01 X5.08328 Y-3.47237
G01 X5.08597 Y-3.47150
G01 X5.08873 Y-3.47089
G01 X5.09154 Y-3.47055
G01 X5.09437 Y-3.47048
G01 X5.09720 Y-3.47068
G01 X5.09999 Y-3.47115
G01 X5.10311 Y-3.47201
G01 X5.10574 Y-3.47304
G01 X5.10827 Y-3.47432
G01 X5.11066 Y-3.47583
G01 X5.11290 Y-3.47756
G01 X5.11524 Y-3.47980
G01 X5.11707 Y-3.48195
G01 X5.11869 Y-3.48427
G01 X5.11990 Y-3.48638
G01 X5.12108 Y-3.48895
G01 X5.12201 Y-3.49162
G01 X5.12269 Y-3.49437
G01 X5.12305 Y-3.49677
G01 X5.12322 Y-3.49959
G01 X5.12323 Y-3.60713
G01 Z-0.02925 F50.00000
G01 F100.00000
G01 X5.12323 Y-3.90329
G00 Z-0.02362
G01 X5.12323 Y-4.00000
G01 X5.12305 Y-4.00322
G01 X5.12261 Y-4.00601
G01 X5.12190 Y-4.00874
G01 X5.12078 Y-4.01176
G01 X5.11954 Y-4.01430
G01 X5.11782 Y-4.01703
G01 X5.11582 Y-4.01956
G01 X5.11385 Y-4.02158
G01 X5.11170 Y-4.02341
G01 X5.10939 Y-4.02502
G01 X5.10693 Y-4.02640
G01 X5.10472 Y-4.02739
G01 X5.10205 Y-4.02832
G01 X5.09931 Y-4.02899
G01 X5.09692 Y-4.02935
G01 X5.09410 Y-4.02952
G01 X4.98087 Y-4.02952
G01 Z-0.02925 F50.00000
G01 F100.00000
G01 X4.70216 Y-4.02951
G00 Z-0.02362
G01 X4.59249 Y-4.02950
G01 X4.58969 Y-4.02925
G01 X4.58692 Y-4.02874
G01 X4.58422 Y-4.02796
G01 X4.58160 Y-4.02693
G01 X4.57909 Y-4.02566
G01 X4.57671 Y-4.02415
G01 X4.57449 Y-4.02243
G01 X4.57245 Y-4.02050
G01 X4.57059 Y-4.01838
G01 X4.56895 Y-4.01610
G01 X4.56753 Y-4.01367
G01 X4.56634 Y-4.01111
G01 X4.56541 Y-4.00846
G01 X4.56473 Y-4.00573
G01 X4.56432 Y-4.00294
G01 X4.56417 Y-4.00013
G01 Z-0.03656 F50.00000 ( plunge. )
G04 P0 ( dwell for no time -- G64 should not smooth over this point )
G01 F100.00000
G00 Z-0.02362
G01 X4.56429 Y-3.99732
G01 X4.56468 Y-3.99453
G01 X4.56533 Y-3.99180
G01 X4.56624 Y-3.98914
G01 X4.56740 Y-3.98657
G01 X4.56880 Y-3.98413
G01 X4.57042 Y-3.98183
G01 X4.57254 Y-3.97941
G01 X4.62791 Y-3.92404
G01 Z-0.03656 F50.00000
G01 F100.00000
G01 X4.73249 Y-3.81946
G00 Z-0.02362
G01 X4.91345 Y-3.63851
G01 Z-0.03656 F50.00000
G01 F100.00000
G01 X5.01680 Y-3.53515
G00 Z-0.02362
G01 X5.07340 Y-3.47856
G01 X5.07587 Y-3.47647
G01 X5.07820 Y-3.47486
G01 X5.08068 Y-3.47350
G01 X5.08328 Y-3.47237
G01 X5.08597 Y-3.47150
G01 X5.08873 Y-3.47089
G01 X5.09154 Y-3.47055
G01 X5.09437 Y-3.47048
G01 X5.09720 Y-3.47068
G01 X5.09999 Y-3.47115
G01 X5.10311 Y-3.47201
G01 X5.10574 Y-3.47304
G01 X5.10827 Y-3.47432
G01 X5.11066 Y-3.47583
G01 X5.11290 Y-3.47756
G01 X5.11524 Y-3.47980
G01 X5.11707 Y-3.48195
G01 X5.11869 Y-3.48427
G01 X5.11990 Y-3.48638
G01 X5.12108 Y-3.48895
G01 X5.12201 Y-3.49162
G01 X5.12269 Y-3.49437
G01 X5.12305 Y-3.49677
G01 X5.12322 Y-3.49959
G01 X5.12323 Y-3.60713
G01 Z-0.03656 F50.00000
G01 F100.00000
G01 X5.12323 Y-3.90329
G00 Z-0.02362
G01 X5.12323 Y-4.00000
G01 X5.12305 Y-4.00322
G01 X5.12261 Y-4.00601
G01 X5.12190 Y-4.00874
G01 X5.12078 Y-4.01176
G01 X5.11954 Y-4.01430
G01 X5.11782 Y-4.01703
G01 X5.11582 Y-4.01956
G01 X5.11385 Y-4.02158
G01 X5.11170 Y-4.02341
G01 X5.10939 Y-4.02502
G01 X5.10693 Y-4.02640
G01 X5.10472 Y-4.02739
G01 X5.10205 Y-4.02832
G01 X5.09931 Y-4.02899
G01 X5.09692 Y-4.02935
G01 X5.09410 Y-4.02952
G01 X4.98087 Y-4.02952
G01 Z-0.03656 F50.00000
G01 F100.00000
G01 X4.70216 Y-4.02951
G00 Z-0.02362
G01 X4.59249 Y-4.02950
G01 X4.58969 Y-4.02925
G01 X4.58692 Y-4.02874
G01 X4.58422 Y-4.02796
G01 X4.58160 Y-4.02693
G01 X4.57909 Y-4.02566
G01 X4.57671 Y-4.02415
G01 X4.57449 Y-4.02243
G01 X4.57245 Y-4.02050
G01 X4.57059 Y-4.01838
G01 X4.56895 Y-4.01610
G01 X4.56753 Y-4.01367
G01 X4.56634 Y-4.01111
G01 X4.56541 Y-4.00846
G01 X4.56473 Y-4.00573
G01 X4.56432 Y-4.00294
G01 X4.56417 Y-4.00013
G01 Z-0.04387 F50.00000 ( plunge. )
G04 P0 ( dwell for no time -- G64 should not smooth over this point )
G01 F100.00000
G00 Z-0.02362
G01 X4.56429 Y-3.99732
G01 X4.56468 Y-3.99453
G01 X4.56533 Y-3.99180
G01 X4.56624 Y-3.98914
G01 X4.56740 Y-3.98657
G01 X4.56880 Y-3.98413
G01 X4.57042 Y-3.98183
G01 X4.57254 Y-3.97941
G01 X4.62791 Y-3.92404
G01 Z-0.04387 F50.00000
G01 F100.00000
G01 X4.73249 Y-3.81946
G00 Z-0.02362
G01 X4.91345 Y-3.63851
G01 Z-0.04387 F50.00000
G01 F100.00000
G01 X5.01680 Y-3.53515
G00 Z-0.02362
G01 X5.07340 Y-3.47856
G01 X5.07587 Y-3.47647
G01 X5.07820 Y-3.47486
G01 X5.08068 Y-3.47350
G01 X5.08328 Y-3.47237
G01 X5.08597 Y-3.47150
G01 X5.08873 Y-3.47089
G01 X5.09154 Y-3.47055
G01 X5.09437 Y-3.47048
G01 X5.09720 Y-3.47068
G01 X5.09999 Y-3.47115
G01 X5.10311 Y-3.47201
G01 X5.10574 Y-3.47304
G01 X5.10827 Y-3.47432
G01 X5.11066 Y-3.47583
G01 X5.11290 Y-3.47756
G01 X5.11524 Y-3.47980
G01 X5.11707 Y-3.48195
G01 X5.11869 Y-3.48427
G01 X5.11990 Y-3.48638
G01 X5.12108 Y-3.48895
G01 X5.12201 Y-3.49162
G01 X5.12269 Y-3.49437
G01 X5.12305 Y-3.49677
G01 X5.12322 Y-3.49959
G01 X5.12323 Y-3.60713
G01 Z-0.04387 F50.00000
G01 F100.00000
G01 X5.12323 Y-3.90329
G00 Z-0.02362
G01 X5.12323 Y-4.00000
G01 X5.12305 Y-4.00322
G01 X5.12261 Y-4.00601
G01 X5.12190 Y-4.00874
G01 X5.12078 Y-4.01176
G01 X5.11954 Y-4.01430
G01 X5.11782 Y-4.01703
G01 X5.11582 Y-4.01956
G01 X5.11385 Y-4.02158
G01 X5.11170 Y-4.02341
G01 X5.10939 Y-4.02502
G01 X5.10693 Y-4.02640
G01 X5.10472 Y-4.02739
G01 X5.10205 Y-4.02832
G01 X5.09931 Y-4.02899
G01 X5.09692 Y-4.02935
G01 X5.09410 Y-4.02952
G01 X4.98087 Y-4.02952
G01 Z-0.04387 F50.00000
G01 F100.00000
G01 X4.70216 Y-4.02951
G00 Z-0.02362
G01 X4.59249 Y-4.02950
G01 X4.58969 Y-4.02925
G01 X4.58692 Y-4.02874
G01 X4.58422 Y-4.02796
G01 X4.58160 Y-4.02693
G01 X4.57909 Y-4.02566
G01 X4.57671 Y-4.02415
G01 X4.57449 Y-4.02243
G01 X4.57245 Y-4.02050
G01 X4.57059 Y-4.01838
G01 X4.56895 Y-4.01610
G01 X4.56753 Y-4.01367
G01 X4.56634 Y-4.01111
G01 X4.56541 Y-4.00846
G01 X4.56473 Y-4.00573
G01 X4.56432 Y-4.00294
G01 X4.56417 Y-4.00013
G01 Z-0.05118 F50.00000 ( plunge. )
G04 P0 ( dwell for no time -- G64 should not smooth over this point )
G01 F100.00000
G00 Z-0.02362
G01 X4.56429 Y-3.99732
G01 X4.56468 Y-3.99453
G01 X4.56533 Y-3.99180
G01 X4.56624 Y-3.98914
G01 X4.56740 Y-3.98657
G01 X4.56880 Y-3.98413
G01 X4.57042 Y-3.98183
G01 X4.57254 Y-3.97941
G01 X4.62791 Y-3.92404
G01 Z-0.05118 F50.00000
G01 F100.00000
G01 X4.73249 Y-3.81946
G00 Z-0.02362
G01 X4.91345 Y-3.63851
G01 Z-0.05118 F50.00000
G01 F100.00000
G01 X5.01680 Y-3.53515
G00 Z-0.02362
G01 X5.07340 Y-3.47856
G01 X5.07587 Y-3.47647
G01 X5.07820 Y-3.47486
G01 X5.08068 Y-3.47350
G01 X5.08328 Y-3.47237
G01 X5.08597 Y-3.47150
G01 X5.08873 Y-3.47089
G01 X5.09154 Y-3.47055
G01 X5.09437 Y-3.47048
G01 X5.09720 Y-3.47068
G01 X5.09999 Y-3.47115
G01 X5.10311 Y-3.47201
G01 X5.10574 Y-3.47304
G01 X5.10827 Y-3.47432
G01 X5.11066 Y-3.47583
G01 X5.11290 Y-3.47756
G01 X5.11524 Y-3.47980
G01 X5.11707 Y-3.48195
G01 X5.11869 Y-3.48427
G01 X5.11990 Y-3.48638
G01 X5.12108 Y-3.48895
G01 X5.12201 Y-3.49162
G01 X5.12269 Y-3.49437
G01 X5.12305 Y-3.49677
G01 X5.12322 Y-3.49959
G01 X5.12323 Y-3.60713
G01 Z-0.05118 F50.00000
G01 F100.00000
G01 X5.12323 Y-3.90329
G00 Z-0.02362
G01 X5.12323 Y-4.00000
G01 X5.12305 Y-4.00322
G01 X5.12261 Y-4.00601
G01 X5.12190 Y-4.00874
G01 X5.12078 Y-4.01176
G01 X5.11954 Y-4.01430
G01 X5.11782 Y-4.01703
G01 X5.11582 Y-4.01956
G01 X5.11385 Y-4.02158
G01 X5.11170 Y-4.02341
G01 X5.10939 Y-4.02502
G01 X5.10693 Y-4.02640
G01 X5.10472 Y-4.02739
G01 X5.10205 Y-4.02832
G01 X5.09931 Y-4.02899
G01 X5.09692 Y-4.02935
G01 X5.09410 Y-4.02952
G01 X4.98087 Y-4.02952
G01 Z-0.05118 F50.00000
G01 F100.00000
G01 X4.70216 Y-4.02951
G00 Z-0.02362
G01 X4.59249 Y-4.02950
G01 X4.58969 Y-4.02925
G01 X4.58692 Y-4.02874
G01 X4.58422 Y-4.02796
G01 X4.58160 Y-4.02693
G01 X4.57909 Y-4.02566
G01 X4.57671 Y-4.02415
G01 X4.57449 Y-4.02243
G01 X4.57245 Y-4.02050
G01 X4.57059 Y-4.01838
G01 X4.56895 Y-4.01610
G01 X4.56753 Y-4.01367
G01 X4.56634 Y-4.01111
G01 X4.56541 Y-4.00846
G01 X4.56473 Y-4.00573
G01 X4.56432 Y-4.00294
G01 X4.56417 Y-4.00013
G04 P0 ( dwell for no time -- G64 should not smooth over this point )
G00 Z0.08000 ( retract )

G00 X5.86417 Y-5.70000 ( rapid move to begin. )
G01 Z-0.00731 F50.00000 ( plunge. )
G04 P0 ( dwell for no time -- G64 should not smooth over this point )
G01 F100.00000
G01 X5.86418 Y-5.47755
G01 X5.86418 Y-5.22164
G01 X5.86418 Y-4.99919
G01 X5.86457 Y-4.99518
G01 X5.86538 Y-4.99165
G01 X5.86678 Y-4.98787
G01 X5.86868 Y-4.98431
G01 X5.87105 Y-4.98105
G01 X5.87384 Y-4.97815
G01 X5.87667 Y-4.97588
G01 X5.88012 Y-4.97378
G01 X5.88343 Y-4.97231
G01 X5.88691 Y-4.97126
G01 X5.89048 Y-4.97065
G01 X5.89370 Y-4.97047
G01 X6.41595 Y-4.97047
G01 X6.67186 Y-4.97047
G01 X7.19410 Y-4.97048
G01 X7.19812 Y-4.97081
G01 X7.20205 Y-4.97168
G01 X7.20583 Y-4.97308
G01 X7.20939 Y-4.97498
G01 X7.21265 Y-4.97735
G01 X7.21555 Y-4.98014
G01 X7.21782 Y-4.98297
G01 X7.21992 Y-4.98642
G01 X7.22139 Y-4.98973
G01 X7.22244 Y-4.99320
G01 X7.22305 Y-4.99678
G01 X7.22323 Y-5.00000
G01 X7.22323 Y-5.22225
G01 X7.22323 Y-5.47815
G01 X7.22322 Y-5.70040
G01 X7.22289 Y-5.70442
G01 X7.22202 Y-5.70835
G01 X7.22062 Y-5.71213
G01 X7.21872 Y-5.71568
G01 X7.21635 Y-5.71894
G01 X7.21356 Y-5.72185
G01 X7.21073 Y-5.72412
G01 X7.20728 Y-5.72622
G01 X7.20397 Y-5.72769
G01 X7.20049 Y-5.72874
G01 X7.19692 Y-5.72935
G01 X7.19370 Y-5.72953
G01 X6.67145 Y-5.72953
G01 X6.41555 Y-5.72953
G01 X5.89330 Y-5.72952
G01 X5.89048 Y-5.72935
G01 X5.88730 Y-5.72882
G01 X5.88458 Y-5.72808
G01 X5.88194 Y-5.72708
G01 X5.87940 Y-5.72584
G01 X5.87700 Y-5.72435
G01 X5.87475 Y-5.72265
G01 X5.87268 Y-5.72074
G01 X5.87080 Y-5.71863
G01 X5.86912 Y-5.71636
G01 X5.86767 Y-5.71394
G01 X5.86646 Y-5.71139
G01 X5.86538 Y-5.70835
G01 X5.86471 Y-5.70561
G01 X5.86431 Y-5.70282
G01 X5.86417 Y-5.70000
G01 Z-0.01462 F50.00000 ( plunge. )
G04 P0 ( dwell for no time -- G64 should not smooth over this point )
G01 F100.00000
G01 X5.86418 Y-5.47755
G01 X5.86418 Y-5.22164
G01 X5.86418 Y-4.99919
G01 X5.86457 Y-4.99518
G01 X5.86538 Y-4.99165
G01 X5.86678 Y-4.98787
G01 X5.86868 Y-4.98431
G01 X5.87105 Y-4.98105
G01 X5.87384 Y-4.97815
G01 X5.87667 Y-4.97588
G01 X5.88012 Y-4.97378
G01 X5.88343 Y-4.97231
G01 X5.88691 Y-4.97126
G01 X5.89048 Y-4.97065
G01 X5.89370 Y-4.97047
G01 X6.41595 Y-4.97047
G01 X6.67186 Y-4.97047
G01 X7.19410 Y-4.97048
G01 X7.19812 Y-4.97081
G01 X7.20205 Y-4.97168
G01 X7.20583 Y-4.97308
G01 X7.20939 Y-4.97498
G01 X7.21265 Y-4.97735
G01 X7.21555 Y-4.98014
G01 X7.21782 Y-4.98297
G01 X7.21992 Y-4.98642
G01 X7.22139 Y-4.98973
G01 X7.22244 Y-4.99320
G01 X7.22305 Y-4.99678
G01 X7.22323 Y-5.00000
G01 X7.22323 Y-5.22225
G01 X7.22323 Y-5.47815
G01 X7.22322 Y-5.70040
G01 X7.22289 Y-5.70442
G01 X7.22202 Y-5.70835
G01 X7.22062 Y-5.71213
G01 X7.21872 Y-5.71568
G01 X7.21635 Y-5.71894
G01 X7.21356 Y-5.72185
G01 X7.21073 Y-5.72412
G01 X7.20728 Y-5.72622
G01 X7.20397 Y-5.72769
G01 X7.20049 Y-5.72874
G01 X7.19692 Y-5.72935
G01 X7.19370 Y-5.72953
G01 X6.67145 Y-5.72953
G01 X6.41555 Y-5.72953
G01 X5.89330 Y-5.72952
G01 X5.89048 Y-5.72935
G01 X5.88730 Y-5.72882
G01 X5.88458 Y-5.72808
G01 X5.88194 Y-5.72708
G01 X5.87940 Y-5.72584
G01 X5.87700 Y-5.72435
G01 X5.87475 Y-5.72265
G01 X5.87268 Y-5.72074
G01 X5.87080 Y-5.71863
G01 X5.86912 Y-5.71636
G01 X5.86767 Y-5.71394
G01 X5.86646 Y-5.71139
G01 X5.86538 Y-5.70835
G01 X5.86471 Y-5.70561
G01 X5.86431 Y-5.70282
G01 X5.86417 Y-5.70000
G01 Z-0.02193 F50.00000 ( plunge. )
G04 P0 ( dwell for no time -- G64 should not smooth over this point )
G01 F100.00000
G01 X5.86418 Y-5.47755
G01 X5.86418 Y-5.22164
G01 X5.86418 Y-4.99919
G01 X5.86457 Y-4.99518
G01 X5.86538 Y-4.99165
G01 X5.86678 Y-4.98787
G01 X5.86868 Y-4.98431
G01 X5.87105 Y-4.98105
G01 X5.87384 Y-4.97815
G01 X5.87667 Y-4.97588
G01 X5.88012 Y-4.97378
G01 X5.88343 Y-4.97231
G01 X5.88691 Y-4.97126
G01 X5.89048 Y-4.97065
G01 X5.89370 Y-4.97047
G01 X6.41595 Y-4.97047
G01 X6.67186 Y-4.97047
G01 X7.19410 Y-4.97048
G01 X7.19812 Y-4.97081
G01 X7.20205 Y-4.97168
G01 X7.20583 Y-4.97308
G01 X7.20939 Y-4.97498
G01 X7.21265 Y-4.97735
G01 X7.21555 Y-4.98014
G01 X7.21782 Y-4.98297
G01 X7.21992 Y-4.98642
G01 X7.22139 Y-4.98973
G01 X7.22244 Y-4.99320
G01 X7.22305 Y-4.99678
G01 X7.22323 Y-5.00000
G01 X7.22323 Y-5.22225
G01 X7.22323 Y-5.47815
G01 X7.22322 Y-5.70040
G01 X7.22289 Y-5.70442
G01 X7.22202 Y-5.70835
G01 X7.22062 Y-5.71213
G01 X7.21872 Y-5.71568
G01 X7.21635 Y-5.71894
G01 X7.21356 Y-5.72185
G01 X7.21073 Y-5.72412
G01 X7.20728 Y-5.72622
G01 X7.20397 Y-5.72769
G01 X7.20049 Y-5.72874
G01 X7.19692 Y-5.72935
G01 X7.19370 Y-5.72953
G01 X6.67145 Y-5.72953
G01 X6.41555 Y-5.72953
G01 X5.89330 Y-5.72952
G01 X5.89048 Y-5.72935
G01 X5.88730 Y-5.72882
G01 X5.88458 Y-5.72808
G01 X5.88194 Y-5.72708
G01 X5.87940 Y-5.72584
G01 X5.87700 Y-5.72435
G01 X5.87475 Y-5.72265
G01 X5.87268 Y-5.72074
G01 X5.87080 Y-5.71863
G01 X5.86912 Y-5.71636
G01 X5.86767 Y-5.71394
G01 X5.86646 Y-5.71139
G01 X5.86538 Y-5.70835
G01 X5.86471 Y-5.70561
G01 X5.86431 Y-5.70282
G01 X5.86417 Y-5.70000
G01 Z-0.02925 F50.00000 ( plunge. )
G04 P0 ( dwell for no time -- G64 should not smooth over this point )
G01 F100.00000
G01 X5.86418 Y-5.47755
G00 Z-0.02362
G01 X5.86418 Y-5.22164
G01 Z-0.02925 F50.00000
G01 F100.00000
G01 X5.86418 Y-4.99919
G01 X5.86457 Y-4.99518
G01 X5.86538 Y-4.99165
G01 X5.86678 Y-4.98787
G01 X5.86868 Y-4.98431
G01 X5.87105 Y-4.98105
G01 X5.87384 Y-4.97815
G01 X5.87667 Y-4.97588
G01 X5.88012 Y-4.97378
G01 X5.88343 Y-4.97231
G01 X5.88691 Y-4.97126
G01 X5.89048 Y-4.97065
G01 X5.89370 Y-4.97047
G01 X6.41595 Y-4.97047
G00 Z-0.02362
G01 X6.67186 Y-4.97047
G01 Z-0.02925 F50.00000
G01 F100.00000
G01 X7.19410 Y-4.97048
G01 X7.19812 Y-4.97081
G01 X7.20205 Y-4.97168
G01 X7.20583 Y-4.97308
G01 X7.20939 Y-4.97498
G01 X7.21265 Y-4.97735
G01 X7.21555 Y-4.98014
G01 X7.21782 Y-4.98297
G01 X7.21992 Y-4.98642
G01 X7.22139 Y-4.98973
G01 X7.22244 Y-4.99320
G01 X7.22305 Y-4.99678
G01 X7.22323 Y-5.00000
G01 X7.22323 Y-5.22225
G00 Z-0.02362
G01 X7.22323 Y-5.47815
G01 Z-0.02925 F50.00000
G01 F100.00000
G01 X7.22322 Y-5.70040
G01 X7.22289 Y-5.70442
G01 X7.22202 Y-5.70835
G01 X7.22062 Y-5.71213
G01 X7.21872 Y-5.71568
G01 X7.21635 Y-5.71894
G01 X7.21356 Y-5.72185
G01 X7.21073 Y-5.72412
G01 X7.20728 Y-5.72622
G01 X7.20397 Y-5.72769
G01 X7.20049 Y-5.72874
G01 X7.19692 Y-5.72935
G01 X7.19370 Y-5.72953
G01 X6.67145 Y-5.72953
G00 Z-0.02362
G01 X6.41555 Y-5.72953
G01 Z-0.02925 F50.00000
G01 F100.00000
G01 X5.89330 Y-5.72952
G01 X5.89048 Y-5.72935
G01 X5.88730 Y-5.72882
G01 X5.88458 Y-5.72808
G01 X5.88194 Y-5.72708
G01 X5.87940 Y-5.72584
G01 X5.87700 Y-5.72435
G01 X5.87475 Y-5.72265
G01 X5.87268 Y-5.72074
G01 X5.87080 Y-5.71863
G01 X5.86912 Y-5.71636
G01 X5.86767 Y-5.71394
G01 X5.86646 Y-5.71139
G01 X5.86538 Y-5.70835
G01 X5.86471 Y-5.70561
G01 X5.86431 Y-5.70282
G01 X5.86417 Y-5.70000
G01 Z-0.03656 F50.00000 ( plunge. )
G04 P0 ( dwell for no time -- G64 should not smooth over this point )
G01 F100.00000
G01 X5.86418 Y-5.47755
G00 Z-0.02362
G01 X5.86418 Y-5.22164
G01 Z-0.03656 F50.00000
G01 F100.00000
G01 X5.86418 Y-4.99919
G01 X5.86457 Y-4.99518
G01 X5.86538 Y-4.99165
G01 X5.86678 Y-4.98787
G01 X5.86868 Y-4.98431
G01 X5.87105 Y-4.98105
G01 X5.87384 Y-4.97815
G01 X5.87667 Y-4.97588
G01 X5.88012 Y-4.97378
G01 X5.88343 Y-4.97231
G01 X5.88691 Y-4.97126
G01 X5.89048 Y-4.97065
G01 X5.89370 Y-4.97047
G01 X6.41595 Y-4.97047
G00 Z-0.02362
G01 X6.67186 Y-4.97047
G01 Z-0.03656 F50.00000
G01 F100.00000
G01 X7.19410 Y-4.97048
G01 X7.19812 Y-4.97081
G01 X7.20205 Y-4.97168
G01 X7.20583 Y-4.97308
G01 X7.20939 Y-4.97498
G01 X7.21265 Y-4.97735
G01 X7.21555 Y-4.98014
G01 X7.21782 Y-4.98297
G01 X7.21992 Y-4.98642
G01 X7.22139 Y-4.98973
G01 X7.22244 Y-4.99320
G01 X7.22305 Y-4.99678
G01 X7.22323 Y-5.00000
G01 X7.22323 Y-5.22225
G00 Z-0.02362
G01 X7.22323 Y-5.47815
G01 Z-0.03656 F50.00000
G01 F100.00000
G01 X7.22322 Y-5.70040
G01 X7.22289 Y-5.70442
G01 X7.22202 Y-5.70835
G01 X7.22062 Y-5.71213
G01 X7.21872 Y-5.71568
G01 X7.21635 Y-5.71894
G01 X7.21356 Y-5.72185
G01 X7.21073 Y-5.72412
G01 X7.20728 Y-5.72622
G01 X7.20397 Y-5.72769
G01 X7.20049 Y-5.72874
G01 X7.19692 Y-5.72935
G01 X7.19370 Y-5.72953
G01 X6.67145 Y-5.72953
G00 Z-0.02362
G01 X6.41555 Y-5.72953
G01 Z-0.03656 F50.00000
G01 F100.00000
G01 X5.89330 Y-5.72952
G01 X5.89048 Y-5.72935
G01 X5.88730 Y-5.72882
G01 X5.88458 Y-5.72808
G01 X5.88194 Y-5.72708
G01 X5.87940 Y-5.72584
G01 X5.87700 Y-5.72435
G01 X5.87475 Y-5.72265
G01 X5.87268 Y-5.72074
G01 X5.87080 Y-5.71863
G01 X5.86912 Y-5.71636
G01 X5.86767 Y-5.71394
G01 X5.86646 Y-5.71139
G01 X5.86538 Y-5.70835
G01 X5.86471 Y-5.70561
G01 X5.86431 Y-5.70282
G01 X5.86417 Y-5.70000
G01 Z-0.04387 F50.00000 ( plunge. )
G04 P0 ( dwell for no time -- G64 should not smooth over this point )
G01 F100.00000
G01 X5.86418 Y-5.47755
G00 Z-0.02362
G01 X5.86418 Y-5.22164
G01 Z-0.04387 F50.00000
G01 F100.00000
G01 X5.86418 Y-4.99919
G01 X5.86457 Y-4.99518
G01 X5.86538 Y-4.99165
G01 X5.86678 Y-4.98787
G01 X5.86868 Y-4.98431
G01 X5.87105 Y-4.98105
G01 X5.87384 Y-4.97815
G01 X5.87667 Y-4.97588
G01 X5.88012 Y-4.97378
G01 X5.88343 Y-4.97231
G01 X5.88691 Y-4.97126
G01 X5.89048 Y-4.97065
G01 X5.89370 Y-4.97047
G01 X6.41595 Y-4.97047
G00 Z-0.02362
G01 X6.67186 Y-4.97047
G01 Z-0.04387 F50.00000
G01 F100.00000
G01 X7.19410 Y-4.97048
G01 X7.19812 Y-4.97081
G01 X7.20205 Y-4.97168
G01 X7.20583 Y-4.97308
G01 X7.20939 Y-4.97498
G01 X7.21265 Y-4.97735
G01 X7.21555 Y-4.98014
G01 X7.21782 Y-4.98297
G01 X7.21992 Y-4.98642
G01 X7.22139 Y-4.98973
G01 X7.22244 Y-4.99320
G01 X7.22305 Y-4.99678
G01 X7.22323 Y-5.00000
G01 X7.22323 Y-5.22225
G00 Z-0.02362
G01 X7.22323 Y-5.47815
G01 Z-0.04387 F50.00000
G01 F100.00000
G01 X7.22322 Y-5.70040
G01 X7.22289 Y-5.70442
G01 X7.22202 Y-5.70835
G01 X7.22062 Y-5.71213
G01 X7.21872 Y-5.71568
G01 X7.21635 Y-5.71894
G01 X7.21356 Y-5.72185
G01 X7.21073 Y-5.72412
G01 X7.20728 Y-5.72622
G01 X7.20397 Y-5.72769
G01 X7.20049 Y-5.72874
G01 X7.19692 Y-5.72935
G01 X7.19370 Y-5.72953
G01 X6.67145 Y-5.72953
G00 Z-0.02362
G01 X6.41555 Y-5.72953
G01 Z-0.04387 F50.00000
G01 F100.00000
G01 X5.89330 Y-5.72952
G01 X5.89048 Y-5.72935
G01 X5.88730 Y-5.72882
G01 X5.88458 Y-5.72808
G01 X5.88194 Y-5.72708
G01 X5.87940 Y-5.72584
G01 X5.87700 Y-5.72435
G01 X5.87475 Y-5.72265
G01 X5.87268 Y-5.72074
G01 X5.87080 Y-5.71863
G01 X5.86912 Y-5.71636
G01 X5.86767 Y-5.71394
G01 X5.86646 Y-5.71139
G01 X5.86538 Y-5.70835
G01 X5.86471 Y-5.70561
G01 X5.86431 Y-5.70282
G01 X5.86417 Y-5.70000
G01 Z-0.05118 F50.00000 ( plunge. )
G04 P0 ( dwell for no time -- G64 should not smooth over this point )
G01 F100.00000
G01 X5.86418 Y-5.47755
G00 Z-0.02362
G01 X5.86418 Y-5.22164
G01 Z-0.05118 F50.00000
G01 F100.00000
G01 X5.86418 Y-4.99919
G01 X5.86457 Y-4.99518
G01 X5.86538 Y-4.99165
G01 X5.86678 Y-4.98787
G01 X5.86868 Y-4.98431
G01 X5.87105 Y-4.98105
G01 X5.87384 Y-4.97815
G01 X5.87667 Y-4.97588
G01 X5.88012 Y-4.97378
G01 X5.88343 Y-4.97231
G01 X5.88691 Y-4.97126
G01 X5.89048 Y-4.97065
G01 X5.89370 Y-4.97047
G01 X6.41595 Y-4.97047
G00 Z-0.02362
G01 X6.67186 Y-4.97047
G01 Z-0.05118 F50.00000
G01 F100.00000
G01 X7.19410 Y-4.97048
G01 X7.19812 Y-4.97081
G01 X7.20205 Y-4.97168
G01 X7.20583 Y-4.97308
G01 X7.20939 Y-4.97498
G01 X7.21265 Y-4.97735
G01 X7.21555 Y-4.98014
G01 X7.21782 Y-4.98297
G01 X7.21992 Y-4.98642
G01 X7.22139 Y-4.98973
G01 X7.22244 Y-4.99320
G01 X7.22305 Y-4.99678
G01 X7.22323 Y-5.00000
G01 X7.22323 Y-5.22225
G00 Z-0.02362
G01 X7.22323 Y-5.47815
G01 Z-0.05118 F50.00000
G01 F100.00000
G01 X7.22322 Y-5.70040
G01 X7.22289 Y-5.70442
G01 X7.22202 Y-5.70835
G01 X7.22062 Y-5.71213
G01 X7.21872 Y-5.71568
G01 X7.21635 Y-5.71894
G01 X7.21356 Y-5.72185
G01 X7.21073 Y-5.72412
G01 X7.20728 Y-5.72622
G01 X7.20397 Y-5.72769
G01 X7.20049 Y-5.72874
G01 X7.19692 Y-5.72935
G01 X7.19370 Y-5.72953
G01 X6.67145 Y-5.72953
G00 Z-0.02362
G01 X6.41555 Y-5.72953
G01 Z-0.05118 F50.00000
G01 F100.00000
G01 X5.89330 Y-5.72952
G01 X5.89048 Y-5.72935
G01 X5.88730 Y-5.72882
G01 X5.88458 Y-5.72808
G01 X5.88194 Y-5.72708
G01 X5.87940 Y-5.72584
G01 X5.87700 Y-5.72435
G01 X5.87475 Y-5.72265
G01 X5.87268 Y-5.72074
G01 X5.87080 Y-5.71863
G01 X5.86912 Y-5.71636
G01 X5.86767 Y-5.71394
G01 X5.86646 Y-5.71139
G01 X5.86538 Y-5.70835
G01 X5.86471 Y-5.70561
G01 X5.86431 Y-5.70282
G01 X5.86417 Y-5.70000
( Piece #2, position [1;0] )

G04 P0 ( dwell for no time -- G64 should not smooth over this point )
G00 Z0.08000 ( retract )

G00 X7.28819 Y-4.00013 ( rapid move to begin. )
G01 Z-0.00731 F50.00000 ( plunge. )
G04 P0 ( dwell for no time -- G64 should not smooth over this point )
G01 F100.00000
G01 X7.28831 Y-3.99732
G01 X7.28870 Y-3.99453
G01 X7.28935 Y-3.99180
G01 X7.29026 Y-3.98914
G01 X7.29142 Y-3.98657
G01 X7.29282 Y-3.98413
G01 X7.29444 Y-3.98183
G01 X7.29655 Y-3.97941
G01 X7.35193 Y-3.92404
G01 X7.45651 Y-3.81946
G01 X7.63746 Y-3.63851
G01 X7.74082 Y-3.53515
G01 X7.79742 Y-3.47856
G01 X7.79988 Y-3.47647
G01 X7.80222 Y-3.47486
G01 X7.80470 Y-3.47350
G01 X7.80729 Y-3.47237
G01 X7.80999 Y-3.47150
G01 X7.81275 Y-3.47089
G01 X7.81556 Y-3.47055
G01 X7.81839 Y-3.47048
G01 X7.82121 Y-3.47068
G01 X7.82400 Y-3.47115
G01 X7.82712 Y-3.47201
G01 X7.82976 Y-3.47304
G01 X7.83228 Y-3.47432
G01 X7.83468 Y-3.47583
G01 X7.83691 Y-3.47756
G01 X7.83925 Y-3.47980
G01 X7.84109 Y-3.48195
G01 X7.84271 Y-3.48427
G01 X7.84391 Y-3.48638
G01 X7.84510 Y-3.48895
G01 X7.84603 Y-3.49162
G01 X7.84670 Y-3.49437
G01 X7.84707 Y-3.49677
G01 X7.84724 Y-3.49959
G01 X7.84724 Y-3.60713
G01 X7.84724 Y-3.90329
G01 X7.84724 Y-4.00000
G01 X7.84707 Y-4.00322
G01 X7.84663 Y-4.00601
G01 X7.84592 Y-4.00874
G01 X7.84480 Y-4.01176
G01 X7.84355 Y-4.01430
G01 X7.84184 Y-4.01703
G01 X7.83984 Y-4.01956
G01 X7.83787 Y-4.02158
G01 X7.83572 Y-4.02341
G01 X7.83340 Y-4.02502
G01 X7.83094 Y-4.02640
G01 X7.82874 Y-4.02739
G01 X7.82607 Y-4.02832
G01 X7.82333 Y-4.02899
G01 X7.82094 Y-4.02935
G01 X7.81812 Y-4.02952
G01 X7.70488 Y-4.02952
G01 X7.42617 Y-4.02951
G01 X7.31651 Y-4.02950
G01 X7.31371 Y-4.02925
G01 X7.31094 Y-4.02874
G01 X7.30824 Y-4.02796
G01 X7.30562 Y-4.02693
G01 X7.30311 Y-4.02566
G01 X7.30073 Y-4.02415
G01 X7.29851 Y-4.02243
G01 X7.29646 Y-4.02050
G01 X7.29461 Y-4.01838
G01 X7.29296 Y-4.01610
G01 X7.29154 Y-4.01367
G01 X7.29036 Y-4.01111
G01 X7.28943 Y-4.00846
G01 X7.28875 Y-4.00573
G01 X7.28834 Y-4.00294
G01 X7.28819 Y-4.00013
G01 Z-0.01462 F50.00000 ( plunge. )
G04 P0 ( dwell for no time -- G64 should not smooth over this point )
G01 F100.00000
G01 X7.28831 Y-3.99732
G01 X7.28870 Y-3.99453
G01 X7.28935 Y-3.99180
G01 X7.29026 Y-3.98914
G01 X7.29142 Y-3.98657
G01 X7.29282 Y-3.98413
G01 X7.29444 Y-3.98183
G01 X7.29655 Y-3.97941
G01 X7.35193 Y-3.92404
G01 X7.45651 Y-3.81946
G01 X7.63746 Y-3.63851
G01 X7.74082 Y-3.53515
G01 X7.79742 Y-3.47856
G01 X7.79988 Y-3.47647
G01 X7.80222 Y-3.47486
G01 X7.80470 Y-3.47350
G01 X7.80729 Y-3.47237
G01 X7.80999 Y-3.47150
G01 X7.81275 Y-3.47089
G01 X7.81556 Y-3.47055
G01 X7.81839 Y-3.47048
G01 X7.82121 Y-3.47068
G01 X7.82400 Y-3.47115
G01 X7.82712 Y-3.47201
G01 X7.82976 Y-3.47304
G01 X7.83228 Y-3.47432
G01 X7.83468 Y-3.47583
G01 X7.83691 Y-3.47756
G01 X7.83925 Y-3.47980
G01 X7.84109 Y-3.48195
G01 X7.84271 Y-3.48427
G01 X7.84391 Y-3.48638
G01 X7.84510 Y-3.48895
G01 X7.84603 Y-3.49162
G01 X7.84670 Y-3.49437
G01 X7.84707 Y-3.49677
G01 X7.84724 Y-3.49959
G01 X7.84724 Y-3.60713
G01 X7.84724 Y-3.90329
G01 X7.84724 Y-4.00000
G01 X7.84707 Y-4.00322
G01 X7.84663 Y-4.00601
G01 X7.84592 Y-4.00874
G01 X7.84480 Y-4.01176
G01 X7.84355 Y-4.01430
G01 X7.84184 Y-4.01703
G01 X7.83984 Y-4.01956
G01 X7.83787 Y-4.02158
G01 X7.83572 Y-4.02341
G01 X7.83340 Y-4.02502
G01 X7.83094 Y-4.02640
G01 X7.82874 Y-4.02739
G01 X7.82607 Y-4.02832
G01 X7.82333 Y-4.02899
G01 X7.82094 Y-4.02935
G01 X7.81812 Y-4.02952
G01 X7.70488 Y-4.02952
G01 X7.42617 Y-4.02951
G01 X7.31651 Y-4.02950
G01 X7.31371 Y-4.02925
G01 X7.31094 Y-4.02874
G01 X7.30824 Y-4.02796
G01 X7.30562 Y-4.02693
G01 X7.30311 Y-4.02566
G01 X7.30073 Y-4.02415
G01 X7.29851 Y-4.02243
G01 X7.29646 Y-4.02050
G01 X7.29461 Y-4.01838
G01 X7.29296 Y-4.01610
G01 X7.29154 Y-4.01367
G01 X7.29036 Y-4.01111
G01 X7.28943 Y-4.00846
G01 X7.28875 Y-4.00573
G01 X7.28834 Y-4.00294
G01 X7.28819 Y-4.00013
G01 Z-0.02193 F50.00000 ( plunge. )
G04 P0 ( dwell for no time -- G64 should not smooth over this point )
G01 F100.00000
G01 X7.28831 Y-3.99732
G01 X7.28870 Y-3.99453
G01 X7.28935 Y-3.99180
G01 X7.29026 Y-3.98914
G01 X7.29142 Y-3.98657
G01 X7.29282 Y-3.98413
G01 X7.29444 Y-3.98183
G01 X7.29655 Y-3.97941
G01 X7.35193 Y-3.92404
G01 X7.45651 Y-3.81946
G01 X7.63746 Y-3.63851
G01 X7.74082 Y-3.53515
G01 X7.79742 Y-3.47856
G01 X7.79988 Y-3.47647
G01 X7.80222 Y-3.47486
G01 X7.80470 Y-3.47350
G01 X7.80729 Y-3.47237
G01 X7.80999 Y-3.47150
G01 X7.81275 Y-3.47089
G01 X7.81556 Y-3.47055
G01 X7.81839 Y-3.47048
G01 X7.82121 Y-3.47068
G01 X7.82400 Y-3.47115
G01 X7.82712 Y-3.47201
G01 X7.82976 Y-3.47304
G01 X7.83228 Y-3.47432
G01 X7.83468 Y-3.47583
G01 X7.83691 Y-3.47756
G01 X7.83925 Y-3.47980
G01 X7.84109 Y-3.48195
G01 X7.84271 Y-3.48427
G01 X7.84391 Y-3.48638
G01 X7.84510 Y-3.48895
G01 X7.84603 Y-3.49162
G01 X7.84670 Y-3.49437
G01 X7.84707 Y-3.49677
G01 X7.84724 Y-3.49959
G01 X7.84724 Y-3.60713
G01 X7.84724 Y-3.90329
G01 X7.84724 Y-4.00000
G01 X7.84707 Y-4.00322
G01 X7.84663 Y-4.00601
G01 X7.84592 Y-4.00874
G01 X7.84480 Y-4.01176
G01 X7.84355 Y-4.01430
G01 X7.84184 Y-4.01703
G01 X7.83984 Y-4.01956
G01 X7.83787 Y-4.02158
G01 X7.83572 Y-4.02341
G01 X7.83340 Y-4.02502
G01 X7.83094 Y-4.02640
G01 X7.82874 Y-4.02739
G01 X7.82607 Y-4.02832
G01 X7.82333 Y-4.02899
G01 X7.82094 Y-4.02935
G01 X7.81812 Y-4.02952
G01 X7.70488 Y-4.02952
G01 X7.42617 Y-4.02951
G01 X7.31651 Y-4.02950
G01 X7.31371 Y-4.02925
G01 X7.31094 Y-4.02874
G01 X7.30824 Y-4.02796
G01 X7.30562 Y-4.02693
G01 X7.30311 Y-4.02566
G01 X7.30073 Y-4.02415
G01 X7.29851 Y-4.02243
G01 X7.29646 Y-4.02050
G01 X7.29461 Y-4.01838
G01 X7.29296 Y-4.01610
G01 X7.29154 Y-4.01367
G01 X7.29036 Y-4.01111
G01 X7.28943 Y-4.00846
G01 X7.28875 Y-4.00573
G01 X7.28834 Y-4.00294
G01 X7.28819 Y-4.00013
G01 Z-0.02925 F50.00000 ( plunge. )
G04 P0 ( dwell for no time -- G64 should not smooth over this point )
G01 F100.00000
G00 Z-0.02362
G01 X7.28831 Y-3.99732
G01 X7.28870 Y-3.99453
G01 X7.28935 Y-3.99180
G01 X7.29026 Y-3.98914
G01 X7.29142 Y-3.98657
G01 X7.29282 Y-3.98413
G01 X7.29444 Y-3.98183
G01 X7.29655 Y-3.97941
G01 X7.35193 Y-3.92404
G01 Z-0.02925 F50.00000
G01 F100.00000
G01 X7.45651 Y-3.81946
G00 Z-0.02362
G01 X7.63746 Y-3.63851
G01 Z-0.02925 F50.00000
G01 F100.00000
G01 X7.74082 Y-3.53515
G00 Z-0.02362
G01 X7.79742 Y-3.47856
G01 X7.79988 Y-3.47647
G01 X7.80222 Y-3.47486
G01 X7.80470 Y-3.47350
G01 X7.80729 Y-3.47237
G01 X7.80999 Y-3.47150
G01 X7.81275 Y-3.47089
G01 X7.81556 Y-3.47055
G01 X7.81839 Y-3.47048
G01 X7.82121 Y-3.47068
G01 X7.82400 Y-3.47115
G01 X7.82712 Y-3.47201
G01 X7.82976 Y-3.47304
G01 X7.83228 Y-3.47432
G01 X7.83468 Y-3.47583
G01 X7.83691 Y-3.47756
G01 X7.83925 Y-3.47980
G01 X7.84109 Y-3.48195
G01 X7.84271 Y-3.48427
G01 X7.84391 Y-3.48638
G01 X7.84510 Y-3.48895
G01 X7.84603 Y-3.49162
G01 X7.84670 Y-3.49437
G01 X7.84707 Y-3.49677
G01 X7.84724 Y-3.49959
G01 X7.84724 Y-3.60713
G01 Z-0.02925 F50.00000
G01 F100.00000
G01 X7.84724 Y-3.90329
G00 Z-0.02362
G01 X7.84724 Y-4.00000
G01 X7.84707 Y-4.00322
G01 X7.84663 Y-4.00601
G01 X7.84592 Y-4.00874
G01 X7.84480 Y-4.01176
G01 X7.84355 Y-4.01430
G01 X7.84184 Y-4.01703
G01 X7.83984 Y-4.01956
G01 X7.83787 Y-4.02158
G01 X7.83572 Y-4.02341
G01 X7.83340 Y-4.02502
G01 X7.83094 Y-4.02640
G01 X7.82874 Y-4.02739
G01 X7.82607 Y-4.02832
G01 X7.82333 Y-4.02899
G01 X7.82094 Y-4.02935
G01 X7.81812 Y-4.02952
G01 X7.70488 Y-4.02952
G01 Z-0.02925 F50.00000
G01 F100.00000
G01 X7.42617 Y-4.02951
G00 Z-0.02362
G01 X7.31651 Y-4.02950
G01 X7.31371 Y-4.02925
G01 X7.31094 Y-4.02874
G01 X7.30824 Y-4.02796
G01 X7.30562 Y-4.02693
G01 X7.30311 Y-4.02566
G01 X7.30073 Y-4.02415
G01 X7.29851 Y-4.02243
G01 X7.29646 Y-4.02050
G01 X7.29461 Y-4.01838
G01 X7.29296 Y-4.01610
G01 X7.29154 Y-4.01367
G01 X7.29036 Y-4.01111
G01 X7.28943 Y-4.00846
G01 X7.28875 Y-4.00573
G01 X7.28834 Y-4.00294
G01 X7.28819 Y-4.00013
G01 Z-0.03656 F50.00000 ( plunge. )
G04 P0 ( dwell for no time -- G64 should not smooth over this point )
G01 F100.00000
G00 Z-0.02362
G01 X7.28831 Y-3.99732
G01 X7.28870 Y-3.99453
G01 X7.28935 Y-3.99180
G01 X7.29026 Y-3.98914
G01 X7.29142 Y-3.98657
G01 X7.29282 Y-3.98413
G01 X7.29444 Y-3.98183
G01 X7.29655 Y-3.97941
G01 X7.35193 Y-3.92404
G01 Z-0.03656 F50.00000
G01 F100.00000
G01 X7.45651 Y-3.81946
G00 Z-0.02362
G01 X7.63746 Y-3.63851
G01 Z-0.03656 F50.00000
G01 F100.00000
G01 X7.74082 Y-3.53515
G00 Z-0.02362
G01 X7.79742 Y-3.47856
G01 X7.79988 Y-3.47647
G01 X7.80222 Y-3.47486
G01 X7.80470 Y-3.47350
G01 X7.80729 Y-3.47237
G01 X7.80999 Y-3.47150
G01 X7.81275 Y-3.47089
G01 X7.81556 Y-3.47055
G01 X7.81839 Y-3.47048
G01 X7.82121 Y-3.47068
G01 X7.82400 Y-3.47115
G01 X7.82712 Y-3.47201
G01 X7.82976 Y-3.47304
G01 X7.83228 Y-3.47432
G01 X7.83468 Y-3.47583
G01 X7.83691 Y-3.47756
G01 X7.83925 Y-3.47980
G01 X7.84109 Y-3.48195
G01 X7.84271 Y-3.48427
G01 X7.84391 Y-3.48638
G01 X7.84510 Y-3.48895
G01 X7.84603 Y-3.49162
G01 X7.84670 Y-3.49437
G01 X7.84707 Y-3.49677
G01 X7.84724 Y-3.49959
G01 X7.84724 Y-3.60713
G01 Z-0.03656 F50.00000
G01 F100.00000
G01 X7.84724 Y-3.90329
G00 Z-0.02362
G01 X7.84724 Y-4.00000
G01 X7.84707 Y-4.00322
G01 X7.84663 Y-4.00601
G01 X7.84592 Y-4.00874
G01 X7.84480 Y-4.01176
G01 X7.84355 Y-4.01430
G01 X7.84184 Y-4.01703
G01 X7.83984 Y-4.01956
G01 X7.83787 Y-4.02158
G01 X7.83572 Y-4.02341
G01 X7.83340 Y-4.02502
G01 X7.83094 Y-4.02640
G01 X7.82874 Y-4.02739
G01 X7.82607 Y-4.02832
G01 X7.82333 Y-4.02899
G01 X7.82094 Y-4.02935
G01 X7.81812 Y-4.02952
G01 X7.70488 Y-4.02952
G01 Z-0.03656 F50.00000
G01 F100.00000
G01 X7.42617 Y-4.02951
G00 Z-0.02362
G01 X7.31651 Y-4.02950
G01 X7.31371 Y-4.02925
G01 X7.31094 Y-4.02874
G01 X7.30824 Y-4.02796
G01 X7.30562 Y-4.02693
G01 X7.30311 Y-4.02566
G01 X7.30073 Y-4.02415
G01 X7.29851 Y-4.02243
G01 X7.29646 Y-4.02050
G01 X7.29461 Y-4.01838
G01 X7.29296 Y-4.01610
G01 X7.29154 Y-4.01367
G01 X7.29036 Y-4.01111
G01 X7.28943 Y-4.00846
G01 X7.28875 Y-4.00573
G01 X7.28834 Y-4.00294
G01 X7.28819 Y-4.00013
G01 Z-0.04387 F50.00000 ( plunge. )
G04 P0 ( dwell for no time -- G64 should not smooth over this point )
G01 F100.00000
G00 Z-0.02362
G01 X7.28831 Y-3.99732
G01 X7.28870 Y-3.99453
G01 X7.28935 Y-3.99180
G01 X7.29026 Y-3.98914
G01 X7.29142 Y-3.98657
G01 X7.29282 Y-3.98413
G01 X7.29444 Y-3.98183
G01 X7.29655 Y-3.97941
G01 X7.35193 Y-3.92404
G01 Z-0.04387 F50.00000
G01 F100.00000
G01 X7.45651 Y-3.81946
G00 Z-0.02362
G01 X7.63746 Y-3.63851
G01 Z-0.04387 F50.00000
G01 F100.00000
G01 X7.74082 Y-3.53515
G00 Z-0.02362
G01 X7.79742 Y-3.47856
G01 X7.79988 Y-3.47647
G01 X7.80222 Y-3.47486
G01 X7.80470 Y-3.47350
G01 X7.80729 Y-3.47237
G01 X7.80999 Y-3.47150
G01 X7.81275 Y-3.47089
G01 X7.81556 Y-3.47055
G01 X7.81839 Y-3.47048
G01 X7.82121 Y-3.47068
G01 X7.82400 Y-3.47115
G01 X7.82712 Y-3.47201
G01 X7.82976 Y-3.47304
G01 X7.83228 Y-3.47432
G01 X7.83468 Y-3.47583
G01 X7.83691 Y-3.47756
G01 X7.83925 Y-3.47980
G01 X7.84109 Y-3.48195
G01 X7.84271 Y-3.48427
G01 X7.84391 Y-3.48638
G01 X7.84510 Y-3.48895
G01 X7.84603 Y-3.49162
G01 X7.84670 Y-3.49437
G01 X7.84707 Y-3.49677
G01 X7.84724 Y-3.49959
G01 X7.84724 Y-3.60713
G01 Z-0.04387 F50.00000
G01 F100.00000
G01 X7.84724 Y-3.90329
G00 Z-0.02362
G01 X7.84724 Y-4.00000
G01 X7.84707 Y-4.00322
G01 X7.84663 Y-4.00601
G01 X7.84592 Y-4.00874
G01 X7.84480 Y-4.01176
G01 X7.84355 Y-4.01430
G01 X7.84184 Y-4.01703
G01 X7.83984 Y-4.01956
G01 X7.83787 Y-4.02158
G01 X7.83572 Y-4.02341
G01 X7.83340 Y-4.02502
G01 X7.83094 Y-4.02640
G01 X7.82874 Y-4.02739
G01 X7.82607 Y-4.02832
G01 X7.82333 Y-4.02899
G01 X7.82094 Y-4.02935
G01 X7.81812 Y-4.02952
G01 X7.70488 Y-4.02952
G01 Z-0.04387 F50.00000
G01 F100.00000
G01 X7.42617 Y-4.02951
G00 Z-0.02362
G01 X7.31651 Y-4.02950
G01 X7.31371 Y-4.02925
G01 X7.31094 Y-4.02874
G01 X7.30824 Y-4.02796
G01 X7.30562 Y-4.02693
G01 X7.30311 Y-4.02566
G01 X7.30073 Y-4.02415
G01 X7.29851 Y-4.02243
G01 X7.29646 Y-4.02050
G01 X7.29461 Y-4.01838
G01 X7.29296 Y-4.01610
G01 X7.29154 Y-4.01367
G01 X7.29036 Y-4.01111
G01 X7.28943 Y-4.00846
G01 X7.28875 Y-4.00573
G01 X7.28834 Y-4.00294
G01 X7.28819 Y-4.00013
G01 Z-0.05118 F50.00000 ( plunge. )
G04 P0 ( dwell for no time -- G64 should not smooth over this point )
G01 F100.00000
G00 Z-0.02362
G01 X7.28831 Y-3.99732
G01 X7.28870 Y-3.99453
G01 X7.28935 Y-3.99180
G01 X7.29026 Y-3.98914
G01 X7.29142 Y-3.98657
G01 X7.29282 Y-3.98413
G01 X7.29444 Y-3.98183
G01 X7.29655 Y-3.97941
G01 X7.35193 Y-3.92404
G01 Z-0.05118 F50.00000
G01 F100.00000
G01 X7.45651 Y-3.81946
G00 Z-0.02362
G01 X7.63746 Y-3.63851
G01 Z-0.05118 F50.00000
G01 F100.00000
G01 X7.74082 Y-3.53515
G00 Z-0.02362
G01 X7.79742 Y-3.47856
G01 X7.79988 Y-3.47647
G01 X7.80222 Y-3.47486
G01 X7.80470 Y-3.47350
G01 X7.80729 Y-3.47237
G01 X7.80999 Y-3.47150
G01 X7.81275 Y-3.47089
G01 X7.81556 Y-3.47055
G01 X7.81839 Y-3.47048
G01 X7.82121 Y-3.47068
G01 X7.82400 Y-3.47115
G01 X7.82712 Y-3.47201
G01 X7.82976 Y-3.47304
G01 X7.83228 Y-3.47432
G01 X7.83468 Y-3.47583
G01 X7.83691 Y-3.47756
G01 X7.83925 Y-3.47980
G01 X7.84109 Y-3.48195
G01 X7.84271 Y-3.48427
G01 X7.84391 Y-3.48638
G01 X7.84510 Y-3.48895
G01 X7.84603 Y-3.49162
G01 X7.84670 Y-3.49437
G01 X7.84707 Y-3.49677
G01 X7.84724 Y-3.49959
G01 X7.84724 Y-3.60713
G01 Z-0.05118 F50.00000
G01 F100.00000
G01 X7.84724 Y-3.90329
G00 Z-0.02362
G01 X7.84724 Y-4.00000
G01 X7.84707 Y-4.00322
G01 X7.84663 Y-4.00601
G01 X7.84592 Y-4.00874
G01 X7.84480 Y-4.01176
G01 X7.84355 Y-4.01430
G01 X7.84184 Y-4.01703
G01 X7.83984 Y-4.01956
G01 X7.83787 Y-4.02158
G01 X7.83572 Y-4.02341
G01 X7.83340 Y-4.02502
G01 X7.83094 Y-4.02640
G01 X7.82874 Y-4.02739
G01 X7.82607 Y-4.02832
G01 X7.82333 Y-4.02899
G01 X7.82094 Y-4.02935
G01 X7.81812 Y-4.02952
G01 X7.70488 Y-4.02952
G01 Z-0.05118 F50.00000
G01 F100.00000
G01 X7.42617 Y-4.02951
G00 Z-0.02362
G01 X7.31651 Y-4.02950
G01 X7.31371 Y-4.02925
G01 X7.31094 Y-4.02874
G01 X7.30824 Y-4.02796
G01 X7.30562 Y-4.02693
G01 X7.30311 Y-4.02566
G01 X7.30073 Y-4.02415
G01 X7.29851 Y-4.02243
G01 X7.29646 Y-4.02050
G01 X7.29461 Y-4.01838
G01 X7.29296 Y-4.01610
G01 X7.29154 Y-4.01367
G01 X7.29036 Y-4.01111
G01 X7.28943 Y-4.00846
G01 X7.28875 Y-4.00573
G01 X7.28834 Y-4.00294
G01 X7.28819 Y-4.00013
G04 P0 ( dwell for no time -- G64 should not smooth over this point )
G00 Z0.08000 ( retract )

G00 X8.58819 Y-5.70000 ( rapid move to begin. )
G01 Z-0.00731 F50.00000 ( plunge. )
G04 P0 ( dwell for no time -- G64 should not smooth over this point )
G01 F100.00000
G01 X8.58819 Y-5.47755
G01 X8.58820 Y-5.22164
G01 X8.58820 Y-4.99919
G01 X8.58858 Y-4.99518
G01 X8.58939 Y-4.99165
G01 X8.59080 Y-4.98787
G01 X8.59270 Y-4.98431
G01 X8.59507 Y-4.98105
G01 X8.59786 Y-4.97815
G01 X8.60069 Y-4.97588
G01 X8.60413 Y-4.97378
G01 X8.60745 Y-4.97231
G01 X8.61092 Y-4.97126
G01 X8.61450 Y-4.97065
G01 X8.61772 Y-4.97047
G01 X9.13997 Y-4.97047
G01 X9.39587 Y-4.97047
G01 X9.91812 Y-4.97048
G01 X9.92214 Y-4.97081
G01 X9.92607 Y-4.97168
G01 X9.92985 Y-4.97308
G01 X9.93340 Y-4.97498
G01 X9.93666 Y-4.97735
G01 X9.93957 Y-4.98014
G01 X9.94184 Y-4.98297
G01 X9.94393 Y-4.98642
G01 X9.94540 Y-4.98973
G01 X9.94645 Y-4.99320
G01 X9.94707 Y-4.99678
G01 X9.94724 Y-5.00000
G01 X9.94724 Y-5.22225
G01 X9.94724 Y-5.47815
G01 X9.94724 Y-5.70040
G01 X9.94691 Y-5.70442
G01 X9.94604 Y-5.70835
G01 X9.94464 Y-5.71213
G01 X9.94273 Y-5.71568
G01 X9.94036 Y-5.71894
G01 X9.93757 Y-5.72185
G01 X9.93474 Y-5.72412
G01 X9.93130 Y-5.72622
G01 X9.92798 Y-5.72769
G01 X9.92451 Y-5.72874
G01 X9.92094 Y-5.72935
G01 X9.91772 Y-5.72953
G01 X9.39547 Y-5.72953
G01 X9.13956 Y-5.72953
G01 X8.61731 Y-5.72952
G01 X8.61450 Y-5.72935
G01 X8.61131 Y-5.72882
G01 X8.60859 Y-5.72808
G01 X8.60595 Y-5.72708
G01 X8.60342 Y-5.72584
G01 X8.60102 Y-5.72435
G01 X8.59877 Y-5.72265
G01 X8.59669 Y-5.72074
G01 X8.59481 Y-5.71863
G01 X8.59314 Y-5.71636
G01 X8.59169 Y-5.71394
G01 X8.59047 Y-5.71139
G01 X8.58939 Y-5.70835
G01 X8.58873 Y-5.70561
G01 X8.58832 Y-5.70282
G01 X8.58819 Y-5.70000
G01 Z-0.01462 F50.00000 ( plunge. )
G04 P0 ( dwell for no time -- G64 should not smooth over this point )
G01 F100.00000
G01 X8.58819 Y-5.47755
G01 X8.58820 Y-5.22164
G01 X8.58820 Y-4.99919
G01 X8.58858 Y-4.99518
G01 X8.58939 Y-4.99165
G01 X8.59080 Y-4.98787
G01 X8.59270 Y-4.98431
G01 X8.59507 Y-4.98105
G01 X8.59786 Y-4.97815
G01 X8.60069 Y-4.97588
G01 X8.60413 Y-4.97378
G01 X8.60745 Y-4.97231
G01 X8.61092 Y-4.97126
G01 X8.61450 Y-4.97065
G01 X8.61772 Y-4.97047
G01 X9.13997 Y-4.97047
G01 X9.39587 Y-4.97047
G01 X9.91812 Y-4.97048
G01 X9.92214 Y-4.97081
G01 X9.92607 Y-4.97168
G01 X9.92985 Y-4.97308
G01 X9.93340 Y-4.97498
G01 X9.93666 Y-4.97735
G01 X9.93957 Y-4.98014
G01 X9.94184 Y-4.98297
G01 X9.94393 Y-4.98642
G01 X9.94540 Y-4.98973
G01 X9.94645 Y-4.99320
G01 X9.94707 Y-4.99678
G01 X9.94724 Y-5.00000
G01 X9.94724 Y-5.22225
G01 X9.94724 Y-5.47815
G01 X9.94724 Y-5.70040
G01 X9.94691 Y-5.70442
G01 X9.94604 Y-5.70835
G01 X9.94464 Y-5.71213
G01 X9.94273 Y-5.71568
G01 X9.94036 Y-5.71894
G01 X9.93757 Y-5.72185
G01 X9.93474 Y-5.72412
G01 X9.93130 Y-5.72622
G01 X9.92798 Y-5.72769
G01 X9.92451 Y-5.72874
G01 X9.92094 Y-5.72935
G01 X9.91772 Y-5.72953
G01 X9.39547 Y-5.72953
G01 X9.13956 Y-5.72953
G01 X8.61731 Y-5.72952
G01 X8.61450 Y-5.72935
G01 X8.61131 Y-5.72882
G01 X8.60859 Y-5.72808
G01 X8.60595 Y-5.72708
G01 X8.60342 Y-5.72584
G01 X8.60102 Y-5.72435
G01 X8.59877 Y-5.72265
G01 X8.59669 Y-5.72074
G01 X8.59481 Y-5.71863
G01 X8.59314 Y-5.71636
G01 X8.59169 Y-5.71394
G01 X8.59047 Y-5.71139
G01 X8.58939 Y-5.70835
G01 X8.58873 Y-5.70561
G01 X8.58832 Y-5.70282
G01 X8.58819 Y-5.70000
G01 Z-0.02193 F50.00000 ( plunge. )
G04 P0 ( dwell for no time -- G64 should not smooth over this point )
G01 F100.00000
G01 X8.58819 Y-5.47755
G01 X8.58820 Y-5.22164
G01 X8.58820 Y-4.99919
G01 X8.58858 Y-4.99518
G01 X8.58939 Y-4.99165
G01 X8.59080 Y-4.98787
G01 X8.59270 Y-4.98431
G01 X8.59507 Y-4.98105
G01 X8.59786 Y-4.97815
G01 X8.60069 Y-4.97588
G01 X8.60413 Y-4.97378
G01 X8.60745 Y-4.97231
G01 X8.61092 Y-4.97126
G01 X8.61450 Y-4.97065
G01 X8.61772 Y-4.97047
G01 X9.13997 Y-4.97047
G01 X9.39587 Y-4.97047
G01 X9.91812 Y-4.97048
G01 X9.92214 Y-4.97081
G01 X9.92607 Y-4.97168
G01 X9.92985 Y-4.97308
G01 X9.93340 Y-4.97498
G01 X9.93666 Y-4.97735
G01 X9.93957 Y-4.98014
G01 X9.94184 Y-4.98297
G01 X9.94393 Y-4.98642
G01 X9.94540 Y-4.98973
G01 X9.94645 Y-4.99320
G01 X9.94707 Y-4.99678
G01 X9.94724 Y-5.00000
G01 X9.94724 Y-5.22225
G01 X9.94724 Y-5.47815
G01 X9.94724 Y-5.70040
G01 X9.94691 Y-5.70442
G01 X9.94604 Y-5.70835
G01 X9.94464 Y-5.71213
G01 X9.94273 Y-5.71568
G01 X9.94036 Y-5.71894
G01 X9.93757 Y-5.72185
G01 X9.93474 Y-5.72412
G01 X9.93130 Y-5.72622
G01 X9.92798 Y-5.72769
G01 X9.92451 Y-5.72874
G01 X9.92094 Y-5.72935
G01 X9.91772 Y-5.72953
G01 X9.39547 Y-5.72953
G01 X9.13956 Y-5.72953
G01 X8.61731 Y-5.72952
G01 X8.61450 Y-5.72935
G01 X8.61131 Y-5.72882
G01 X8.60859 Y-5.72808
G01 X8.60595 Y-5.72708
G01 X8.60342 Y-5.72584
G01 X8.60102 Y-5.72435
G01 X8.59877 Y-5.72265
G01 X8.59669 Y-5.72074
G01 X8.59481 Y-5.71863
G01 X8.59314 Y-5.71636
G01 X8.59169 Y-5.71394
G01 X8.59047 Y-5.71139
G01 X8.58939 Y-5.70835
G01 X8.58873 Y-5.70561
G01 X8.58832 Y-5.70282
G01 X8.58819 Y-5.70000
G01 Z-0.02925 F50.00000 ( plunge. )
G04 P0 ( dwell for no time -- G64 should not smooth over this point )
G01 F100.00000
G01 X8.58819 Y-5.47755
G00 Z-0.02362
G01 X8.58820 Y-5.22164
G01 Z-0.02925 F50.00000
G01 F100.00000
G01 X8.58820 Y-4.99919
G01 X8.58858 Y-4.99518
G01 X8.58939 Y-4.99165
G01 X8.59080 Y-4.98787
G01 X8.59270 Y-4.98431
G01 X8.59507 Y-4.98105
G01 X8.59786 Y-4.97815
G01 X8.60069 Y-4.97588
G01 X8.60413 Y-4.97378
G01 X8.60745 Y-4.97231
G01 X8.61092 Y-4.97126
G01 X8.61450 Y-4.97065
G01 X8.61772 Y-4.97047
G01 X9.13997 Y-4.97047
G00 Z-0.02362
G01 X9.39587 Y-4.97047
G01 Z-0.02925 F50.00000
G01 F100.00000
G01 X9.91812 Y-4.97048
G01 X9.92214 Y-4.97081
G01 X9.92607 Y-4.97168
G01 X9.92985 Y-4.97308
G01 X9.93340 Y-4.97498
G01 X9.93666 Y-4.97735
G01 X9.93957 Y-4.98014
G01 X9.94184 Y-4.98297
G01 X9.94393 Y-4.98642
G01 X9.94540 Y-4.98973
G01 X9.94645 Y-4.99320
G01 X9.94707 Y-4.99678
G01 X9.94724 Y-5.00000
G01 X9.94724 Y-5.22225
G00 Z-0.02362
G01 X9.94724 Y-5.47815
G01 Z-0.02925 F50.00000
G01 F100.00000
G01 X9.94724 Y-5.70040
G01 X9.94691 Y-5.70442
G01 X9.94604 Y-5.70835
G01 X9.94464 Y-5.71213
G01 X9.94273 Y-5.71568
G01 X9.94036 Y-5.71894
G01 X9.93757 Y-5.72185
G01 X9.93474 Y-5.72412
G01 X9.93130 Y-5.72622
G01 X9.92798 Y-5.72769
G01 X9.92451 Y-5.72874
G01 X9.92094 Y-5.72935
G01 X9.91772 Y-5.72953
G01 X9.39547 Y-5.72953
G00 Z-0.02362
G01 X9.13956 Y-5.72953
G01 Z-0.02925 F50.00000
G01 F100.00000
G01 X8.61731 Y-5.72952
G01 X8.61450 Y-5.72935
G01 X8.61131 Y-5.72882
G01 X8.60859 Y-5.72808
G01 X8.60595 Y-5.72708
G01 X8.60342 Y-5.72584
G01 X8.60102 Y-5.72435
G01 X8.59877 Y-5.72265
G01 X8.59669 Y-5.72074
G01 X8.59481 Y-5.71863
G01 X8.59314 Y-5.71636
G01 X8.59169 Y-5.71394
G01 X8.59047 Y-5.71139
G01 X8.58939 Y-5.70835
G01 X8.58873 Y-5.70561
G01 X8.58832 Y-5.70282
G01 X8.58819 Y-5.70000
G01 Z-0.03656 F50.00000 ( plunge. )
G04 P0 ( dwell for no time -- G64 should not smooth over this point )
G01 F100.00000
G01 X8.58819 Y-5.47755
G00 Z-0.02362
G01 X8.58820 Y-5.22164
G01 Z-0.03656 F50.00000
G01 F100.00000
G01 X8.58820 Y-4.99919
G01 X8.58858 Y-4.99518
G01 X8.58939 Y-4.99165
G01 X8.59080 Y-4.98787
G01 X8.59270 Y-4.98431
G01 X8.59507 Y-4.98105
G01 X8.59786 Y-4.97815
G01 X8.60069 Y-4.97588
G01 X8.60413 Y-4.97378
G01 X8.60745 Y-4.97231
G01 X8.61092 Y-4.97126
G01 X8.61450 Y-4.97065
G01 X8.61772 Y-4.97047
G01 X9.13997 Y-4.97047
G00 Z-0.02362
G01 X9.39587 Y-4.97047
G01 Z-0.03656 F50.00000
G01 F100.00000
G01 X9.91812 Y-4.97048
G01 X9.92214 Y-4.97081
G01 X9.92607 Y-4.97168
G01 X9.92985 Y-4.97308
G01 X9.93340 Y-4.97498
G01 X9.93666 Y-4.97735
G01 X9.93957 Y-4.98014
G01 X9.94184 Y-4.98297
G01 X9.94393 Y-4.98642
G01 X9.94540 Y-4.98973
G01 X9.94645 Y-4.99320
G01 X9.94707 Y-4.99678
G01 X9.94724 Y-5.00000
G01 X9.94724 Y-5.22225
G00 Z-0.02362
G01 X9.94724 Y-5.47815
G01 Z-0.03656 F50.00000
G01 F100.00000
G01 X9.94724 Y-5.70040
G01 X9.94691 Y-5.70442
G01 X9.94604 Y-5.70835
G01 X9.94464 Y-5.71213
G01 X9.94273 Y-5.71568
G01 X9.94036 Y-5.71894
G01 X9.93757 Y-5.72185
G01 X9.93474 Y-5.72412
G01 X9.93130 Y-5.72622
G01 X9.92798 Y-5.72769
G01 X9.92451 Y-5.72874
G01 X9.92094 Y-5.72935
G01 X9.91772 Y-5.72953
G01 X9.39547 Y-5.72953
G00 Z-0.02362
G01 X9.13956 Y-5.72953
G01 Z-0.03656 F50.00000
G01 F100.00000
G01 X8.61731 Y-5.72952
G01 X8.61450 Y-5.72935
G01 X8.61131 Y-5.72882
G01 X8.60859 Y-5.72808
G01 X8.60595 Y-5.72708
G01 X8.60342 Y-5.72584
G01 X8.60102 Y-5.72435
G01 X8.59877 Y-5.72265
G01 X8.59669 Y-5.72074
G01 X8.59481 Y-5.71863
G01 X8.59314 Y-5.71636
G01 X8.59169 Y-5.71394
G01 X8.59047 Y-5.71139
G01 X8.58939 Y-5.70835
G01 X8.58873 Y-5.70561
G01 X8.58832 Y-5.70282
G01 X8.58819 Y-5.70000
G01 Z-0.04387 F50.00000 ( plunge. )
G04 P0 ( dwell for no time -- G64 should not smooth over this point )
G01 F100.00000
G01 X8.58819 Y-5.47755
G00 Z-0.02362
G01 X8.58820 Y-5.22164
G01 Z-0.04387 F50.00000
G01 F100.00000
G01 X8.58820 Y-4.99919
G01 X8.58858 Y-4.99518
G01 X8.58939 Y-4.99165
G01 X8.59080 Y-4.98787
G01 X8.59270 Y-4.98431
G01 X8.59507 Y-4.98105
G01 X8.59786 Y-4.97815
G01 X8.60069 Y-4.97588
G01 X8.60413 Y-4.97378
G01 X8.60745 Y-4.97231
G01 X8.61092 Y-4.97126
G01 X8.61450 Y-4.97065
G01 X8.61772 Y-4.97047
G01 X9.13997 Y-4.97047
G00 Z-0.02362
G01 X9.39587 Y-4.97047
G01 Z-0.04387 F50.00000
G01 F100.00000
G01 X9.91812 Y-4.97048
G01 X9.92214 Y-4.97081
G01 X9.92607 Y-4.97168
G01 X9.92985 Y-4.97308
G01 X9.93340 Y-4.97498
G01 X9.93666 Y-4.97735
G01 X9.93957 Y-4.98014
G01 X9.94184 Y-4.98297
G01 X9.94393 Y-4.98642
G01 X9.94540 Y-4.98973
G01 X9.94645 Y-4.99320
G01 X9.94707 Y-4.99678
G01 X9.94724 Y-5.00000
G01 X9.94724 Y-5.22225
G00 Z-0.02362
G01 X9.94724 Y-5.47815
G01 Z-0.04387 F50.00000
G01 F100.00000
G01 X9.94724 Y-5.70040
G01 X9.94691 Y-5.70442
G01 X9.94604 Y-5.70835
G01 X9.94464 Y-5.71213
G01 X9.94273 Y-5.71568
G01 X9.94036 Y-5.71894
G01 X9.93757 Y-5.72185
G01 X9.93474 Y-5.72412
G01 X9.93130 Y-5.72622
G01 X9.92798 Y-5.72769
G01 X9.92451 Y-5.72874
G01 X9.92094 Y-5.72935
G01 X9.91772 Y-5.72953
G01 X9.39547 Y-5.72953
G00 Z-0.02362
G01 X9.13956 Y-5.72953
G01 Z-0.04387 F50.00000
G01 F100.00000
G01 X8.61731 Y-5.72952
G01 X8.61450 Y-5.72935
G01 X8.61131 Y-5.72882
G01 X8.60859 Y-5.72808
G01 X8.60595 Y-5.72708
G01 X8.60342 Y-5.72584
G01 X8.60102 Y-5.72435
G01 X8.59877 Y-5.72265
G01 X8.59669 Y-5.72074
G01 X8.59481 Y-5.71863
G01 X8.59314 Y-5.71636
G01 X8.59169 Y-5.71394
G01 X8.59047 Y-5.71139
G01 X8.58939 Y-5.70835
G01 X8.58873 Y-5.70561
G01 X8.58832 Y-5.70282
G01 X8.58819 Y-5.70000
G01 Z-0.05118 F50.00000 ( plunge. )
G04 P0 ( dwell for no time -- G64 should not smooth over this point )
G01 F100.00000
G01 X8.58819 Y-5.47755
G00 Z-0.02362
G01 X8.58820 Y-5.22164
G01 Z-0.05118 F50.00000
G01 F100.00000
G01 X8.58820 Y-4.99919
G01 X8.58858 Y-4.99518
G01 X8.58939 Y-4.99165
G01 X8.59080 Y-4.98787
G01 X8.59270 Y-4.98431
G01 X8.59507 Y-4.98105
G01 X8.59786 Y-4.97815
G01 X8.60069 Y-4.97588
G01 X8.60413 Y-4.97378
G01 X8.60745 Y-4.97231
G01 X8.61092 Y-4.97126
G01 X8.61450 Y-4.97065
G01 X8.61772 Y-4.97047
G01 X9.13997 Y-4.97047
G00 Z-0.02362
G01 X9.39587 Y-4.97047
G01 Z-0.05118 F50.00000
G01 F100.00000
G01 X9.91812 Y-4.97048
G01 X9.92214 Y-4.97081
G01 X9.92607 Y-4.97168
G01 X9.92985 Y-4.97308
G01 X9.93340 Y-4.97498
G01 X9.93666 Y-4.97735
G01 X9.93957 Y-4.98014
G01 X9.94184 Y-4.98297
G01 X9.94393 Y-4.98642
G01 X9.94540 Y-4.98973
G01 X9.94645 Y-4.99320
G01 X9.94707 Y-4.99678
G01 X9.94724 Y-5.00000
G01 X9.94724 Y-5.22225
G00 Z-0.02362
G01 X9.94724 Y-5.47815
G01 Z-0.05118 F50.00000
G01 F100.00000
G01 X9.94724 Y-5.70040
G01 X9.94691 Y-5.70442
G01 X9.94604 Y-5.70835
G01 X9.94464 Y-5.71213
G01 X9.94273 Y-5.71568
G01 X9.94036 Y-5.71894
G01 X9.93757 Y-5.72185
G01 X9.93474 Y-5.72412
G01 X9.93130 Y-5.72622
G01 X9.92798 Y-5.72769
G01 X9.92451 Y-5.72874
G01 X9.92094 Y-5.72935
G01 X9.91772 Y-5.72953
G01 X9.39547 Y-5.72953
G00 Z-0.02362
G01 X9.13956 Y-5.72953
G01 Z-0.05118 F50.00000
G01 F100.00000
G01 X8.61731 Y-5.72952
G01 X8.61450 Y-5.72935
G01 X8.61131 Y-5.72882
G01 X8.60859 Y-5.72808
G01 X8.60595 Y-5.72708
G01 X8.60342 Y-5.72584
G01 X8.60102 Y-5.72435
G01 X8.59877 Y-5.72265
G01 X8.59669 Y-5.72074
G01 X8.59481 Y-5.71863
G01 X8.59314 Y-5.71636
G01 X8.59169 Y-5.71394
G01 X8.59047 Y-5.71139
G01 X8.58939 Y-5.70835
G01 X8.58873 Y-5.70561
G01 X8.58832 Y-5.70282
G01 X8.58819 Y-5.70000
( Piece #3, position [0;1] )

G04 P0 ( dwell for no time -- G64 should not smooth over this point )
G00 Z0.08000 ( retract )

G00 X7.28819 Y-1.67612 ( rapid move to begin. )
G01 Z-0.00731 F50.00000 ( plunge. )
G04 P0 ( dwell for no time -- G64 should not smooth over this point )
G01 F100.00000
G01 X7.28831 Y-1.67331
G01 X7.28870 Y-1.67052
G01 X7.28935 Y-1.66778
G01 X7.29026 Y-1.66512
G01 X7.29142 Y-1.66255
G01 X7.29282 Y-1.66011
G01 X7.29444 Y-1.65781
G01 X7.29655 Y-1.65539
G01 X7.35193 Y-1.60002
G01 X7.45651 Y-1.49544
G01 X7.63746 Y-1.31449
G01 X7.74082 Y-1.21114
G01 X7.79742 Y-1.15454
G01 X7.79988 Y-1.15245
G01 X7.80222 Y-1.15085
G01 X7.80470 Y-1.14948
G01 X7.80729 Y-1.14836
G01 X7.80999 Y-1.14749
G01 X7.81275 Y-1.14688
G01 X7.81556 Y-1.14654
G01 X7.81839 Y-1.14646
G01 X7.82121 Y-1.14666
G01 X7.82400 Y-1.14713
G01 X7.82712 Y-1.14799
G01 X7.82976 Y-1.14902
G01 X7.83228 Y-1.15030
G01 X7.83468 Y-1.15181
G01 X7.83691 Y-1.15355
G01 X7.83925 Y-1.15578
G01 X7.84109 Y-1.15794
G01 X7.84271 Y-1.16026
G01 X7.84391 Y-1.16236
G01 X7.84510 Y-1.16493
G01 X7.84603 Y-1.16761
G01 X7.84670 Y-1.17036
G01 X7.84707 Y-1.17275
G01 X7.84724 Y-1.17558
G01 X7.84724 Y-1.28311
G01 X7.84724 Y-1.57927
G01 X7.84724 Y-1.67598
G01 X7.84707 Y-1.67920
G01 X7.84663 Y-1.68199
G01 X7.84592 Y-1.68472
G01 X7.84480 Y-1.68775
G01 X7.84355 Y-1.69028
G01 X7.84184 Y-1.69301
G01 X7.83984 Y-1.69554
G01 X7.83787 Y-1.69756
G01 X7.83572 Y-1.69939
G01 X7.83340 Y-1.70100
G01 X7.83094 Y-1.70238
G01 X7.82874 Y-1.70338
G01 X7.82607 Y-1.70431
G01 X7.82333 Y-1.70497
G01 X7.82094 Y-1.70534
G01 X7.81812 Y-1.70551
G01 X7.70488 Y-1.70550
G01 X7.42617 Y-1.70549
G01 X7.31651 Y-1.70549
G01 X7.31371 Y-1.70524
G01 X7.31094 Y-1.70472
G01 X7.30824 Y-1.70395
G01 X7.30562 Y-1.70292
G01 X7.30311 Y-1.70164
G01 X7.30073 Y-1.70014
G01 X7.29851 Y-1.69841
G01 X7.29646 Y-1.69648
G01 X7.29461 Y-1.69436
G01 X7.29296 Y-1.69208
G01 X7.29154 Y-1.68965
G01 X7.29036 Y-1.68710
G01 X7.28943 Y-1.68444
G01 X7.28875 Y-1.68171
G01 X7.28834 Y-1.67893
G01 X7.28819 Y-1.67612
G01 Z-0.01462 F50.00000 ( plunge. )
G04 P0 ( dwell for no time -- G64 should not smooth over this point )
G01 F100.00000
G01 X7.28831 Y-1.67331
G01 X7.28870 Y-1.67052
G01 X7.28935 Y-1.66778
G01 X7.29026 Y-1.66512
G01 X7.29142 Y-1.66255
G01 X7.29282 Y-1.66011
G01 X7.29444 Y-1.65781
G01 X7.29655 Y-1.65539
G01 X7.35193 Y-1.60002
G01 X7.45651 Y-1.49544
G01 X7.63746 Y-1.31449
G01 X7.74082 Y-1.21114
G01 X7.79742 Y-1.15454
G01 X7.79988 Y-1.15245
G01 X7.80222 Y-1.15085
G01 X7.80470 Y-1.14948
G01 X7.80729 Y-1.14836
G01 X7.80999 Y-1.14749
G01 X7.81275 Y-1.14688
G01 X7.81556 Y-1.14654
G01 X7.81839 Y-1.14646
G01 X7.82121 Y-1.14666
G01 X7.82400 Y-1.14713
G01 X7.82712 Y-1.14799
G01 X7.82976 Y-1.14902
G01 X7.83228 Y-1.15030
G01 X7.83468 Y-1.15181
G01 X7.83691 Y-1.15355
G01 X7.83925 Y-1.15578
G01 X7.84109 Y-1.15794
G01 X7.84271 Y-1.16026
G01 X7.84391 Y-1.16236
G01 X7.84510 Y-1.16493
G01 X7.84603 Y-1.16761
G01 X7.84670 Y-1.17036
G01 X7.84707 Y-1.17275
G01 X7.84724 Y-1.17558
G01 X7.84724 Y-1.28311
G01 X7.84724 Y-1.57927
G01 X7.84724 Y-1.67598
G01 X7.84707 Y-1.67920
G01 X7.84663 Y-1.68199
G01 X7.84592 Y-1.68472
G01 X7.84480 Y-1.68775
G01 X7.84355 Y-1.69028
G01 X7.84184 Y-1.69301
G01 X7.83984 Y-1.69554
G01 X7.83787 Y-1.69756
G01 X7.83572 Y-1.69939
G01 X7.83340 Y-1.70100
G01 X7.83094 Y-1.70238
G01 X7.82874 Y-1.70338
G01 X7.82607 Y-1.70431
G01 X7.82333 Y-1.70497
G01 X7.82094 Y-1.70534
G01 X7.81812 Y-1.70551
G01 X7.70488 Y-1.70550
G01 X7.42617 Y-1.70549
G01 X7.31651 Y-1.70549
G01 X7.31371 Y-1.70524
G01 X7.31094 Y-1.70472
G01 X7.30824 Y-1.70395
G01 X7.30562 Y-1.70292
G01 X7.30311 Y-1.70164
G01 X7.30073 Y-1.70014
G01 X7.29851 Y-1.69841
G01 X7.29646 Y-1.69648
G01 X7.29461 Y-1.69436
G01 X7.29296 Y-1.69208
G01 X7.29154 Y-1.68965
G01 X7.29036 Y-1.68710
G01 X7.28943 Y-1.68444
G01 X7.28875 Y-1.68171
G01 X7.28834 Y-1.67893
G01 X7.28819 Y-1.67612
G01 Z-0.02193 F50.00000 ( plunge. )
G04 P0 ( dwell for no time -- G64 should not smooth over this point )
G01 F100.00000
G01 X7.28831 Y-1.67331
G01 X7.28870 Y-1.67052
G01 X7.28935 Y-1.66778
G01 X7.29026 Y-1.66512
G01 X7.29142 Y-1.66255
G01 X7.29282 Y-1.66011
G01 X7.29444 Y-1.65781
G01 X7.29655 Y-1.65539
G01 X7.35193 Y-1.60002
G01 X7.45651 Y-1.49544
G01 X7.63746 Y-1.31449
G01 X7.74082 Y-1.21114
G01 X7.79742 Y-1.15454
G01 X7.79988 Y-1.15245
G01 X7.80222 Y-1.15085
G01 X7.80470 Y-1.14948
G01 X7.80729 Y-1.14836
G01 X7.80999 Y-1.14749
G01 X7.81275 Y-1.14688
G01 X7.81556 Y-1.14654
G01 X7.81839 Y-1.14646
G01 X7.82121 Y-1.14666
G01 X7.82400 Y-1.14713
G01 X7.82712 Y-1.14799
G01 X7.82976 Y-1.14902
G01 X7.83228 Y-1.15030
G01 X7.83468 Y-1.15181
G01 X7.83691 Y-1.15355
G01 X7.83925 Y-1.15578
G01 X7.84109 Y-1.15794
G01 X7.84271 Y-1.16026
G01 X7.84391 Y-1.16236
G01 X7.84510 Y-1.16493
G01 X7.84603 Y-1.16761
G01 X7.84670 Y-1.17036
G01 X7.84707 Y-1.17275
G01 X7.84724 Y-1.17558
G01 X7.84724 Y-1.28311
G01 X7.84724 Y-1.57927
G01 X7.84724 Y-1.67598
G01 X7.84707 Y-1.67920
G01 X7.84663 Y-1.68199
G01 X7.84592 Y-1.68472
G01 X7.84480 Y-1.68775
G01 X7.84355 Y-1.69028
G01 X7.84184 Y-1.69301
G01 X7.83984 Y-1.69554
G01 X7.83787 Y-1.69756
G01 X7.83572 Y-1.69939
G01 X7.83340 Y-1.70100
G01 X7.83094 Y-1.70238
G01 X7.82874 Y-1.70338
G01 X7.82607 Y-1.70431
G01 X7.82333 Y-1.70497
G01 X7.82094 Y-1.70534
G01 X7.81812 Y-1.70551
G01 X7.70488 Y-1.70550
G01 X7.42617 Y-1.70549
G01 X7.31651 Y-1.70549
G01 X7.31371 Y-1.70524
G01 X7.31094 Y-1.70472
G01 X7.30824 Y-1.70395
G01 X7.30562 Y-1.70292
G01 X7.30311 Y-1.70164
G01 X7.30073 Y-1.70014
G01 X7.29851 Y-1.69841
G01 X7.29646 Y-1.69648
G01 X7.29461 Y-1.69436
G01 X7.29296 Y-1.69208
G01 X7.29154 Y-1.68965
G01 X7.29036 Y-1.68710
G01 X7.28943 Y-1.68444
G01 X7.28875 Y-1.68171
G01 X7.28834 Y-1.67893
G01 X7.28819 Y-1.67612
G01 Z-0.02925 F50.00000 ( plunge. )
G04 P0 ( dwell for no time -- G64 should not smooth over this point )
G01 F100.00000
G00 Z-0.02362
G01 X7.28831 Y-1.67331
G01 X7.28870 Y-1.67052
G01 X7.28935 Y-1.66778
G01 X7.29026 Y-1.66512
G01 X7.29142 Y-1.66255
G01 X7.29282 Y-1.66011
G01 X7.29444 Y-1.65781
G01 X7.29655 Y-1.65539
G01 X7.35193 Y-1.60002
G01 Z-0.02925 F50.00000
G01 F100.00000
G01 X7.45651 Y-1.49544
G00 Z-0.02362
G01 X7.63746 Y-1.31449
G01 Z-0.02925 F50.00000
G01 F100.00000
G01 X7.74082 Y-1.21114
G00 Z-0.02362
G01 X7.79742 Y-1.15454
G01 X7.79988 Y-1.15245
G01 X7.80222 Y-1.15085
G01 X7.80470 Y-1.14948
G01 X7.80729 Y-1.14836
G01 X7.80999 Y-1.14749
G01 X7.81275 Y-1.14688
G01 X7.81556 Y-1.14654
G01 X7.81839 Y-1.14646
G01 X7.82121 Y-1.14666
G01 X7.82400 Y-1.14713
G01 X7.82712 Y-1.14799
G01 X7.82976 Y-1.14902
G01 X7.83228 Y-1.15030
G01 X7.83468 Y-1.15181
G01 X7.83691 Y-1.15355
G01 X7.83925 Y-1.15578
G01 X7.84109 Y-1.15794
G01 X7.84271 Y-1.16026
G01 X7.84391 Y-1.16236
G01 X7.84510 Y-1.16493
G01 X7.84603 Y-1.16761
G01 X7.84670 Y-1.17036
G01 X7.84707 Y-1.17275
G01 X7.84724 Y-1.17558
G01 X7.84724 Y-1.28311
G01 Z-0.02925 F50.00000
G01 F100.00000
G01 X7.84724 Y-1.57927
G00 Z-0.02362
G01 X7.84724 Y-1.67598
G01 X7.84707 Y-1.67920
G01 X7.84663 Y-1.68199
G01 X7.84592 Y-1.68472
G01 X7.84480 Y-1.68775
G01 X7.84355 Y-1.69028
G01 X7.84184 Y-1.69301
G01 X7.83984 Y-1.69554
G01 X7.83787 Y-1.69756
G01 X7.83572 Y-1.69939
G01 X7.83340 Y-1.70100
G01 X7.83094 Y-1.70238
G01 X7.82874 Y-1.70338
G01 X7.82607 Y-1.70431
G01 X7.82333 Y-1.70497
G01 X7.82094 Y-1.70534
G01 X7.81812 Y-1.70551
G01 X7.70488 Y-1.70550
G01 Z-0.02925 F50.00000
G01 F100.00000
G01 X7.42617 Y-1.70549
G00 Z-0.02362
G01 X7.31651 Y-1.70549
G01 X7.31371 Y-1.70524
G01 X7.31094 Y-1.70472
G01 X7.30824 Y-1.70395
G01 X7.30562 Y-1.70292
G01 X7.30311 Y-1.70164
G01 X7.30073 Y-1.70014
G01 X7.29851 Y-1.69841
G01 X7.29646 Y-1.69648
G01 X7.29461 Y-1.69436
G01 X7.29296 Y-1.69208
G01 X7.29154 Y-1.68965
G01 X7.29036 Y-1.68710
G01 X7.28943 Y-1.68444
G01 X7.28875 Y-1.68171
G01 X7.28834 Y-1.67893
G01 X7.28819 Y-1.67612
G01 Z-0.03656 F50.00000 ( plunge. )
G04 P0 ( dwell for no time -- G64 should not smooth over this point )
G01 F100.00000
G00 Z-0.02362
G01 X7.28831 Y-1.67331
G01 X7.28870 Y-1.67052
G01 X7.28935 Y-1.66778
G01 X7.29026 Y-1.66512
G01 X7.29142 Y-1.66255
G01 X7.29282 Y-1.66011
G01 X7.29444 Y-1.65781
G01 X7.29655 Y-1.65539
G01 X7.35193 Y-1.60002
G01 Z-0.03656 F50.00000
G01 F100.00000
G01 X7.45651 Y-1.49544
G00 Z-0.02362
G01 X7.63746 Y-1.31449
G01 Z-0.03656 F50.00000
G01 F100.00000
G01 X7.74082 Y-1.21114
G00 Z-0.02362
G01 X7.79742 Y-1.15454
G01 X7.79988 Y-1.15245
G01 X7.80222 Y-1.15085
G01 X7.80470 Y-1.14948
G01 X7.80729 Y-1.14836
G01 X7.80999 Y-1.14749
G01 X7.81275 Y-1.14688
G01 X7.81556 Y-1.14654
G01 X7.81839 Y-1.14646
G01 X7.82121 Y-1.14666
G01 X7.82400 Y-1.14713
G01 X7.82712 Y-1.14799
G01 X7.82976 Y-1.14902
G01 X7.83228 Y-1.15030
G01 X7.83468 Y-1.15181
G01 X7.83691 Y-1.15355
G01 X7.83925 Y-1.15578
G01 X7.84109 Y-1.15794
G01 X7.84271 Y-1.16026
G01 X7.84391 Y-1.16236
G01 X7.84510 Y-1.16493
G01 X7.84603 Y-1.16761
G01 X7.84670 Y-1.17036
G01 X7.84707 Y-1.17275
G01 X7.84724 Y-1.17558
G01 X7.84724 Y-1.28311
G01 Z-0.03656 F50.00000
G01 F100.00000
G01 X7.84724 Y-1.57927
G00 Z-0.02362
G01 X7.84724 Y-1.67598
G01 X7.84707 Y-1.67920
G01 X7.84663 Y-1.68199
G01 X7.84592 Y-1.68472
G01 X7.84480 Y-1.68775
G01 X7.84355 Y-1.69028
G01 X7.84184 Y-1.69301
G01 X7.83984 Y-1.69554
G01 X7.83787 Y-1.69756
G01 X7.83572 Y-1.69939
G01 X7.83340 Y-1.70100
G01 X7.83094 Y-1.70238
G01 X7.82874 Y-1.70338
G01 X7.82607 Y-1.70431
G01 X7.82333 Y-1.70497
G01 X7.82094 Y-1.70534
G01 X7.81812 Y-1.70551
G01 X7.70488 Y-1.70550
G01 Z-0.03656 F50.00000
G01 F100.00000
G01 X7.42617 Y-1.70549
G00 Z-0.02362
G01 X7.31651 Y-1.70549
G01 X7.31371 Y-1.70524
G01 X7.31094 Y-1.70472
G01 X7.30824 Y-1.70395
G01 X7.30562 Y-1.70292
G01 X7.30311 Y-1.70164
G01 X7.30073 Y-1.70014
G01 X7.29851 Y-1.69841
G01 X7.29646 Y-1.69648
G01 X7.29461 Y-1.69436
G01 X7.29296 Y-1.69208
G01 X7.29154 Y-1.68965
G01 X7.29036 Y-1.68710
G01 X7.28943 Y-1.68444
G01 X7.28875 Y-1.68171
G01 X7.28834 Y-1.67893
G01 X7.28819 Y-1.67612
G01 Z-0.04387 F50.00000 ( plunge. )
G04 P0 ( dwell for no time -- G64 should not smooth over this point )
G01 F100.00000
G00 Z-0.02362
G01 X7.28831 Y-1.67331
G01 X7.28870 Y-1.67052
G01 X7.28935 Y-1.66778
G01 X7.29026 Y-1.66512
G01 X7.29142 Y-1.66255
G01 X7.29282 Y-1.66011
G01 X7.29444 Y-1.65781
G01 X7.29655 Y-1.65539
G01 X7.35193 Y-1.60002
G01 Z-0.04387 F50.00000
G01 F100.00000
G01 X7.45651 Y-1.49544
G00 Z-0.02362
G01 X7.63746 Y-1.31449
G01 Z-0.04387 F50.00000
G01 F100.00000
G01 X7.74082 Y-1.21114
G00 Z-0.02362
G01 X7.79742 Y-1.15454
G01 X7.79988 Y-1.15245
G01 X7.80222 Y-1.15085
G01 X7.80470 Y-1.14948
G01 X7.80729 Y-1.14836
G01 X7.80999 Y-1.14749
G01 X7.81275 Y-1.14688
G01 X7.81556 Y-1.14654
G01 X7.81839 Y-1.14646
G01 X7.82121 Y-1.14666
G01 X7.82400 Y-1.14713
G01 X7.82712 Y-1.14799
G01 X7.82976 Y-1.14902
G01 X7.83228 Y-1.15030
G01 X7.83468 Y-1.15181
G01 X7.83691 Y-1.15355
G01 X7.83925 Y-1.15578
G01 X7.84109 Y-1.15794
G01 X7.84271 Y-1.16026
G01 X7.84391 Y-1.16236
G01 X7.84510 Y-1.16493
G01 X7.84603 Y-1.16761
G01 X7.84670 Y-1.17036
G01 X7.84707 Y-1.17275
G01 X7.84724 Y-1.17558
G01 X7.84724 Y-1.28311
G01 Z-0.04387 F50.00000
G01 F100.00000
G01 X7.84724 Y-1.57927
G00 Z-0.02362
G01 X7.84724 Y-1.67598
G01 X7.84707 Y-1.67920
G01 X7.84663 Y-1.68199
G01 X7.84592 Y-1.68472
G01 X7.84480 Y-1.68775
G01 X7.84355 Y-1.69028
G01 X7.84184 Y-1.69301
G01 X7.83984 Y-1.69554
G01 X7.83787 Y-1.69756
G01 X7.83572 Y-1.69939
G01 X7.83340 Y-1.70100
G01 X7.83094 Y-1.70238
G01 X7.82874 Y-1.70338
G01 X7.82607 Y-1.70431
G01 X7.82333 Y-1.70497
G01 X7.82094 Y-1.70534
G01 X7.81812 Y-1.70551
G01 X7.70488 Y-1.70550
G01 Z-0.04387 F50.00000
G01 F100.00000
G01 X7.42617 Y-1.70549
G00 Z-0.02362
G01 X7.31651 Y-1.70549
G01 X7.31371 Y-1.70524
G01 X7.31094 Y-1.70472
G01 X7.30824 Y-1.70395
G01 X7.30562 Y-1.70292
G01 X7.30311 Y-1.70164
G01 X7.30073 Y-1.70014
G01 X7.29851 Y-1.69841
G01 X7.29646 Y-1.69648
G01 X7.29461 Y-1.69436
G01 X7.29296 Y-1.69208
G01 X7.29154 Y-1.68965
G01 X7.29036 Y-1.68710
G01 X7.28943 Y-1.68444
G01 X7.28875 Y-1.68171
G01 X7.28834 Y-1.67893
G01 X7.28819 Y-1.67612
G01 Z-0.05118 F50.00000 ( plunge. )
G04 P0 ( dwell for no time -- G64 should not smooth over this point )
G01 F100.00000
G00 Z-0.02362
G01 X7.28831 Y-1.67331
G01 X7.28870 Y-1.67052
G01 X7.28935 Y-1.66778
G01 X7.29026 Y-1.66512
G01 X7.29142 Y-1.66255
G01 X7.29282 Y-1.66011
G01 X7.29444 Y-1.65781
G01 X7.29655 Y-1.65539
G01 X7.35193 Y-1.60002
G01 Z-0.05118 F50.00000
G01 F100.00000
G01 X7.45651 Y-1.49544
G00 Z-0.02362
G01 X7.63746 Y-1.31449
G01 Z-0.05118 F50.00000
G01 F100.00000
G01 X7.74082 Y-1.21114
G00 Z-0.02362
G01 X7.79742 Y-1.15454
G01 X7.79988 Y-1.15245
G01 X7.80222 Y-1.15085
G01 X7.80470 Y-1.14948
G01 X7.80729 Y-1.14836
G01 X7.80999 Y-1.14749
G01 X7.81275 Y-1.14688
G01 X7.81556 Y-1.14654
G01 X7.81839 Y-1.14646
G01 X7.82121 Y-1.14666
G01 X7.82400 Y-1.14713
G01 X7.82712 Y-1.14799
G01 X7.82976 Y-1.14902
G01 X7.83228 Y-1.15030
G01 X7.83468 Y-1.15181
G01 X7.83691 Y-1.15355
G01 X7.83925 Y-1.15578
G01 X7.84109 Y-1.15794
G01 X7.84271 Y-1.16026
G01 X7.84391 Y-1.16236
G01 X7.84510 Y-1.16493
G01 X7.84603 Y-1.16761
G01 X7.84670 Y-1.17036
G01 X7.84707 Y-1.17275
G01 X7.84724 Y-1.17558
G01 X7.84724 Y-1.28311
G01 Z-0.05118 F50.00000
G01 F100.00000
G01 X7.84724 Y-1.57927
G00 Z-0.02362
G01 X7.84724 Y-1.67598
G01 X7.84707 Y-1.67920
G01 X7.84663 Y-1.68199
G01 X7.84592 Y-1.68472
G01 X7.84480 Y-1.68775
G01 X7.84355 Y-1.69028
G01 X7.84184 Y-1.69301
G01 X7.83984 Y-1.69554
G01 X7.83787 Y-1.69756
G01 X7.83572 Y-1.69939
G01 X7.83340 Y-1.70100
G01 X7.83094 Y-1.70238
G01 X7.82874 Y-1.70338
G01 X7.82607 Y-1.70431
G01 X7.82333 Y-1.70497
G01 X7.82094 Y-1.70534
G01 X7.81812 Y-1.70551
G01 X7.70488 Y-1.70550
G01 Z-0.05118 F50.00000
G01 F100.00000
G01 X7.42617 Y-1.70549
G00 Z-0.02362
G01 X7.31651 Y-1.70549
G01 X7.31371 Y-1.70524
G01 X7.31094 Y-1.70472
G01 X7.30824 Y-1.70395
G01 X7.30562 Y-1.70292
G01 X7.30311 Y-1.70164
G01 X7.30073 Y-1.70014
G01 X7.29851 Y-1.69841
G01 X7.29646 Y-1.69648
G01 X7.29461 Y-1.69436
G01 X7.29296 Y-1.69208
G01 X7.29154 Y-1.68965
G01 X7.29036 Y-1.68710
G01 X7.28943 Y-1.68444
G01 X7.28875 Y-1.68171
G01 X7.28834 Y-1.67893
G01 X7.28819 Y-1.67612
G04 P0 ( dwell for no time -- G64 should not smooth over this point )
G00 Z0.08000 ( retract )

G00 X8.58819 Y-3.37598 ( rapid move to begin. )
G01 Z-0.00731 F50.00000 ( plunge. )
G04 P0 ( dwell for no time -- G64 should not smooth over this point )
G01 F100.00000
G01 X8.58819 Y-3.15353
G01 X8.58820 Y-2.89763
G01 X8.58820 Y-2.67518
G01 X8.58858 Y-2.67117
G01 X8.58939 Y-2.66763
G01 X8.59080 Y-2.66385
G01 X8.59270 Y-2.66030
G01 X8.59507 Y-2.65704
G01 X8.59786 Y-2.65413
G01 X8.60069 Y-2.65186
G01 X8.60413 Y-2.64977
G01 X8.60745 Y-2.64830
G01 X8.61092 Y-2.64725
G01 X8.61450 Y-2.64663
G01 X8.61772 Y-2.64646
G01 X9.13997 Y-2.64646
G01 X9.39587 Y-2.64646
G01 X9.91812 Y-2.64646
G01 X9.92214 Y-2.64679
G01 X9.92607 Y-2.64766
G01 X9.92985 Y-2.64906
G01 X9.93340 Y-2.65097
G01 X9.93666 Y-2.65334
G01 X9.93957 Y-2.65613
G01 X9.94184 Y-2.65896
G01 X9.94393 Y-2.66240
G01 X9.94540 Y-2.66572
G01 X9.94645 Y-2.66919
G01 X9.94707 Y-2.67276
G01 X9.94724 Y-2.67598
G01 X9.94724 Y-2.89823
G01 X9.94724 Y-3.15414
G01 X9.94724 Y-3.37639
G01 X9.94691 Y-3.38040
G01 X9.94604 Y-3.38434
G01 X9.94464 Y-3.38812
G01 X9.94273 Y-3.39167
G01 X9.94036 Y-3.39493
G01 X9.93757 Y-3.39784
G01 X9.93474 Y-3.40011
G01 X9.93130 Y-3.40220
G01 X9.92798 Y-3.40367
G01 X9.92451 Y-3.40472
G01 X9.92094 Y-3.40534
G01 X9.91772 Y-3.40551
G01 X9.39547 Y-3.40551
G01 X9.13956 Y-3.40551
G01 X8.61731 Y-3.40551
G01 X8.61450 Y-3.40534
G01 X8.61131 Y-3.40481
G01 X8.60859 Y-3.40407
G01 X8.60595 Y-3.40307
G01 X8.60342 Y-3.40182
G01 X8.60102 Y-3.40034
G01 X8.59877 Y-3.39863
G01 X8.59669 Y-3.39672
G01 X8.59481 Y-3.39462
G01 X8.59314 Y-3.39235
G01 X8.59169 Y-3.38993
G01 X8.59047 Y-3.38738
G01 X8.58939 Y-3.38434
G01 X8.58873 Y-3.38160
G01 X8.58832 Y-3.37880
G01 X8.58819 Y-3.37598
G01 Z-0.01462 F50.00000 ( plunge. )
G04 P0 ( dwell for no time -- G64 should not smooth over this point )
G01 F100.00000
G01 X8.58819 Y-3.15353
G01 X8.58820 Y-2.89763
G01 X8.58820 Y-2.67518
G01 X8.58858 Y-2.67117
G01 X8.58939 Y-2.66763
G01 X8.59080 Y-2.66385
G01 X8.59270 Y-2.66030
G01 X8.59507 Y-2.65704
G01 X8.59786 Y-2.65413
G01 X8.60069 Y-2.65186
G01 X8.60413 Y-2.64977
G01 X8.60745 Y-2.64830
G01 X8.61092 Y-2.64725
G01 X8.61450 Y-2.64663
G01 X8.61772 Y-2.64646
G01 X9.13997 Y-2.64646
G01 X9.39587 Y-2.64646
G01 X9.91812 Y-2.64646
G01 X9.92214 Y-2.64679
G01 X9.92607 Y-2.64766
G01 X9.92985 Y-2.64906
G01 X9.93340 Y-2.65097
G01 X9.93666 Y-2.65334
G01 X9.93957 Y-2.65613
G01 X9.94184 Y-2.65896
G01 X9.94393 Y-2.66240
G01 X9.94540 Y-2.66572
G01 X9.94645 Y-2.66919
G01 X9.94707 Y-2.67276
G01 X9.94724 Y-2.67598
G01 X9.94724 Y-2.89823
G01 X9.94724 Y-3.15414
G01 X9.94724 Y-3.37639
G01 X9.94691 Y-3.38040
G01 X9.94604 Y-3.38434
G01 X9.94464 Y-3.38812
G01 X9.94273 Y-3.39167
G01 X9.94036 Y-3.39493
G01 X9.93757 Y-3.39784
G01 X9.93474 Y-3.40011
G01 X9.93130 Y-3.40220
G01 X9.92798 Y-3.40367
G01 X9.92451 Y-3.40472
G01 X9.92094 Y-3.40534
G01 X9.91772 Y-3.40551
G01 X9.39547 Y-3.40551
G01 X9.13956 Y-3.40551
G01 X8.61731 Y-3.40551
G01 X8.61450 Y-3.40534
G01 X8.61131 Y-3.40481
G01 X8.60859 Y-3.40407
G01 X8.60595 Y-3.40307
G01 X8.60342 Y-3.40182
G01 X8.60102 Y-3.40034
G01 X8.59877 Y-3.39863
G01 X8.59669 Y-3.39672
G01 X8.59481 Y-3.39462
G01 X8.59314 Y-3.39235
G01 X8.59169 Y-3.38993
G01 X8.59047 Y-3.38738
G01 X8.58939 Y-3.38434
G01 X8.58873 Y-3.38160
G01 X8.58832 Y-3.37880
G01 X8.58819 Y-3.37598
G01 Z-0.02193 F50.00000 ( plunge. )
G04 P0 ( dwell for no time -- G64 should not smooth over this point )
G01 F100.00000
G01 X8.58819 Y-3.15353
G01 X8.58820 Y-2.89763
G01 X8.58820 Y-2.67518
G01 X8.58858 Y-2.67117
G01 X8.58939 Y-2.66763
G01 X8.59080 Y-2.66385
G01 X8.59270 Y-2.66030
G01 X8.59507 Y-2.65704
G01 X8.59786 Y-2.65413
G01 X8.60069 Y-2.65186
G01 X8.60413 Y-2.64977
G01 X8.60745 Y-2.64830
G01 X8.61092 Y-2.64725
G01 X8.61450 Y-2.64663
G01 X8.61772 Y-2.64646
G01 X9.13997 Y-2.64646
G01 X9.39587 Y-2.64646
G01 X9.91812 Y-2.64646
G01 X9.92214 Y-2.64679
G01 X9.92607 Y-2.64766
G01 X9.92985 Y-2.64906
G01 X9.93340 Y-2.65097
G01 X9.93666 Y-2.65334
G01 X9.93957 Y-2.65613
G01 X9.94184 Y-2.65896
G01 X9.94393 Y-2.66240
G01 X9.94540 Y-2.66572
G01 X9.94645 Y-2.66919
G01 X9.94707 Y-2.67276
G01 X9.94724 Y-2.67598
G01 X9.94724 Y-2.89823
G01 X9.94724 Y-3.15414
G01 X9.94724 Y-3.37639
G01 X9.94691 Y-3.38040
G01 X9.94604 Y-3.38434
G01 X9.94464 Y-3.38812
G01 X9.94273 Y-3.39167
G01 X9.94036 Y-3.39493
G01 X9.93757 Y-3.39784
G01 X9.93474 Y-3.40011
G01 X9.93130 Y-3.40220
G01 X9.92798 Y-3.40367
G01 X9.92451 Y-3.40472
G01 X9.92094 Y-3.40534
G01 X9.91772 Y-3.40551
G01 X9.39547 Y-3.40551
G01 X9.13956 Y-3.40551
G01 X8.61731 Y-3.40551
G01 X8.61450 Y-3.40534
G01 X8.61131 Y-3.40481
G01 X8.60859 Y-3.40407
G01 X8.60595 Y-3.40307
G01 X8.60342 Y-3.40182
G01 X8.60102 Y-3.40034
G01 X8.59877 Y-3.39863
G01 X8.59669 Y-3.39672
G01 X8.59481 Y-3.39462
G01 X8.59314 Y-3.39235
G01 X8.59169 Y-3.38993
G01 X8.59047 Y-3.38738
G01 X8.58939 Y-3.38434
G01 X8.58873 Y-3.38160
G01 X8.58832 Y-3.37880
G01 X8.58819 Y-3.37598
G01 Z-0.02925 F50.00000 ( plunge. )
G04 P0 ( dwell for no time -- G64 should not smooth over this point )
G01 F100.00000
G01 X8.58819 Y-3.15353
G00 Z-0.02362
G01 X8.58820 Y-2.89763
G01 Z-0.02925 F50.00000
G01 F100.00000
G01 X8.58820 Y-2.67518
G01 X8.58858 Y-2.67117
G01 X8.58939 Y-2.66763
G01 X8.59080 Y-2.66385
G01 X8.59270 Y-2.66030
G01 X8.59507 Y-2.65704
G01 X8.59786 Y-2.65413
G01 X8.60069 Y-2.65186
G01 X8.60413 Y-2.64977
G01 X8.60745 Y-2.64830
G01 X8.61092 Y-2.64725
G01 X8.61450 Y-2.64663
G01 X8.61772 Y-2.64646
G01 X9.13997 Y-2.64646
G00 Z-0.02362
G01 X9.39587 Y-2.64646
G01 Z-0.02925 F50.00000
G01 F100.00000
G01 X9.91812 Y-2.64646
G01 X9.92214 Y-2.64679
G01 X9.92607 Y-2.64766
G01 X9.92985 Y-2.64906
G01 X9.93340 Y-2.65097
G01 X9.93666 Y-2.65334
G01 X9.93957 Y-2.65613
G01 X9.94184 Y-2.65896
G01 X9.94393 Y-2.66240
G01 X9.94540 Y-2.66572
G01 X9.94645 Y-2.66919
G01 X9.94707 Y-2.67276
G01 X9.94724 Y-2.67598
G01 X9.94724 Y-2.89823
G00 Z-0.02362
G01 X9.94724 Y-3.15414
G01 Z-0.02925 F50.00000
G01 F100.00000
G01 X9.94724 Y-3.37639
G01 X9.94691 Y-3.38040
G01 X9.94604 Y-3.38434
G01 X9.94464 Y-3.38812
G01 X9.94273 Y-3.39167
G01 X9.94036 Y-3.39493
G01 X9.93757 Y-3.39784
G01 X9.93474 Y-3.40011
G01 X9.93130 Y-3.40220
G01 X9.92798 Y-3.40367
G01 X9.92451 Y-3.40472
G01 X9.92094 Y-3.40534
G01 X9.91772 Y-3.40551
G01 X9.39547 Y-3.40551
G00 Z-0.02362
G01 X9.13956 Y-3.40551
G01 Z-0.02925 F50.00000
G01 F100.00000
G01 X8.61731 Y-3.40551
G01 X8.61450 Y-3.40534
G01 X8.61131 Y-3.40481
G01 X8.60859 Y-3.40407
G01 X8.60595 Y-3.40307
G01 X8.60342 Y-3.40182
G01 X8.60102 Y-3.40034
G01 X8.59877 Y-3.39863
G01 X8.59669 Y-3.39672
G01 X8.59481 Y-3.39462
G01 X8.59314 Y-3.39235
G01 X8.59169 Y-3.38993
G01 X8.59047 Y-3.38738
G01 X8.58939 Y-3.38434
G01 X8.58873 Y-3.38160
G01 X8.58832 Y-3.37880
G01 X8.58819 Y-3.37598
G01 Z-0.03656 F50.00000 ( plunge. )
G04 P0 ( dwell for no time -- G64 should not smooth over this point )
G01 F100.00000
G01 X8.58819 Y-3.15353
G00 Z-0.02362
G01 X8.58820 Y-2.89763
G01 Z-0.03656 F50.00000
G01 F100.00000
G01 X8.58820 Y-2.67518
G01 X8.58858 Y-2.67117
G01 X8.58939 Y-2.66763
G01 X8.59080 Y-2.66385
G01 X8.59270 Y-2.66030
G01 X8.59507 Y-2.65704
G01 X8.59786 Y-2.65413
G01 X8.60069 Y-2.65186
G01 X8.60413 Y-2.64977
G01 X8.60745 Y-2.64830
G01 X8.61092 Y-2.64725
G01 X8.61450 Y-2.64663
G01 X8.61772 Y-2.64646
G01 X9.13997 Y-2.64646
G00 Z-0.02362
G01 X9.39587 Y-2.64646
G01 Z-0.03656 F50.00000
G01 F100.00000
G01 X9.91812 Y-2.64646
G01 X9.92214 Y-2.64679
G01 X9.92607 Y-2.64766
G01 X9.92985 Y-2.64906
G01 X9.93340 Y-2.65097
G01 X9.93666 Y-2.65334
G01 X9.93957 Y-2.65613
G01 X9.94184 Y-2.65896
G01 X9.94393 Y-2.66240
G01 X9.94540 Y-2.66572
G01 X9.94645 Y-2.66919
G01 X9.94707 Y-2.67276
G01 X9.94724 Y-2.67598
G01 X9.94724 Y-2.89823
G00 Z-0.02362
G01 X9.94724 Y-3.15414
G01 Z-0.03656 F50.00000
G01 F100.00000
G01 X9.94724 Y-3.37639
G01 X9.94691 Y-3.38040
G01 X9.94604 Y-3.38434
G01 X9.94464 Y-3.38812
G01 X9.94273 Y-3.39167
G01 X9.94036 Y-3.39493
G01 X9.93757 Y-3.39784
G01 X9.93474 Y-3.40011
G01 X9.93130 Y-3.40220
G01 X9.92798 Y-3.40367
G01 X9.92451 Y-3.40472
G01 X9.92094 Y-3.40534
G01 X9.91772 Y-3.40551
G01 X9.39547 Y-3.40551
G00 Z-0.02362
G01 X9.13956 Y-3.40551
G01 Z-0.03656 F50.00000
G01 F100.00000
G01 X8.61731 Y-3.40551
G01 X8.61450 Y-3.40534
G01 X8.61131 Y-3.40481
G01 X8.60859 Y-3.40407
G01 X8.60595 Y-3.40307
G01 X8.60342 Y-3.40182
G01 X8.60102 Y-3.40034
G01 X8.59877 Y-3.39863
G01 X8.59669 Y-3.39672
G01 X8.59481 Y-3.39462
G01 X8.59314 Y-3.39235
G01 X8.59169 Y-3.38993
G01 X8.59047 Y-3.38738
G01 X8.58939 Y-3.38434
G01 X8.58873 Y-3.38160
G01 X8.58832 Y-3.37880
G01 X8.58819 Y-3.37598
G01 Z-0.04387 F50.00000 ( plunge. )
G04 P0 ( dwell for no time -- G64 should not smooth over this point )
G01 F100.00000
G01 X8.58819 Y-3.15353
G00 Z-0.02362
G01 X8.58820 Y-2.89763
G01 Z-0.04387 F50.00000
G01 F100.00000
G01 X8.58820 Y-2.67518
G01 X8.58858 Y-2.67117
G01 X8.58939 Y-2.66763
G01 X8.59080 Y-2.66385
G01 X8.59270 Y-2.66030
G01 X8.59507 Y-2.65704
G01 X8.59786 Y-2.65413
G01 X8.60069 Y-2.65186
G01 X8.60413 Y-2.64977
G01 X8.60745 Y-2.64830
G01 X8.61092 Y-2.64725
G01 X8.61450 Y-2.64663
G01 X8.61772 Y-2.64646
G01 X9.13997 Y-2.64646
G00 Z-0.02362
G01 X9.39587 Y-2.64646
G01 Z-0.04387 F50.00000
G01 F100.00000
G01 X9.91812 Y-2.64646
G01 X9.92214 Y-2.64679
G01 X9.92607 Y-2.64766
G01 X9.92985 Y-2.64906
G01 X9.93340 Y-2.65097
G01 X9.93666 Y-2.65334
G01 X9.93957 Y-2.65613
G01 X9.94184 Y-2.65896
G01 X9.94393 Y-2.66240
G01 X9.94540 Y-2.66572
G01 X9.94645 Y-2.66919
G01 X9.94707 Y-2.67276
G01 X9.94724 Y-2.67598
G01 X9.94724 Y-2.89823
G00 Z-0.02362
G01 X9.94724 Y-3.15414
G01 Z-0.04387 F50.00000
G01 F100.00000
G01 X9.94724 Y-3.37639
G01 X9.94691 Y-3.38040
G01 X9.94604 Y-3.38434
G01 X9.94464 Y-3.38812
G01 X9.94273 Y-3.39167
G01 X9.94036 Y-3.39493
G01 X9.93757 Y-3.39784
G01 X9.93474 Y-3.40011
G01 X9.93130 Y-3.40220
G01 X9.92798 Y-3.40367
G01 X9.92451 Y-3.40472
G01 X9.92094 Y-3.40534
G01 X9.91772 Y-3.40551
G01 X9.39547 Y-3.40551
G00 Z-0.02362
G01 X9.13956 Y-3.40551
G01 Z-0.04387 F50.00000
G01 F100.00000
G01 X8.61731 Y-3.40551
G01 X8.61450 Y-3.40534
G01 X8.61131 Y-3.40481
G01 X8.60859 Y-3.40407
G01 X8.60595 Y-3.40307
G01 X8.60342 Y-3.40182
G01 X8.60102 Y-3.40034
G01 X8.59877 Y-3.39863
G01 X8.59669 Y-3.39672
G01 X8.59481 Y-3.39462
G01 X8.59314 Y-3.39235
G01 X8.59169 Y-3.38993
G01 X8.59047 Y-3.38738
G01 X8.58939 Y-3.38434
G01 X8.58873 Y-3.38160
G01 X8.58832 Y-3.37880
G01 X8.58819 Y-3.37598
G01 Z-0.05118 F50.00000 ( plunge. )
G04 P0 ( dwell for no time -- G64 should not smooth over this point )
G01 F100.00000
G01 X8.58819 Y-3.15353
G00 Z-0.02362
G01 X8.58820 Y-2.89763
G01 Z-0.05118 F50.00000
G01 F100.00000
G01 X8.58820 Y-2.67518
G01 X8.58858 Y-2.67117
G01 X8.58939 Y-2.66763
G01 X8.59080 Y-2.66385
G01 X8.59270 Y-2.66030
G01 X8.59507 Y-2.65704
G01 X8.59786 Y-2.65413
G01 X8.60069 Y-2.65186
G01 X8.60413 Y-2.64977
G01 X8.60745 Y-2.64830
G01 X8.61092 Y-2.64725
G01 X8.61450 Y-2.64663
G01 X8.61772 Y-2.64646
G01 X9.13997 Y-2.64646
G00 Z-0.02362
G01 X9.39587 Y-2.64646
G01 Z-0.05118 F50.00000
G01 F100.00000
G01 X9.91812 Y-2.64646
G01 X9.92214 Y-2.64679
G01 X9.92607 Y-2.64766
G01 X9.92985 Y-2.64906
G01 X9.93340 Y-2.65097
G01 X9.93666 Y-2.65334
G01 X9.93957 Y-2.65613
G01 X9.94184 Y-2.65896
G01 X9.94393 Y-2.66240
G01 X9.94540 Y-2.66572
G01 X9.94645 Y-2.66919
G01 X9.94707 Y-2.67276
G01 X9.94724 Y-2.67598
G01 X9.94724 Y-2.89823
G00 Z-0.02362
G01 X9.94724 Y-3.15414
G01 Z-0.05118 F50.00000
G01 F100.00000
G01 X9.94724 Y-3.37639
G01 X9.94691 Y-3.38040
G01 X9.94604 Y-3.38434
G01 X9.94464 Y-3.38812
G01 X9.94273 Y-3.39167
G01 X9.94036 Y-3.39493
G01 X9.93757 Y-3.39784
G01 X9.93474 Y-3.40011
G01 X9.93130 Y-3.40220
G01 X9.92798 Y-3.40367
G01 X9.92451 Y-3.40472
G01 X9.92094 Y-3.40534
G01 X9.91772 Y-3.40551
G01 X9.39547 Y-3.40551
G00 Z-0.02362
G01 X9.13956 Y-3.40551
G01 Z-0.05118 F50.00000
G01 F100.00000
G01 X8.61731 Y-3.40551
G01 X8.61450 Y-3.40534
G01 X8.61131 Y-3.40481
G01 X8.60859 Y-3.40407
G01 X8.60595 Y-3.40307
G01 X8.60342 Y-3.40182
G01 X8.60102 Y-3.40034
G01 X8.59877 Y-3.39863
G01 X8.59669 Y-3.39672
G01 X8.59481 Y-3.39462
G01 X8.59314 Y-3.39235
G01 X8.59169 Y-3.38993
G01 X8.59047 Y-3.38738
G01 X8.58939 Y-3.38434
G01 X8.58873 Y-3.38160
G01 X8.58832 Y-3.37880
G01 X8.58819 Y-3.37598
( Piece #4, position [1;1] )

G04 P0 ( dwell for no time -- G64 should not smooth over this point )
G00 Z0.08000 ( retract )

G00 X4.56417 Y-1.67612 ( rapid move to begin. )
G01 Z-0.00731 F50.00000 ( plunge. )
G04 P0 ( dwell for no time -- G64 should not smooth over this point )
G01 F100.00000
G01 X4.56429 Y-1.67331
G01 X4.56468 Y-1.67052
G01 X4.56533 Y-1.66778
G01 X4.56624 Y-1.66512
G01 X4.56740 Y-1.66255
G01 X4.56880 Y-1.66011
G01 X4.57042 Y-1.65781
G01 X4.57254 Y-1.65539
G01 X4.62791 Y-1.60002
G01 X4.73249 Y-1.49544
G01 X4.91345 Y-1.31449
G01 X5.01680 Y-1.21114
G01 X5.07340 Y-1.15454
G01 X5.07587 Y-1.15245
G01 X5.07820 Y-1.15085
G01 X5.08068 Y-1.14948
G01 X5.08328 Y-1.14836
G01 X5.08597 Y-1.14749
G01 X5.08873 Y-1.14688
G01 X5.09154 Y-1.14654
G01 X5.09437 Y-1.14646
G01 X5.09720 Y-1.14666
G01 X5.09999 Y-1.14713
G01 X5.10311 Y-1.14799
G01 X5.10574 Y-1.14902
G01 X5.10827 Y-1.15030
G01 X5.11066 Y-1.15181
G01 X5.11290 Y-1.15355
G01 X5.11524 Y-1.15578
G01 X5.11707 Y-1.15794
G01 X5.11869 Y-1.16026
G01 X5.11990 Y-1.16236
G01 X5.12108 Y-1.16493
G01 X5.12201 Y-1.16761
G01 X5.12269 Y-1.17036
G01 X5.12305 Y-1.17275
G01 X5.12322 Y-1.17558
G01 X5.12323 Y-1.28311
G01 X5.12323 Y-1.57927
G01 X5.12323 Y-1.67598
G01 X5.12305 Y-1.67920
G01 X5.12261 Y-1.68199
G01 X5.12190 Y-1.68472
G01 X5.12078 Y-1.68775
G01 X5.11954 Y-1.69028
G01 X5.11782 Y-1.69301
G01 X5.11582 Y-1.69554
G01 X5.11385 Y-1.69756
G01 X5.11170 Y-1.69939
G01 X5.10939 Y-1.70100
G01 X5.10693 Y-1.70238
G01 X5.10472 Y-1.70338
G01 X5.10205 Y-1.70431
G01 X5.09931 Y-1.70497
G01 X5.09692 Y-1.70534
G01 X5.09410 Y-1.70551
G01 X4.98087 Y-1.70550
G01 X4.70216 Y-1.70549
G01 X4.59249 Y-1.70549
G01 X4.58969 Y-1.70524
G01 X4.58692 Y-1.70472
G01 X4.58422 Y-1.70395
G01 X4.58160 Y-1.70292
G01 X4.57909 Y-1.70164
G01 X4.57671 Y-1.70014
G01 X4.57449 Y-1.69841
G01 X4.57245 Y-1.69648
G01 X4.57059 Y-1.69436
G01 X4.56895 Y-1.69208
G01 X4.56753 Y-1.68965
G01 X4.56634 Y-1.68710
G01 X4.56541 Y-1.68444
G01 X4.56473 Y-1.68171
G01 X4.56432 Y-1.67893
G01 X4.56417 Y-1.67612
G01 Z-0.01462 F50.00000 ( plunge. )
G04 P0 ( dwell for no time -- G64 should not smooth over this point )
G01 F100.00000
G01 X4.56429 Y-1.67331
G01 X4.56468 Y-1.67052
G01 X4.56533 Y-1.66778
G01 X4.56624 Y-1.66512
G01 X4.56740 Y-1.66255
G01 X4.56880 Y-1.66011
G01 X4.57042 Y-1.65781
G01 X4.57254 Y-1.65539
G01 X4.62791 Y-1.60002
G01 X4.73249 Y-1.49544
G01 X4.91345 Y-1.31449
G01 X5.01680 Y-1.21114
G01 X5.07340 Y-1.15454
G01 X5.07587 Y-1.15245
G01 X5.07820 Y-1.15085
G01 X5.08068 Y-1.14948
G01 X5.08328 Y-1.14836
G01 X5.08597 Y-1.14749
G01 X5.08873 Y-1.14688
G01 X5.09154 Y-1.14654
G01 X5.09437 Y-1.14646
G01 X5.09720 Y-1.14666
G01 X5.09999 Y-1.14713
G01 X5.10311 Y-1.14799
G01 X5.10574 Y-1.14902
G01 X5.10827 Y-1.15030
G01 X5.11066 Y-1.15181
G01 X5.11290 Y-1.15355
G01 X5.11524 Y-1.15578
G01 X5.11707 Y-1.15794
G01 X5.11869 Y-1.16026
G01 X5.11990 Y-1.16236
G01 X5.12108 Y-1.16493
G01 X5.12201 Y-1.16761
G01 X5.12269 Y-1.17036
G01 X5.12305 Y-1.17275
G01 X5.12322 Y-1.17558
G01 X5.12323 Y-1.28311
G01 X5.12323 Y-1.57927
G01 X5.12323 Y-1.67598
G01 X5.12305 Y-1.67920
G01 X5.12261 Y-1.68199
G01 X5.12190 Y-1.68472
G01 X5.12078 Y-1.68775
G01 X5.11954 Y-1.69028
G01 X5.11782 Y-1.69301
G01 X5.11582 Y-1.69554
G01 X5.11385 Y-1.69756
G01 X5.11170 Y-1.69939
G01 X5.10939 Y-1.70100
G01 X5.10693 Y-1.70238
G01 X5.10472 Y-1.70338
G01 X5.10205 Y-1.70431
G01 X5.09931 Y-1.70497
G01 X5.09692 Y-1.70534
G01 X5.09410 Y-1.70551
G01 X4.98087 Y-1.70550
G01 X4.70216 Y-1.70549
G01 X4.59249 Y-1.70549
G01 X4.58969 Y-1.70524
G01 X4.58692 Y-1.70472
G01 X4.58422 Y-1.70395
G01 X4.58160 Y-1.70292
G01 X4.57909 Y-1.70164
G01 X4.57671 Y-1.70014
G01 X4.57449 Y-1.69841
G01 X4.57245 Y-1.69648
G01 X4.57059 Y-1.69436
G01 X4.56895 Y-1.69208
G01 X4.56753 Y-1.68965
G01 X4.56634 Y-1.68710
G01 X4.56541 Y-1.68444
G01 X4.56473 Y-1.68171
G01 X4.56432 Y-1.67893
G01 X4.56417 Y-1.67612
G01 Z-0.02193 F50.00000 ( plunge. )
G04 P0 ( dwell for no time -- G64 should not smooth over this point )
G01 F100.00000
G01 X4.56429 Y-1.67331
G01 X4.56468 Y-1.67052
G01 X4.56533 Y-1.66778
G01 X4.56624 Y-1.66512
G01 X4.56740 Y-1.66255
G01 X4.56880 Y-1.66011
G01 X4.57042 Y-1.65781
G01 X4.57254 Y-1.65539
G01 X4.62791 Y-1.60002
G01 X4.73249 Y-1.49544
G01 X4.91345 Y-1.31449
G01 X5.01680 Y-1.21114
G01 X5.07340 Y-1.15454
G01 X5.07587 Y-1.15245
G01 X5.07820 Y-1.15085
G01 X5.08068 Y-1.14948
G01 X5.08328 Y-1.14836
G01 X5.08597 Y-1.14749
G01 X5.08873 Y-1.14688
G01 X5.09154 Y-1.14654
G01 X5.09437 Y-1.14646
G01 X5.09720 Y-1.14666
G01 X5.09999 Y-1.14713
G01 X5.10311 Y-1.14799
G01 X5.10574 Y-1.14902
G01 X5.10827 Y-1.15030
G01 X5.11066 Y-1.15181
G01 X5.11290 Y-1.15355
G01 X5.11524 Y-1.15578
G01 X5.11707 Y-1.15794
G01 X5.11869 Y-1.16026
G01 X5.11990 Y-1.16236
G01 X5.12108 Y-1.16493
G01 X5.12201 Y-1.16761
G01 X5.12269 Y-1.17036
G01 X5.12305 Y-1.17275
G01 X5.12322 Y-1.17558
G01 X5.12323 Y-1.28311
G01 X5.12323 Y-1.57927
G01 X5.12323 Y-1.67598
G01 X5.12305 Y-1.67920
G01 X5.12261 Y-1.68199
G01 X5.12190 Y-1.68472
G01 X5.12078 Y-1.68775
G01 X5.11954 Y-1.69028
G01 X5.11782 Y-1.69301
G01 X5.11582 Y-1.69554
G01 X5.11385 Y-1.69756
G01 X5.11170 Y-1.69939
G01 X5.10939 Y-1.70100
G01 X5.10693 Y-1.70238
G01 X5.10472 Y-1.70338
G01 X5.10205 Y-1.70431
G01 X5.09931 Y-1.70497
G01 X5.09692 Y-1.70534
G01 X5.09410 Y-1.70551
G01 X4.98087 Y-1.70550
G01 X4.70216 Y-1.70549
G01 X4.59249 Y-1.70549
G01 X4.58969 Y-1.70524
G01 X4.58692 Y-1.70472
G01 X4.58422 Y-1.70395
G01 X4.58160 Y-1.70292
G01 X4.57909 Y-1.70164
G01 X4.57671 Y-1.70014
G01 X4.57449 Y-1.69841
G01 X4.57245 Y-1.69648
G01 X4.57059 Y-1.69436
G01 X4.56895 Y-1.69208
G01 X4.56753 Y-1.68965
G01 X4.56634 Y-1.68710
G01 X4.56541 Y-1.68444
G01 X4.56473 Y-1.68171
G01 X4.56432 Y-1.67893
G01 X4.56417 Y-1.67612
G01 Z-0.02925 F50.00000 ( plunge. )
G04 P0 ( dwell for no time -- G64 should not smooth over this point )
G01 F100.00000
G00 Z-0.02362
G01 X4.56429 Y-1.67331
G01 X4.56468 Y-1.67052
G01 X4.56533 Y-1.66778
G01 X4.56624 Y-1.66512
G01 X4.56740 Y-1.66255
G01 X4.56880 Y-1.66011
G01 X4.57042 Y-1.65781
G01 X4.57254 Y-1.65539
G01 X4.62791 Y-1.60002
G01 Z-0.02925 F50.00000
G01 F100.00000
G01 X4.73249 Y-1.49544
G00 Z-0.02362
G01 X4.91345 Y-1.31449
G01 Z-0.02925 F50.00000
G01 F100.00000
G01 X5.01680 Y-1.21114
G00 Z-0.02362
G01 X5.07340 Y-1.15454
G01 X5.07587 Y-1.15245
G01 X5.07820 Y-1.15085
G01 X5.08068 Y-1.14948
G01 X5.08328 Y-1.14836
G01 X5.08597 Y-1.14749
G01 X5.08873 Y-1.14688
G01 X5.09154 Y-1.14654
G01 X5.09437 Y-1.14646
G01 X5.09720 Y-1.14666
G01 X5.09999 Y-1.14713
G01 X5.10311 Y-1.14799
G01 X5.10574 Y-1.14902
G01 X5.10827 Y-1.15030
G01 X5.11066 Y-1.15181
G01 X5.11290 Y-1.15355
G01 X5.11524 Y-1.15578
G01 X5.11707 Y-1.15794
G01 X5.11869 Y-1.16026
G01 X5.11990 Y-1.16236
G01 X5.12108 Y-1.16493
G01 X5.12201 Y-1.16761
G01 X5.12269 Y-1.17036
G01 X5.12305 Y-1.17275
G01 X5.12322 Y-1.17558
G01 X5.12323 Y-1.28311
G01 Z-0.02925 F50.00000
G01 F100.00000
G01 X5.12323 Y-1.57927
G00 Z-0.02362
G01 X5.12323 Y-1.67598
G01 X5.12305 Y-1.67920
G01 X5.12261 Y-1.68199
G01 X5.12190 Y-1.68472
G01 X5.12078 Y-1.68775
G01 X5.11954 Y-1.69028
G01 X5.11782 Y-1.69301
G01 X5.11582 Y-1.69554
G01 X5.11385 Y-1.69756
G01 X5.11170 Y-1.69939
G01 X5.10939 Y-1.70100
G01 X5.10693 Y-1.70238
G01 X5.10472 Y-1.70338
G01 X5.10205 Y-1.70431
G01 X5.09931 Y-1.70497
G01 X5.09692 Y-1.70534
G01 X5.09410 Y-1.70551
G01 X4.98087 Y-1.70550
G01 Z-0.02925 F50.00000
G01 F100.00000
G01 X4.70216 Y-1.70549
G00 Z-0.02362
G01 X4.59249 Y-1.70549
G01 X4.58969 Y-1.70524
G01 X4.58692 Y-1.70472
G01 X4.58422 Y-1.70395
G01 X4.58160 Y-1.70292
G01 X4.57909 Y-1.70164
G01 X4.57671 Y-1.70014
G01 X4.57449 Y-1.69841
G01 X4.57245 Y-1.69648
G01 X4.57059 Y-1.69436
G01 X4.56895 Y-1.69208
G01 X4.56753 Y-1.68965
G01 X4.56634 Y-1.68710
G01 X4.56541 Y-1.68444
G01 X4.56473 Y-1.68171
G01 X4.56432 Y-1.67893
G01 X4.56417 Y-1.67612
G01 Z-0.03656 F50.00000 ( plunge. )
G04 P0 ( dwell for no time -- G64 should not smooth over this point )
G01 F100.00000
G00 Z-0.02362
G01 X4.56429 Y-1.67331
G01 X4.56468 Y-1.67052
G01 X4.56533 Y-1.66778
G01 X4.56624 Y-1.66512
G01 X4.56740 Y-1.66255
G01 X4.56880 Y-1.66011
G01 X4.57042 Y-1.65781
G01 X4.57254 Y-1.65539
G01 X4.62791 Y-1.60002
G01 Z-0.03656 F50.00000
G01 F100.00000
G01 X4.73249 Y-1.49544
G00 Z-0.02362
G01 X4.91345 Y-1.31449
G01 Z-0.03656 F50.00000
G01 F100.00000
G01 X5.01680 Y-1.21114
G00 Z-0.02362
G01 X5.07340 Y-1.15454
G01 X5.07587 Y-1.15245
G01 X5.07820 Y-1.15085
G01 X5.08068 Y-1.14948
G01 X5.08328 Y-1.14836
G01 X5.08597 Y-1.14749
G01 X5.08873 Y-1.14688
G01 X5.09154 Y-1.14654
G01 X5.09437 Y-1.14646
G01 X5.09720 Y-1.14666
G01 X5.09999 Y-1.14713
G01 X5.10311 Y-1.14799
G01 X5.10574 Y-1.14902
G01 X5.10827 Y-1.15030
G01 X5.11066 Y-1.15181
G01 X5.11290 Y-1.15355
G01 X5.11524 Y-1.15578
G01 X5.11707 Y-1.15794
G01 X5.11869 Y-1.16026
G01 X5.11990 Y-1.16236
G01 X5.12108 Y-1.16493
G01 X5.12201 Y-1.16761
G01 X5.12269 Y-1.17036
G01 X5.12305 Y-1.17275
G01 X5.12322 Y-1.17558
G01 X5.12323 Y-1.28311
G01 Z-0.03656 F50.00000
G01 F100.00000
G01 X5.12323 Y-1.57927
G00 Z-0.02362
G01 X5.12323 Y-1.67598
G01 X5.12305 Y-1.67920
G01 X5.12261 Y-1.68199
G01 X5.12190 Y-1.68472
G01 X5.12078 Y-1.68775
G01 X5.11954 Y-1.69028
G01 X5.11782 Y-1.69301
G01 X5.11582 Y-1.69554
G01 X5.11385 Y-1.69756
G01 X5.11170 Y-1.69939
G01 X5.10939 Y-1.70100
G01 X5.10693 Y-1.70238
G01 X5.10472 Y-1.70338
G01 X5.10205 Y-1.70431
G01 X5.09931 Y-1.70497
G01 X5.09692 Y-1.70534
G01 X5.09410 Y-1.70551
G01 X4.98087 Y-1.70550
G01 Z-0.03656 F50.00000
G01 F100.00000
G01 X4.70216 Y-1.70549
G00 Z-0.02362
G01 X4.59249 Y-1.70549
G01 X4.58969 Y-1.70524
G01 X4.58692 Y-1.70472
G01 X4.58422 Y-1.70395
G01 X4.58160 Y-1.70292
G01 X4.57909 Y-1.70164
G01 X4.57671 Y-1.70014
G01 X4.57449 Y-1.69841
G01 X4.57245 Y-1.69648
G01 X4.57059 Y-1.69436
G01 X4.56895 Y-1.69208
G01 X4.56753 Y-1.68965
G01 X4.56634 Y-1.68710
G01 X4.56541 Y-1.68444
G01 X4.56473 Y-1.68171
G01 X4.56432 Y-1.67893
G01 X4.56417 Y-1.67612
G01 Z-0.04387 F50.00000 ( plunge. )
G04 P0 ( dwell for no time -- G64 should not smooth over this point )
G01 F100.00000
G00 Z-0.02362
G01 X4.56429 Y-1.67331
G01 X4.56468 Y-1.67052
G01 X4.56533 Y-1.66778
G01 X4.56624 Y-1.66512
G01 X4.56740 Y-1.66255
G01 X4.56880 Y-1.66011
G01 X4.57042 Y-1.65781
G01 X4.57254 Y-1.65539
G01 X4.62791 Y-1.60002
G01 Z-0.04387 F50.00000
G01 F100.00000
G01 X4.73249 Y-1.49544
G00 Z-0.02362
G01 X4.91345 Y-1.31449
G01 Z-0.04387 F50.00000
G01 F100.00000
G01 X5.01680 Y-1.21114
G00 Z-0.02362
G01 X5.07340 Y-1.15454
G01 X5.07587 Y-1.15245
G01 X5.07820 Y-1.15085
G01 X5.08068 Y-1.14948
G01 X5.08328 Y-1.14836
G01 X5.08597 Y-1.14749
G01 X5.08873 Y-1.14688
G01 X5.09154 Y-1.14654
G01 X5.09437 Y-1.14646
G01 X5.09720 Y-1.14666
G01 X5.09999 Y-1.14713
G01 X5.10311 Y-1.14799
G01 X5.10574 Y-1.14902
G01 X5.10827 Y-1.15030
G01 X5.11066 Y-1.15181
G01 X5.11290 Y-1.15355
G01 X5.11524 Y-1.15578
G01 X5.11707 Y-1.15794
G01 X5.11869 Y-1.16026
G01 X5.11990 Y-1.16236
G01 X5.12108 Y-1.16493
G01 X5.12201 Y-1.16761
G01 X5.12269 Y-1.17036
G01 X5.12305 Y-1.17275
G01 X5.12322 Y-1.17558
G01 X5.12323 Y-1.28311
G01 Z-0.04387 F50.00000
G01 F100.00000
G01 X5.12323 Y-1.57927
G00 Z-0.02362
G01 X5.12323 Y-1.67598
G01 X5.12305 Y-1.67920
G01 X5.12261 Y-1.68199
G01 X5.12190 Y-1.68472
G01 X5.12078 Y-1.68775
G01 X5.11954 Y-1.69028
G01 X5.11782 Y-1.69301
G01 X5.11582 Y-1.69554
G01 X5.11385 Y-1.69756
G01 X5.11170 Y-1.69939
G01 X5.10939 Y-1.70100
G01 X5.10693 Y-1.70238
G01 X5.10472 Y-1.70338
G01 X5.10205 Y-1.70431
G01 X5.09931 Y-1.70497
G01 X5.09692 Y-1.70534
G01 X5.09410 Y-1.70551
G01 X4.98087 Y-1.70550
G01 Z-0.04387 F50.00000
G01 F100.00000
G01 X4.70216 Y-1.70549
G00 Z-0.02362
G01 X4.59249 Y-1.70549
G01 X4.58969 Y-1.70524
G01 X4.58692 Y-1.70472
G01 X4.58422 Y-1.70395
G01 X4.58160 Y-1.70292
G01 X4.57909 Y-1.70164
G01 X4.57671 Y-1.70014
G01 X4.57449 Y-1.69841
G01 X4.57245 Y-1.69648
G01 X4.57059 Y-1.69436
G01 X4.56895 Y-1.69208
G01 X4.56753 Y-1.68965
G01 X4.56634 Y-1.68710
G01 X4.56541 Y-1.68444
G01 X4.56473 Y-1.68171
G01 X4.56432 Y-1.67893
G01 X4.56417 Y-1.67612
G01 Z-0.05118 F50.00000 ( plunge. )
G04 P0 ( dwell for no time -- G64 should not smooth over this point )
G01 F100.00000
G00 Z-0.02362
G01 X4.56429 Y-1.67331
G01 X4.56468 Y-1.67052
G01 X4.56533 Y-1.66778
G01 X4.56624 Y-1.66512
G01 X4.56740 Y-1.66255
G01 X4.56880 Y-1.66011
G01 X4.57042 Y-1.65781
G01 X4.57254 Y-1.65539
G01 X4.62791 Y-1.60002
G01 Z-0.05118 F50.00000
G01 F100.00000
G01 X4.73249 Y-1.49544
G00 Z-0.02362
G01 X4.91345 Y-1.31449
G01 Z-0.05118 F50.00000
G01 F100.00000
G01 X5.01680 Y-1.21114
G00 Z-0.02362
G01 X5.07340 Y-1.15454
G01 X5.07587 Y-1.15245
G01 X5.07820 Y-1.15085
G01 X5.08068 Y-1.14948
G01 X5.08328 Y-1.14836
G01 X5.08597 Y-1.14749
G01 X5.08873 Y-1.14688
G01 X5.09154 Y-1.14654
G01 X5.09437 Y-1.14646
G01 X5.09720 Y-1.14666
G01 X5.09999 Y-1.14713
G01 X5.10311 Y-1.14799
G01 X5.10574 Y-1.14902
G01 X5.10827 Y-1.15030
G01 X5.11066 Y-1.15181
G01 X5.11290 Y-1.15355
G01 X5.11524 Y-1.15578
G01 X5.11707 Y-1.15794
G01 X5.11869 Y-1.16026
G01 X5.11990 Y-1.16236
G01 X5.12108 Y-1.16493
G01 X5.12201 Y-1.16761
G01 X5.12269 Y-1.17036
G01 X5.12305 Y-1.17275
G01 X5.12322 Y-1.17558
G01 X5.12323 Y-1.28311
G01 Z-0.05118 F50.00000
G01 F100.00000
G01 X5.12323 Y-1.57927
G00 Z-0.02362
G01 X5.12323 Y-1.67598
G01 X5.12305 Y-1.67920
G01 X5.12261 Y-1.68199
G01 X5.12190 Y-1.68472
G01 X5.12078 Y-1.68775
G01 X5.11954 Y-1.69028
G01 X5.11782 Y-1.69301
G01 X5.11582 Y-1.69554
G01 X5.11385 Y-1.69756
G01 X5.11170 Y-1.69939
G01 X5.10939 Y-1.70100
G01 X5.10693 Y-1.70238
G01 X5.10472 Y-1.70338
G01 X5.10205 Y-1.70431
G01 X5.09931 Y-1.70497
G01 X5.09692 Y-1.70534
G01 X5.09410 Y-1.70551
G01 X4.98087 Y-1.70550
G01 Z-0.05118 F50.00000
G01 F100.00000
G01 X4.70216 Y-1.70549
G00 Z-0.02362
G01 X4.59249 Y-1.70549
G01 X4.58969 Y-1.70524
G01 X4.58692 Y-1.70472
G01 X4.58422 Y-1.70395
G01 X4.58160 Y-1.70292
G01 X4.57909 Y-1.70164
G01 X4.57671 Y-1.70014
G01 X4.57449 Y-1.69841
G01 X4.57245 Y-1.69648
G01 X4.57059 Y-1.69436
G01 X4.56895 Y-1.69208
G01 X4.56753 Y-1.68965
G01 X4.56634 Y-1.68710
G01 X4.56541 Y-1.68444
G01 X4.56473 Y-1.68171
G01 X4.56432 Y-1.67893
G01 X4.56417 Y-1.67612
G04 P0 ( dwell for no time -- G64 should not smooth over this point )
G00 Z0.08000 ( retract )

G00 X5.86417 Y-3.37598 ( rapid move to begin. )
G01 Z-0.00731 F50.00000 ( plunge. )
G04 P0 ( dwell for no time -- G64 should not smooth over this point )
G01 F100.00000
G01 X5.86418 Y-3.15353
G01 X5.86418 Y-2.89763
G01 X5.86418 Y-2.67518
G01 X5.86457 Y-2.67117
G01 X5.86538 Y-2.66763
G01 X5.86678 Y-2.66385
G01 X5.86868 Y-2.66030
G01 X5.87105 Y-2.65704
G01 X5.87384 Y-2.65413
G01 X5.87667 Y-2.65186
G01 X5.88012 Y-2.64977
G01 X5.88343 Y-2.64830
G01 X5.88691 Y-2.64725
G01 X5.89048 Y-2.64663
G01 X5.89370 Y-2.64646
G01 X6.41595 Y-2.64646
G01 X6.67186 Y-2.64646
G01 X7.19410 Y-2.64646
G01 X7.19812 Y-2.64679
G01 X7.20205 Y-2.64766
G01 X7.20583 Y-2.64906
G01 X7.20939 Y-2.65097
G01 X7.21265 Y-2.65334
G01 X7.21555 Y-2.65613
G01 X7.21782 Y-2.65896
G01 X7.21992 Y-2.66240
G01 X7.22139 Y-2.66572
G01 X7.22244 Y-2.66919
G01 X7.22305 Y-2.67276
G01 X7.22323 Y-2.67598
G01 X7.22323 Y-2.89823
G01 X7.22323 Y-3.15414
G01 X7.22322 Y-3.37639
G01 X7.22289 Y-3.38040
G01 X7.22202 Y-3.38434
G01 X7.22062 Y-3.38812
G01 X7.21872 Y-3.39167
G01 X7.21635 Y-3.39493
G01 X7.21356 Y-3.39784
G01 X7.21073 Y-3.40011
G01 X7.20728 Y-3.40220
G01 X7.20397 Y-3.40367
G01 X7.20049 Y-3.40472
G01 X7.19692 Y-3.40534
G01 X7.19370 Y-3.40551
G01 X6.67145 Y-3.40551
G01 X6.41555 Y-3.40551
G01 X5.89330 Y-3.40551
G01 X5.89048 Y-3.40534
G01 X5.88730 Y-3.40481
G01 X5.88458 Y-3.40407
G01 X5.88194 Y-3.40307
G01 X5.87940 Y-3.40182
G01 X5.87700 Y-3.40034
G01 X5.87475 Y-3.39863
G01 X5.87268 Y-3.39672
G01 X5.87080 Y-3.39462
G01 X5.86912 Y-3.39235
G01 X5.86767 Y-3.38993
G01 X5.86646 Y-3.38738
G01 X5.86538 Y-3.38434
G01 X5.86471 Y-3.38160
G01 X5.86431 Y-3.37880
G01 X5.86417 Y-3.37598
G01 Z-0.01462 F50.00000 ( plunge. )
G04 P0 ( dwell for no time -- G64 should not smooth over this point )
G01 F100.00000
G01 X5.86418 Y-3.15353
G01 X5.86418 Y-2.89763
G01 X5.86418 Y-2.67518
G01 X5.86457 Y-2.67117
G01 X5.86538 Y-2.66763
G01 X5.86678 Y-2.66385
G01 X5.86868 Y-2.66030
G01 X5.87105 Y-2.65704
G01 X5.87384 Y-2.65413
G01 X5.87667 Y-2.65186
G01 X5.88012 Y-2.64977
G01 X5.88343 Y-2.64830
G01 X5.88691 Y-2.64725
G01 X5.89048 Y-2.64663
G01 X5.89370 Y-2.64646
G01 X6.41595 Y-2.64646
G01 X6.67186 Y-2.64646
G01 X7.19410 Y-2.64646
G01 X7.19812 Y-2.64679
G01 X7.20205 Y-2.64766
G01 X7.20583 Y-2.64906
G01 X7.20939 Y-2.65097
G01 X7.21265 Y-2.65334
G01 X7.21555 Y-2.65613
G01 X7.21782 Y-2.65896
G01 X7.21992 Y-2.66240
G01 X7.22139 Y-2.66572
G01 X7.22244 Y-2.66919
G01 X7.22305 Y-2.67276
G01 X7.22323 Y-2.67598
G01 X7.22323 Y-2.89823
G01 X7.22323 Y-3.15414
G01 X7.22322 Y-3.37639
G01 X7.22289 Y-3.38040
G01 X7.22202 Y-3.38434
G01 X7.22062 Y-3.38812
G01 X7.21872 Y-3.39167
G01 X7.21635 Y-3.39493
G01 X7.21356 Y-3.39784
G01 X7.21073 Y-3.40011
G01 X7.20728 Y-3.40220
G01 X7.20397 Y-3.40367
G01 X7.20049 Y-3.40472
G01 X7.19692 Y-3.40534
G01 X7.19370 Y-3.40551
G01 X6.67145 Y-3.40551
G01 X6.41555 Y-3.40551
G01 X5.89330 Y-3.40551
G01 X5.89048 Y-3.40534
G01 X5.88730 Y-3.40481
G01 X5.88458 Y-3.40407
G01 X5.88194 Y-3.40307
G01 X5.87940 Y-3.40182
G01 X5.87700 Y-3.40034
G01 X5.87475 Y-3.39863
G01 X5.87268 Y-3.39672
G01 X5.87080 Y-3.39462
G01 X5.86912 Y-3.39235
G01 X5.86767 Y-3.38993
G01 X5.86646 Y-3.38738
G01 X5.86538 Y-3.38434
G01 X5.86471 Y-3.38160
G01 X5.86431 Y-3.37880
G01 X5.86417 Y-3.37598
G01 Z-0.02193 F50.00000 ( plunge. )
G04 P0 ( dwell for no time -- G64 should not smooth over this point )
G01 F100.00000
G01 X5.86418 Y-3.15353
G01 X5.86418 Y-2.89763
G01 X5.86418 Y-2.67518
G01 X5.86457 Y-2.67117
G01 X5.86538 Y-2.66763
G01 X5.86678 Y-2.66385
G01 X5.86868 Y-2.66030
G01 X5.87105 Y-2.65704
G01 X5.87384 Y-2.65413
G01 X5.87667 Y-2.65186
G01 X5.88012 Y-2.64977
G01 X5.88343 Y-2.64830
G01 X5.88691 Y-2.64725
G01 X5.89048 Y-2.64663
G01 X5.89370 Y-2.64646
G01 X6.41595 Y-2.64646
G01 X6.67186 Y-2.64646
G01 X7.19410 Y-2.64646
G01 X7.19812 Y-2.64679
G01 X7.20205 Y-2.64766
G01 X7.20583 Y-2.64906
G01 X7.20939 Y-2.65097
G01 X7.21265 Y-2.65334
G01 X7.21555 Y-2.65613
G01 X7.21782 Y-2.65896
G01 X7.21992 Y-2.66240
G01 X7.22139 Y-2.66572
G01 X7.22244 Y-2.66919
G01 X7.22305 Y-2.67276
G01 X7.22323 Y-2.67598
G01 X7.22323 Y-2.89823
G01 X7.22323 Y-3.15414
G01 X7.22322 Y-3.37639
G01 X7.22289 Y-3.38040
G01 X7.22202 Y-3.38434
G01 X7.22062 Y-3.38812
G01 X7.21872 Y-3.39167
G01 X7.21635 Y-3.39493
G01 X7.21356 Y-3.39784
G01 X7.21073 Y-3.40011
G01 X7.20728 Y-3.40220
G01 X7.20397 Y-3.40367
G01 X7.20049 Y-3.40472
G01 X7.19692 Y-3.40534
G01 X7.19370 Y-3.40551
G01 X6.67145 Y-3.40551
G01 X6.41555 Y-3.40551
G01 X5.89330 Y-3.40551
G01 X5.89048 Y-3.40534
G01 X5.88730 Y-3.40481
G01 X5.88458 Y-3.40407
G01 X5.88194 Y-3.40307
G01 X5.87940 Y-3.40182
G01 X5.87700 Y-3.40034
G01 X5.87475 Y-3.39863
G01 X5.87268 Y-3.39672
G01 X5.87080 Y-3.39462
G01 X5.86912 Y-3.39235
G01 X5.86767 Y-3.38993
G01 X5.86646 Y-3.38738
G01 X5.86538 Y-3.38434
G01 X5.86471 Y-3.38160
G01 X5.86431 Y-3.37880
G01 X5.86417 Y-3.37598
G01 Z-0.02925 F50.00000 ( plunge. )
G04 P0 ( dwell for no time -- G64 should not smooth over this point )
G01 F100.00000
G01 X5.86418 Y-3.15353
G00 Z-0.02362
G01 X5.86418 Y-2.89763
G01 Z-0.02925 F50.00000
G01 F100.00000
G01 X5.86418 Y-2.67518
G01 X5.86457 Y-2.67117
G01 X5.86538 Y-2.66763
G01 X5.86678 Y-2.66385
G01 X5.86868 Y-2.66030
G01 X5.87105 Y-2.65704
G01 X5.87384 Y-2.65413
G01 X5.87667 Y-2.65186
G01 X5.88012 Y-2.64977
G01 X5.88343 Y-2.64830
G01 X5.88691 Y-2.64725
G01 X5.89048 Y-2.64663
G01 X5.89370 Y-2.64646
G01 X6.41595 Y-2.64646
G00 Z-0.02362
G01 X6.67186 Y-2.64646
G01 Z-0.02925 F50.00000
G01 F100.00000
G01 X7.19410 Y-2.64646
G01 X7.19812 Y-2.64679
G01 X7.20205 Y-2.64766
G01 X7.20583 Y-2.64906
G01 X7.20939 Y-2.65097
G01 X7.21265 Y-2.65334
G01 X7.21555 Y-2.65613
G01 X7.21782 Y-2.65896
G01 X7.21992 Y-2.66240
G01 X7.22139 Y-2.66572
G01 X7.22244 Y-2.66919
G01 X7.22305 Y-2.67276
G01 X7.22323 Y-2.67598
G01 X7.22323 Y-2.89823
G00 Z-0.02362
G01 X7.22323 Y-3.15414
G01 Z-0.02925 F50.00000
G01 F100.00000
G01 X7.22322 Y-3.37639
G01 X7.22289 Y-3.38040
G01 X7.22202 Y-3.38434
G01 X7.22062 Y-3.38812
G01 X7.21872 Y-3.39167
G01 X7.21635 Y-3.39493
G01 X7.21356 Y-3.39784
G01 X7.21073 Y-3.40011
G01 X7.20728 Y-3.40220
G01 X7.20397 Y-3.40367
G01 X7.20049 Y-3.40472
G01 X7.19692 Y-3.40534
G01 X7.19370 Y-3.40551
G01 X6.67145 Y-3.40551
G00 Z-0.02362
G01 X6.41555 Y-3.40551
G01 Z-0.02925 F50.00000
G01 F100.00000
G01 X5.89330 Y-3.40551
G01 X5.89048 Y-3.40534
G01 X5.88730 Y-3.40481
G01 X5.88458 Y-3.40407
G01 X5.88194 Y-3.40307
G01 X5.87940 Y-3.40182
G01 X5.87700 Y-3.40034
G01 X5.87475 Y-3.39863
G01 X5.87268 Y-3.39672
G01 X5.87080 Y-3.39462
G01 X5.86912 Y-3.39235
G01 X5.86767 Y-3.38993
G01 X5.86646 Y-3.38738
G01 X5.86538 Y-3.38434
G01 X5.86471 Y-3.38160
G01 X5.86431 Y-3.37880
G01 X5.86417 Y-3.37598
G01 Z-0.03656 F50.00000 ( plunge. )
G04 P0 ( dwell for no time -- G64 should not smooth over this point )
G01 F100.00000
G01 X5.86418 Y-3.15353
G00 Z-0.02362
G01 X5.86418 Y-2.89763
G01 Z-0.03656 F50.00000
G01 F100.00000
G01 X5.86418 Y-2.67518
G01 X5.86457 Y-2.67117
