( pcb2gcode 1.3.2 )
( Software-independent Gcode )

G94 ( Inches per minute feed rate. )
G20 ( Units == INCHES. )

G90 ( Absolute coordinates. )
G00 S10000 ( RPM spindle speed. )
G64 P0.00040 ( set maximum deviation from commanded toolpath )
G01 F100.00000 ( Feedrate. )


G00 Z1.00000 (Retract to tool change height)
T0
M5      (Spindle stop.)
G04 P1.00000 (Wait for spindle to stop)
(MSG, Change tool bit to cutter diameter 0.05906in)
M6      (Tool change.)
M0      (Temporary machine stop.)
M3 ( Spindle on clockwise. )
G04 P1.00000 (Wait for spindle to get up to speed)
( Piece #1, position [0;0] )

G04 P0 ( dwell for no time -- G64 should not smooth over this point )
G00 Z0.08000 ( retract )

G00 X4.56417 Y-4.00000 ( rapid move to begin. )
G01 Z-0.00731 F50.00000 ( plunge. )
G04 P0 ( dwell for no time -- G64 should not smooth over this point )
G01 F100.00000
G01 X4.56474 Y-4.00576
G01 X4.56642 Y-4.01130
G01 X4.56915 Y-4.01640
G01 X4.57282 Y-4.02088
G01 X4.57730 Y-4.02455
G01 X4.58240 Y-4.02728
G01 X4.58794 Y-4.02896
G01 X4.59370 Y-4.02953
G01 X5.09370 Y-4.02953
G01 X5.09946 Y-4.02896
G01 X5.10500 Y-4.02728
G01 X5.11010 Y-4.02455
G01 X5.11458 Y-4.02088
G01 X5.11825 Y-4.01640
G01 X5.12098 Y-4.01130
G01 X5.12266 Y-4.00576
G01 X5.12323 Y-4.00000
G01 X5.12323 Y-3.50000
G01 X5.12266 Y-3.49424
G01 X5.12098 Y-3.48870
G01 X5.11825 Y-3.48360
G01 X5.11458 Y-3.47912
G01 X5.11010 Y-3.47545
G01 X5.10500 Y-3.47272
G01 X5.09946 Y-3.47104
G01 X5.09370 Y-3.47047
G01 X5.08794 Y-3.47104
G01 X5.08240 Y-3.47272
G01 X5.07730 Y-3.47545
G01 X5.07282 Y-3.47912
G01 X4.57282 Y-3.97912
G01 X4.56915 Y-3.98360
G01 X4.56642 Y-3.98870
G01 X4.56474 Y-3.99424
G01 X4.56417 Y-4.00000
G01 Z-0.01462 F50.00000 ( plunge. )
G04 P0 ( dwell for no time -- G64 should not smooth over this point )
G01 F100.00000
G01 X4.56474 Y-4.00576
G01 X4.56642 Y-4.01130
G01 X4.56915 Y-4.01640
G01 X4.57282 Y-4.02088
G01 X4.57730 Y-4.02455
G01 X4.58240 Y-4.02728
G01 X4.58794 Y-4.02896
G01 X4.59370 Y-4.02953
G01 X5.09370 Y-4.02953
G01 X5.09946 Y-4.02896
G01 X5.10500 Y-4.02728
G01 X5.11010 Y-4.02455
G01 X5.11458 Y-4.02088
G01 X5.11825 Y-4.01640
G01 X5.12098 Y-4.01130
G01 X5.12266 Y-4.00576
G01 X5.12323 Y-4.00000
G01 X5.12323 Y-3.50000
G01 X5.12266 Y-3.49424
G01 X5.12098 Y-3.48870
G01 X5.11825 Y-3.48360
G01 X5.11458 Y-3.47912
G01 X5.11010 Y-3.47545
G01 X5.10500 Y-3.47272
G01 X5.09946 Y-3.47104
G01 X5.09370 Y-3.47047
G01 X5.08794 Y-3.47104
G01 X5.08240 Y-3.47272
G01 X5.07730 Y-3.47545
G01 X5.07282 Y-3.47912
G01 X4.57282 Y-3.97912
G01 X4.56915 Y-3.98360
G01 X4.56642 Y-3.98870
G01 X4.56474 Y-3.99424
G01 X4.56417 Y-4.00000
G01 Z-0.02193 F50.00000 ( plunge. )
G04 P0 ( dwell for no time -- G64 should not smooth over this point )
G01 F100.00000
G01 X4.56474 Y-4.00576
G01 X4.56642 Y-4.01130
G01 X4.56915 Y-4.01640
G01 X4.57282 Y-4.02088
G01 X4.57730 Y-4.02455
G01 X4.58240 Y-4.02728
G01 X4.58794 Y-4.02896
G01 X4.59370 Y-4.02953
G01 X5.09370 Y-4.02953
G01 X5.09946 Y-4.02896
G01 X5.10500 Y-4.02728
G01 X5.11010 Y-4.02455
G01 X5.11458 Y-4.02088
G01 X5.11825 Y-4.01640
G01 X5.12098 Y-4.01130
G01 X5.12266 Y-4.00576
G01 X5.12323 Y-4.00000
G01 X5.12323 Y-3.50000
G01 X5.12266 Y-3.49424
G01 X5.12098 Y-3.48870
G01 X5.11825 Y-3.48360
G01 X5.11458 Y-3.47912
G01 X5.11010 Y-3.47545
G01 X5.10500 Y-3.47272
G01 X5.09946 Y-3.47104
G01 X5.09370 Y-3.47047
G01 X5.08794 Y-3.47104
G01 X5.08240 Y-3.47272
G01 X5.07730 Y-3.47545
G01 X5.07282 Y-3.47912
G01 X4.57282 Y-3.97912
G01 X4.56915 Y-3.98360
G01 X4.56642 Y-3.98870
G01 X4.56474 Y-3.99424
G01 X4.56417 Y-4.00000
G01 Z-0.02925 F50.00000 ( plunge. )
G04 P0 ( dwell for no time -- G64 should not smooth over this point )
G01 F100.00000
G01 X4.56474 Y-4.00576
G01 X4.56642 Y-4.01130
G01 X4.56915 Y-4.01640
G01 X4.57282 Y-4.02088
G01 X4.57730 Y-4.02455
G01 X4.58240 Y-4.02728
G01 X4.58794 Y-4.02896
G01 X4.59370 Y-4.02953
G01 X4.71575 Y-4.02953
G00 Z-0.02362
G01 X4.97165 Y-4.02953
G01 Z-0.02925 F50.00000
G01 F100.00000
G01 X5.09370 Y-4.02953
G01 X5.09946 Y-4.02896
G01 X5.10500 Y-4.02728
G01 X5.11010 Y-4.02455
G01 X5.11458 Y-4.02088
G01 X5.11825 Y-4.01640
G01 X5.12098 Y-4.01130
G01 X5.12266 Y-4.00576
G01 X5.12323 Y-4.00000
G01 X5.12323 Y-3.87795
G00 Z-0.02362
G01 X5.12323 Y-3.62205
G01 Z-0.02925 F50.00000
G01 F100.00000
G01 X5.12323 Y-3.50000
G01 X5.12266 Y-3.49424
G01 X5.12098 Y-3.48870
G01 X5.11825 Y-3.48360
G01 X5.11458 Y-3.47912
G01 X5.11010 Y-3.47545
G01 X5.10500 Y-3.47272
G01 X5.09946 Y-3.47104
G01 X5.09370 Y-3.47047
G01 X5.08794 Y-3.47104
G01 X5.08240 Y-3.47272
G01 X5.07730 Y-3.47545
G01 X5.07282 Y-3.47912
G01 X4.91330 Y-3.63864
G00 Z-0.02362
G01 X4.73234 Y-3.81960
G01 Z-0.02925 F50.00000
G01 F100.00000
G01 X4.57282 Y-3.97912
G01 X4.56915 Y-3.98360
G01 X4.56642 Y-3.98870
G01 X4.56474 Y-3.99424
G01 X4.56417 Y-4.00000
G01 Z-0.03656 F50.00000 ( plunge. )
G04 P0 ( dwell for no time -- G64 should not smooth over this point )
G01 F100.00000
G01 X4.56474 Y-4.00576
G01 X4.56642 Y-4.01130
G01 X4.56915 Y-4.01640
G01 X4.57282 Y-4.02088
G01 X4.57730 Y-4.02455
G01 X4.58240 Y-4.02728
G01 X4.58794 Y-4.02896
G01 X4.59370 Y-4.02953
G01 X4.71575 Y-4.02953
G00 Z-0.02362
G01 X4.97165 Y-4.02953
G01 Z-0.03656 F50.00000
G01 F100.00000
G01 X5.09370 Y-4.02953
G01 X5.09946 Y-4.02896
G01 X5.10500 Y-4.02728
G01 X5.11010 Y-4.02455
G01 X5.11458 Y-4.02088
G01 X5.11825 Y-4.01640
G01 X5.12098 Y-4.01130
G01 X5.12266 Y-4.00576
G01 X5.12323 Y-4.00000
G01 X5.12323 Y-3.87795
G00 Z-0.02362
G01 X5.12323 Y-3.62205
G01 Z-0.03656 F50.00000
G01 F100.00000
G01 X5.12323 Y-3.50000
G01 X5.12266 Y-3.49424
G01 X5.12098 Y-3.48870
G01 X5.11825 Y-3.48360
G01 X5.11458 Y-3.47912
G01 X5.11010 Y-3.47545
G01 X5.10500 Y-3.47272
G01 X5.09946 Y-3.47104
G01 X5.09370 Y-3.47047
G01 X5.08794 Y-3.47104
G01 X5.08240 Y-3.47272
G01 X5.07730 Y-3.47545
G01 X5.07282 Y-3.47912
G01 X4.91330 Y-3.63864
G00 Z-0.02362
G01 X4.73234 Y-3.81960
G01 Z-0.03656 F50.00000
G01 F100.00000
G01 X4.57282 Y-3.97912
G01 X4.56915 Y-3.98360
G01 X4.56642 Y-3.98870
G01 X4.56474 Y-3.99424
G01 X4.56417 Y-4.00000
G01 Z-0.04387 F50.00000 ( plunge. )
G04 P0 ( dwell for no time -- G64 should not smooth over this point )
G01 F100.00000
G01 X4.56474 Y-4.00576
G01 X4.56642 Y-4.01130
G01 X4.56915 Y-4.01640
G01 X4.57282 Y-4.02088
G01 X4.57730 Y-4.02455
G01 X4.58240 Y-4.02728
G01 X4.58794 Y-4.02896
G01 X4.59370 Y-4.02953
G01 X4.71575 Y-4.02953
G00 Z-0.02362
G01 X4.97165 Y-4.02953
G01 Z-0.04387 F50.00000
G01 F100.00000
G01 X5.09370 Y-4.02953
G01 X5.09946 Y-4.02896
G01 X5.10500 Y-4.02728
G01 X5.11010 Y-4.02455
G01 X5.11458 Y-4.02088
G01 X5.11825 Y-4.01640
G01 X5.12098 Y-4.01130
G01 X5.12266 Y-4.00576
G01 X5.12323 Y-4.00000
G01 X5.12323 Y-3.87795
G00 Z-0.02362
G01 X5.12323 Y-3.62205
G01 Z-0.04387 F50.00000
G01 F100.00000
G01 X5.12323 Y-3.50000
G01 X5.12266 Y-3.49424
G01 X5.12098 Y-3.48870
G01 X5.11825 Y-3.48360
G01 X5.11458 Y-3.47912
G01 X5.11010 Y-3.47545
G01 X5.10500 Y-3.47272
G01 X5.09946 Y-3.47104
G01 X5.09370 Y-3.47047
G01 X5.08794 Y-3.47104
G01 X5.08240 Y-3.47272
G01 X5.07730 Y-3.47545
G01 X5.07282 Y-3.47912
G01 X4.91330 Y-3.63864
G00 Z-0.02362
G01 X4.73234 Y-3.81960
G01 Z-0.04387 F50.00000
G01 F100.00000
G01 X4.57282 Y-3.97912
G01 X4.56915 Y-3.98360
G01 X4.56642 Y-3.98870
G01 X4.56474 Y-3.99424
G01 X4.56417 Y-4.00000
G01 Z-0.05118 F50.00000 ( plunge. )
G04 P0 ( dwell for no time -- G64 should not smooth over this point )
G01 F100.00000
G01 X4.56474 Y-4.00576
G01 X4.56642 Y-4.01130
G01 X4.56915 Y-4.01640
G01 X4.57282 Y-4.02088
G01 X4.57730 Y-4.02455
G01 X4.58240 Y-4.02728
G01 X4.58794 Y-4.02896
G01 X4.59370 Y-4.02953
G01 X4.71575 Y-4.02953
G00 Z-0.02362
G01 X4.97165 Y-4.02953
G01 Z-0.05118 F50.00000
G01 F100.00000
G01 X5.09370 Y-4.02953
G01 X5.09946 Y-4.02896
G01 X5.10500 Y-4.02728
G01 X5.11010 Y-4.02455
G01 X5.11458 Y-4.02088
G01 X5.11825 Y-4.01640
G01 X5.12098 Y-4.01130
G01 X5.12266 Y-4.00576
G01 X5.12323 Y-4.00000
G01 X5.12323 Y-3.87795
G00 Z-0.02362
G01 X5.12323 Y-3.62205
G01 Z-0.05118 F50.00000
G01 F100.00000
G01 X5.12323 Y-3.50000
G01 X5.12266 Y-3.49424
G01 X5.12098 Y-3.48870
G01 X5.11825 Y-3.48360
G01 X5.11458 Y-3.47912
G01 X5.11010 Y-3.47545
G01 X5.10500 Y-3.47272
G01 X5.09946 Y-3.47104
G01 X5.09370 Y-3.47047
G01 X5.08794 Y-3.47104
G01 X5.08240 Y-3.47272
G01 X5.07730 Y-3.47545
G01 X5.07282 Y-3.47912
G01 X4.91330 Y-3.63864
G00 Z-0.02362
G01 X4.73234 Y-3.81960
G01 Z-0.05118 F50.00000
G01 F100.00000
G01 X4.57282 Y-3.97912
G01 X4.56915 Y-3.98360
G01 X4.56642 Y-3.98870
G01 X4.56474 Y-3.99424
G01 X4.56417 Y-4.00000
G04 P0 ( dwell for no time -- G64 should not smooth over this point )
G00 Z0.08000 ( retract )

G00 X5.86417 Y-5.70000 ( rapid move to begin. )
G01 Z-0.00731 F50.00000 ( plunge. )
G04 P0 ( dwell for no time -- G64 should not smooth over this point )
G01 F100.00000
G01 X5.86417 Y-5.00000
G01 X5.86474 Y-4.99424
G01 X5.86642 Y-4.98870
G01 X5.86915 Y-4.98360
G01 X5.87282 Y-4.97912
G01 X5.87730 Y-4.97545
G01 X5.88240 Y-4.97272
G01 X5.88794 Y-4.97104
G01 X5.89370 Y-4.97047
G01 X7.19370 Y-4.97047
G01 X7.19946 Y-4.97104
G01 X7.20500 Y-4.97272
G01 X7.21010 Y-4.97545
G01 X7.21458 Y-4.97912
G01 X7.21825 Y-4.98360
G01 X7.22098 Y-4.98870
G01 X7.22266 Y-4.99424
G01 X7.22323 Y-5.00000
G01 X7.22323 Y-5.70000
G01 X7.22266 Y-5.70576
G01 X7.22098 Y-5.71130
G01 X7.21825 Y-5.71640
G01 X7.21458 Y-5.72088
G01 X7.21010 Y-5.72455
G01 X7.20500 Y-5.72728
G01 X7.19946 Y-5.72896
G01 X7.19370 Y-5.72953
G01 X5.89370 Y-5.72953
G01 X5.88794 Y-5.72896
G01 X5.88240 Y-5.72728
G01 X5.87730 Y-5.72455
G01 X5.87282 Y-5.72088
G01 X5.86915 Y-5.71640
G01 X5.86642 Y-5.71130
G01 X5.86474 Y-5.70576
G01 X5.86417 Y-5.70000
G01 Z-0.01462 F50.00000 ( plunge. )
G04 P0 ( dwell for no time -- G64 should not smooth over this point )
G01 F100.00000
G01 X5.86417 Y-5.00000
G01 X5.86474 Y-4.99424
G01 X5.86642 Y-4.98870
G01 X5.86915 Y-4.98360
G01 X5.87282 Y-4.97912
G01 X5.87730 Y-4.97545
G01 X5.88240 Y-4.97272
G01 X5.88794 Y-4.97104
G01 X5.89370 Y-4.97047
G01 X7.19370 Y-4.97047
G01 X7.19946 Y-4.97104
G01 X7.20500 Y-4.97272
G01 X7.21010 Y-4.97545
G01 X7.21458 Y-4.97912
G01 X7.21825 Y-4.98360
G01 X7.22098 Y-4.98870
G01 X7.22266 Y-4.99424
G01 X7.22323 Y-5.00000
G01 X7.22323 Y-5.70000
G01 X7.22266 Y-5.70576
G01 X7.22098 Y-5.71130
G01 X7.21825 Y-5.71640
G01 X7.21458 Y-5.72088
G01 X7.21010 Y-5.72455
G01 X7.20500 Y-5.72728
G01 X7.19946 Y-5.72896
G01 X7.19370 Y-5.72953
G01 X5.89370 Y-5.72953
G01 X5.88794 Y-5.72896
G01 X5.88240 Y-5.72728
G01 X5.87730 Y-5.72455
G01 X5.87282 Y-5.72088
G01 X5.86915 Y-5.71640
G01 X5.86642 Y-5.71130
G01 X5.86474 Y-5.70576
G01 X5.86417 Y-5.70000
G01 Z-0.02193 F50.00000 ( plunge. )
G04 P0 ( dwell for no time -- G64 should not smooth over this point )
G01 F100.00000
G01 X5.86417 Y-5.00000
G01 X5.86474 Y-4.99424
G01 X5.86642 Y-4.98870
G01 X5.86915 Y-4.98360
G01 X5.87282 Y-4.97912
G01 X5.87730 Y-4.97545
G01 X5.88240 Y-4.97272
G01 X5.88794 Y-4.97104
G01 X5.89370 Y-4.97047
G01 X7.19370 Y-4.97047
G01 X7.19946 Y-4.97104
G01 X7.20500 Y-4.97272
G01 X7.21010 Y-4.97545
G01 X7.21458 Y-4.97912
G01 X7.21825 Y-4.98360
G01 X7.22098 Y-4.98870
G01 X7.22266 Y-4.99424
G01 X7.22323 Y-5.00000
G01 X7.22323 Y-5.70000
G01 X7.22266 Y-5.70576
G01 X7.22098 Y-5.71130
G01 X7.21825 Y-5.71640
G01 X7.21458 Y-5.72088
G01 X7.21010 Y-5.72455
G01 X7.20500 Y-5.72728
G01 X7.19946 Y-5.72896
G01 X7.19370 Y-5.72953
G01 X5.89370 Y-5.72953
G01 X5.88794 Y-5.72896
G01 X5.88240 Y-5.72728
G01 X5.87730 Y-5.72455
G01 X5.87282 Y-5.72088
G01 X5.86915 Y-5.71640
G01 X5.86642 Y-5.71130
G01 X5.86474 Y-5.70576
G01 X5.86417 Y-5.70000
G01 Z-0.02925 F50.00000 ( plunge. )
G04 P0 ( dwell for no time -- G64 should not smooth over this point )
G01 F100.00000
G01 X5.86417 Y-5.47795
G00 Z-0.02362
G01 X5.86417 Y-5.22205
G01 Z-0.02925 F50.00000
G01 F100.00000
G01 X5.86417 Y-5.00000
G01 X5.86474 Y-4.99424
G01 X5.86642 Y-4.98870
G01 X5.86915 Y-4.98360
G01 X5.87282 Y-4.97912
G01 X5.87730 Y-4.97545
G01 X5.88240 Y-4.97272
G01 X5.88794 Y-4.97104
G01 X5.89370 Y-4.97047
G01 X6.41575 Y-4.97047
G00 Z-0.02362
G01 X6.67165 Y-4.97047
G01 Z-0.02925 F50.00000
G01 F100.00000
G01 X7.19370 Y-4.97047
G01 X7.19946 Y-4.97104
G01 X7.20500 Y-4.97272
G01 X7.21010 Y-4.97545
G01 X7.21458 Y-4.97912
G01 X7.21825 Y-4.98360
G01 X7.22098 Y-4.98870
G01 X7.22266 Y-4.99424
G01 X7.22323 Y-5.00000
G01 X7.22323 Y-5.22205
G00 Z-0.02362
G01 X7.22323 Y-5.47795
G01 Z-0.02925 F50.00000
G01 F100.00000
G01 X7.22323 Y-5.70000
G01 X7.22266 Y-5.70576
G01 X7.22098 Y-5.71130
G01 X7.21825 Y-5.71640
G01 X7.21458 Y-5.72088
G01 X7.21010 Y-5.72455
G01 X7.20500 Y-5.72728
G01 X7.19946 Y-5.72896
G01 X7.19370 Y-5.72953
G01 X6.67165 Y-5.72953
G00 Z-0.02362
G01 X6.41575 Y-5.72953
G01 Z-0.02925 F50.00000
G01 F100.00000
G01 X5.89370 Y-5.72953
G01 X5.88794 Y-5.72896
G01 X5.88240 Y-5.72728
G01 X5.87730 Y-5.72455
G01 X5.87282 Y-5.72088
G01 X5.86915 Y-5.71640
G01 X5.86642 Y-5.71130
G01 X5.86474 Y-5.70576
G01 X5.86417 Y-5.70000
G01 Z-0.03656 F50.00000 ( plunge. )
G04 P0 ( dwell for no time -- G64 should not smooth over this point )
G01 F100.00000
G01 X5.86417 Y-5.47795
G00 Z-0.02362
G01 X5.86417 Y-5.22205
G01 Z-0.03656 F50.00000
G01 F100.00000
G01 X5.86417 Y-5.00000
G01 X5.86474 Y-4.99424
G01 X5.86642 Y-4.98870
G01 X5.86915 Y-4.98360
G01 X5.87282 Y-4.97912
G01 X5.87730 Y-4.97545
G01 X5.88240 Y-4.97272
G01 X5.88794 Y-4.97104
G01 X5.89370 Y-4.97047
G01 X6.41575 Y-4.97047
G00 Z-0.02362
G01 X6.67165 Y-4.97047
G01 Z-0.03656 F50.00000
G01 F100.00000
G01 X7.19370 Y-4.97047
G01 X7.19946 Y-4.97104
G01 X7.20500 Y-4.97272
G01 X7.21010 Y-4.97545
G01 X7.21458 Y-4.97912
G01 X7.21825 Y-4.98360
G01 X7.22098 Y-4.98870
G01 X7.22266 Y-4.99424
G01 X7.22323 Y-5.00000
G01 X7.22323 Y-5.22205
G00 Z-0.02362
G01 X7.22323 Y-5.47795
G01 Z-0.03656 F50.00000
G01 F100.00000
G01 X7.22323 Y-5.70000
G01 X7.22266 Y-5.70576
G01 X7.22098 Y-5.71130
G01 X7.21825 Y-5.71640
G01 X7.21458 Y-5.72088
G01 X7.21010 Y-5.72455
G01 X7.20500 Y-5.72728
G01 X7.19946 Y-5.72896
G01 X7.19370 Y-5.72953
G01 X6.67165 Y-5.72953
G00 Z-0.02362
G01 X6.41575 Y-5.72953
G01 Z-0.03656 F50.00000
G01 F100.00000
G01 X5.89370 Y-5.72953
G01 X5.88794 Y-5.72896
G01 X5.88240 Y-5.72728
G01 X5.87730 Y-5.72455
G01 X5.87282 Y-5.72088
G01 X5.86915 Y-5.71640
G01 X5.86642 Y-5.71130
G01 X5.86474 Y-5.70576
G01 X5.86417 Y-5.70000
G01 Z-0.04387 F50.00000 ( plunge. )
G04 P0 ( dwell for no time -- G64 should not smooth over this point )
G01 F100.00000
G01 X5.86417 Y-5.47795
G00 Z-0.02362
G01 X5.86417 Y-5.22205
G01 Z-0.04387 F50.00000
G01 F100.00000
G01 X5.86417 Y-5.00000
G01 X5.86474 Y-4.99424
G01 X5.86642 Y-4.98870
G01 X5.86915 Y-4.98360
G01 X5.87282 Y-4.97912
G01 X5.87730 Y-4.97545
G01 X5.88240 Y-4.97272
G01 X5.88794 Y-4.97104
G01 X5.89370 Y-4.97047
G01 X6.41575 Y-4.97047
G00 Z-0.02362
G01 X6.67165 Y-4.97047
G01 Z-0.04387 F50.00000
G01 F100.00000
G01 X7.19370 Y-4.97047
G01 X7.19946 Y-4.97104
G01 X7.20500 Y-4.97272
G01 X7.21010 Y-4.97545
G01 X7.21458 Y-4.97912
G01 X7.21825 Y-4.98360
G01 X7.22098 Y-4.98870
G01 X7.22266 Y-4.99424
G01 X7.22323 Y-5.00000
G01 X7.22323 Y-5.22205
G00 Z-0.02362
G01 X7.22323 Y-5.47795
G01 Z-0.04387 F50.00000
G01 F100.00000
G01 X7.22323 Y-5.70000
G01 X7.22266 Y-5.70576
G01 X7.22098 Y-5.71130
G01 X7.21825 Y-5.71640
G01 X7.21458 Y-5.72088
G01 X7.21010 Y-5.72455
G01 X7.20500 Y-5.72728
G01 X7.19946 Y-5.72896
G01 X7.19370 Y-5.72953
G01 X6.67165 Y-5.72953
G00 Z-0.02362
G01 X6.41575 Y-5.72953
G01 Z-0.04387 F50.00000
G01 F100.00000
G01 X5.89370 Y-5.72953
G01 X5.88794 Y-5.72896
G01 X5.88240 Y-5.72728
G01 X5.87730 Y-5.72455
G01 X5.87282 Y-5.72088
G01 X5.86915 Y-5.71640
G01 X5.86642 Y-5.71130
G01 X5.86474 Y-5.70576
G01 X5.86417 Y-5.70000
G01 Z-0.05118 F50.00000 ( plunge. )
G04 P0 ( dwell for no time -- G64 should not smooth over this point )
G01 F100.00000
G01 X5.86417 Y-5.47795
G00 Z-0.02362
G01 X5.86417 Y-5.22205
G01 Z-0.05118 F50.00000
G01 F100.00000
G01 X5.86417 Y-5.00000
G01 X5.86474 Y-4.99424
G01 X5.86642 Y-4.98870
G01 X5.86915 Y-4.98360
G01 X5.87282 Y-4.97912
G01 X5.87730 Y-4.97545
G01 X5.88240 Y-4.97272
G01 X5.88794 Y-4.97104
G01 X5.89370 Y-4.97047
G01 X6.41575 Y-4.97047
G00 Z-0.02362
G01 X6.67165 Y-4.97047
G01 Z-0.05118 F50.00000
G01 F100.00000
G01 X7.19370 Y-4.97047
G01 X7.19946 Y-4.97104
G01 X7.20500 Y-4.97272
G01 X7.21010 Y-4.97545
G01 X7.21458 Y-4.97912
G01 X7.21825 Y-4.98360
G01 X7.22098 Y-4.98870
G01 X7.22266 Y-4.99424
G01 X7.22323 Y-5.00000
G01 X7.22323 Y-5.22205
G00 Z-0.02362
G01 X7.22323 Y-5.47795
G01 Z-0.05118 F50.00000
G01 F100.00000
G01 X7.22323 Y-5.70000
G01 X7.22266 Y-5.70576
G01 X7.22098 Y-5.71130
G01 X7.21825 Y-5.71640
G01 X7.21458 Y-5.72088
G01 X7.21010 Y-5.72455
G01 X7.20500 Y-5.72728
G01 X7.19946 Y-5.72896
G01 X7.19370 Y-5.72953
G01 X6.67165 Y-5.72953
G00 Z-0.02362
G01 X6.41575 Y-5.72953
G01 Z-0.05118 F50.00000
G01 F100.00000
G01 X5.89370 Y-5.72953
G01 X5.88794 Y-5.72896
G01 X5.88240 Y-5.72728
G01 X5.87730 Y-5.72455
G01 X5.87282 Y-5.72088
G01 X5.86915 Y-5.71640
G01 X5.86642 Y-5.71130
G01 X5.86474 Y-5.70576
G01 X5.86417 Y-5.70000
( Piece #2, position [1;0] )

G04 P0 ( dwell for no time -- G64 should not smooth over this point )
G00 Z0.08000 ( retract )

G00 X7.28819 Y-4.00000 ( rapid move to begin. )
G01 Z-0.00731 F50.00000 ( plunge. )
G04 P0 ( dwell for no time -- G64 should not smooth over this point )
G01 F100.00000
G01 X7.28876 Y-4.00576
G01 X7.29044 Y-4.01130
G01 X7.29316 Y-4.01640
G01 X7.29684 Y-4.02088
G01 X7.30131 Y-4.02455
G01 X7.30642 Y-4.02728
G01 X7.31195 Y-4.02896
G01 X7.31772 Y-4.02953
G01 X7.81772 Y-4.02953
G01 X7.82348 Y-4.02896
G01 X7.82902 Y-4.02728
G01 X7.83412 Y-4.02455
G01 X7.83860 Y-4.02088
G01 X7.84227 Y-4.01640
G01 X7.84500 Y-4.01130
G01 X7.84668 Y-4.00576
G01 X7.84724 Y-4.00000
G01 X7.84724 Y-3.50000
G01 X7.84668 Y-3.49424
G01 X7.84500 Y-3.48870
G01 X7.84227 Y-3.48360
G01 X7.83860 Y-3.47912
G01 X7.83412 Y-3.47545
G01 X7.82902 Y-3.47272
G01 X7.82348 Y-3.47104
G01 X7.81772 Y-3.47047
G01 X7.81196 Y-3.47104
G01 X7.80642 Y-3.47272
G01 X7.80131 Y-3.47545
G01 X7.79684 Y-3.47912
G01 X7.29684 Y-3.97912
G01 X7.29316 Y-3.98360
G01 X7.29044 Y-3.98870
G01 X7.28876 Y-3.99424
G01 X7.28819 Y-4.00000
G01 Z-0.01462 F50.00000 ( plunge. )
G04 P0 ( dwell for no time -- G64 should not smooth over this point )
G01 F100.00000
G01 X7.28876 Y-4.00576
G01 X7.29044 Y-4.01130
G01 X7.29316 Y-4.01640
G01 X7.29684 Y-4.02088
G01 X7.30131 Y-4.02455
G01 X7.30642 Y-4.02728
G01 X7.31195 Y-4.02896
G01 X7.31772 Y-4.02953
G01 X7.81772 Y-4.02953
G01 X7.82348 Y-4.02896
G01 X7.82902 Y-4.02728
G01 X7.83412 Y-4.02455
G01 X7.83860 Y-4.02088
G01 X7.84227 Y-4.01640
G01 X7.84500 Y-4.01130
G01 X7.84668 Y-4.00576
G01 X7.84724 Y-4.00000
G01 X7.84724 Y-3.50000
G01 X7.84668 Y-3.49424
G01 X7.84500 Y-3.48870
G01 X7.84227 Y-3.48360
G01 X7.83860 Y-3.47912
G01 X7.83412 Y-3.47545
G01 X7.82902 Y-3.47272
G01 X7.82348 Y-3.47104
G01 X7.81772 Y-3.47047
G01 X7.81196 Y-3.47104
G01 X7.80642 Y-3.47272
G01 X7.80131 Y-3.47545
G01 X7.79684 Y-3.47912
G01 X7.29684 Y-3.97912
G01 X7.29316 Y-3.98360
G01 X7.29044 Y-3.98870
G01 X7.28876 Y-3.99424
G01 X7.28819 Y-4.00000
G01 Z-0.02193 F50.00000 ( plunge. )
G04 P0 ( dwell for no time -- G64 should not smooth over this point )
G01 F100.00000
G01 X7.28876 Y-4.00576
G01 X7.29044 Y-4.01130
G01 X7.29316 Y-4.01640
G01 X7.29684 Y-4.02088
G01 X7.30131 Y-4.02455
G01 X7.30642 Y-4.02728
G01 X7.31195 Y-4.02896
G01 X7.31772 Y-4.02953
G01 X7.81772 Y-4.02953
G01 X7.82348 Y-4.02896
G01 X7.82902 Y-4.02728
G01 X7.83412 Y-4.02455
G01 X7.83860 Y-4.02088
G01 X7.84227 Y-4.01640
G01 X7.84500 Y-4.01130
G01 X7.84668 Y-4.00576
G01 X7.84724 Y-4.00000
G01 X7.84724 Y-3.50000
G01 X7.84668 Y-3.49424
G01 X7.84500 Y-3.48870
G01 X7.84227 Y-3.48360
G01 X7.83860 Y-3.47912
G01 X7.83412 Y-3.47545
G01 X7.82902 Y-3.47272
G01 X7.82348 Y-3.47104
G01 X7.81772 Y-3.47047
G01 X7.81196 Y-3.47104
G01 X7.80642 Y-3.47272
G01 X7.80131 Y-3.47545
G01 X7.79684 Y-3.47912
G01 X7.29684 Y-3.97912
G01 X7.29316 Y-3.98360
G01 X7.29044 Y-3.98870
G01 X7.28876 Y-3.99424
G01 X7.28819 Y-4.00000
G01 Z-0.02925 F50.00000 ( plunge. )
G04 P0 ( dwell for no time -- G64 should not smooth over this point )
G01 F100.00000
G01 X7.28876 Y-4.00576
G01 X7.29044 Y-4.01130
G01 X7.29316 Y-4.01640
G01 X7.29684 Y-4.02088
G01 X7.30131 Y-4.02455
G01 X7.30642 Y-4.02728
G01 X7.31195 Y-4.02896
G01 X7.31772 Y-4.02953
G01 X7.43976 Y-4.02953
G00 Z-0.02362
G01 X7.69567 Y-4.02953
G01 Z-0.02925 F50.00000
G01 F100.00000
G01 X7.81772 Y-4.02953
G01 X7.82348 Y-4.02896
G01 X7.82902 Y-4.02728
G01 X7.83412 Y-4.02455
G01 X7.83860 Y-4.02088
G01 X7.84227 Y-4.01640
G01 X7.84500 Y-4.01130
G01 X7.84668 Y-4.00576
G01 X7.84724 Y-4.00000
G01 X7.84724 Y-3.87795
G00 Z-0.02362
G01 X7.84724 Y-3.62205
G01 Z-0.02925 F50.00000
G01 F100.00000
G01 X7.84724 Y-3.50000
G01 X7.84668 Y-3.49424
G01 X7.84500 Y-3.48870
G01 X7.84227 Y-3.48360
G01 X7.83860 Y-3.47912
G01 X7.83412 Y-3.47545
G01 X7.82902 Y-3.47272
G01 X7.82348 Y-3.47104
G01 X7.81772 Y-3.47047
G01 X7.81196 Y-3.47104
G01 X7.80642 Y-3.47272
G01 X7.80131 Y-3.47545
G01 X7.79684 Y-3.47912
G01 X7.63731 Y-3.63864
G00 Z-0.02362
G01 X7.45636 Y-3.81960
G01 Z-0.02925 F50.00000
G01 F100.00000
G01 X7.29684 Y-3.97912
G01 X7.29316 Y-3.98360
G01 X7.29044 Y-3.98870
G01 X7.28876 Y-3.99424
G01 X7.28819 Y-4.00000
G01 Z-0.03656 F50.00000 ( plunge. )
G04 P0 ( dwell for no time -- G64 should not smooth over this point )
G01 F100.00000
G01 X7.28876 Y-4.00576
G01 X7.29044 Y-4.01130
G01 X7.29316 Y-4.01640
G01 X7.29684 Y-4.02088
G01 X7.30131 Y-4.02455
G01 X7.30642 Y-4.02728
G01 X7.31195 Y-4.02896
G01 X7.31772 Y-4.02953
G01 X7.43976 Y-4.02953
G00 Z-0.02362
G01 X7.69567 Y-4.02953
G01 Z-0.03656 F50.00000
G01 F100.00000
G01 X7.81772 Y-4.02953
G01 X7.82348 Y-4.02896
G01 X7.82902 Y-4.02728
G01 X7.83412 Y-4.02455
G01 X7.83860 Y-4.02088
G01 X7.84227 Y-4.01640
G01 X7.84500 Y-4.01130
G01 X7.84668 Y-4.00576
G01 X7.84724 Y-4.00000
G01 X7.84724 Y-3.87795
G00 Z-0.02362
G01 X7.84724 Y-3.62205
G01 Z-0.03656 F50.00000
G01 F100.00000
G01 X7.84724 Y-3.50000
G01 X7.84668 Y-3.49424
G01 X7.84500 Y-3.48870
G01 X7.84227 Y-3.48360
G01 X7.83860 Y-3.47912
G01 X7.83412 Y-3.47545
G01 X7.82902 Y-3.47272
G01 X7.82348 Y-3.47104
G01 X7.81772 Y-3.47047
G01 X7.81196 Y-3.47104
G01 X7.80642 Y-3.47272
G01 X7.80131 Y-3.47545
G01 X7.79684 Y-3.47912
G01 X7.63731 Y-3.63864
G00 Z-0.02362
G01 X7.45636 Y-3.81960
G01 Z-0.03656 F50.00000
G01 F100.00000
G01 X7.29684 Y-3.97912
G01 X7.29316 Y-3.98360
G01 X7.29044 Y-3.98870
G01 X7.28876 Y-3.99424
G01 X7.28819 Y-4.00000
G01 Z-0.04387 F50.00000 ( plunge. )
G04 P0 ( dwell for no time -- G64 should not smooth over this point )
G01 F100.00000
G01 X7.28876 Y-4.00576
G01 X7.29044 Y-4.01130
G01 X7.29316 Y-4.01640
G01 X7.29684 Y-4.02088
G01 X7.30131 Y-4.02455
G01 X7.30642 Y-4.02728
G01 X7.31195 Y-4.02896
G01 X7.31772 Y-4.02953
G01 X7.43976 Y-4.02953
G00 Z-0.02362
G01 X7.69567 Y-4.02953
G01 Z-0.04387 F50.00000
G01 F100.00000
G01 X7.81772 Y-4.02953
G01 X7.82348 Y-4.02896
G01 X7.82902 Y-4.02728
G01 X7.83412 Y-4.02455
G01 X7.83860 Y-4.02088
G01 X7.84227 Y-4.01640
G01 X7.84500 Y-4.01130
G01 X7.84668 Y-4.00576
G01 X7.84724 Y-4.00000
G01 X7.84724 Y-3.87795
G00 Z-0.02362
G01 X7.84724 Y-3.62205
G01 Z-0.04387 F50.00000
G01 F100.00000
G01 X7.84724 Y-3.50000
G01 X7.84668 Y-3.49424
G01 X7.84500 Y-3.48870
G01 X7.84227 Y-3.48360
G01 X7.83860 Y-3.47912
G01 X7.83412 Y-3.47545
G01 X7.82902 Y-3.47272
G01 X7.82348 Y-3.47104
G01 X7.81772 Y-3.47047
G01 X7.81196 Y-3.47104
G01 X7.80642 Y-3.47272
G01 X7.80131 Y-3.47545
G01 X7.79684 Y-3.47912
G01 X7.63731 Y-3.63864
G00 Z-0.02362
G01 X7.45636 Y-3.81960
G01 Z-0.04387 F50.00000
G01 F100.00000
G01 X7.29684 Y-3.97912
G01 X7.29316 Y-3.98360
G01 X7.29044 Y-3.98870
G01 X7.28876 Y-3.99424
G01 X7.28819 Y-4.00000
G01 Z-0.05118 F50.00000 ( plunge. )
G04 P0 ( dwell for no time -- G64 should not smooth over this point )
G01 F100.00000
G01 X7.28876 Y-4.00576
G01 X7.29044 Y-4.01130
G01 X7.29316 Y-4.01640
G01 X7.29684 Y-4.02088
G01 X7.30131 Y-4.02455
G01 X7.30642 Y-4.02728
G01 X7.31195 Y-4.02896
G01 X7.31772 Y-4.02953
G01 X7.43976 Y-4.02953
G00 Z-0.02362
G01 X7.69567 Y-4.02953
G01 Z-0.05118 F50.00000
G01 F100.00000
G01 X7.81772 Y-4.02953
G01 X7.82348 Y-4.02896
G01 X7.82902 Y-4.02728
G01 X7.83412 Y-4.02455
G01 X7.83860 Y-4.02088
G01 X7.84227 Y-4.01640
G01 X7.84500 Y-4.01130
G01 X7.84668 Y-4.00576
G01 X7.84724 Y-4.00000
G01 X7.84724 Y-3.87795
G00 Z-0.02362
G01 X7.84724 Y-3.62205
G01 Z-0.05118 F50.00000
G01 F100.00000
G01 X7.84724 Y-3.50000
G01 X7.84668 Y-3.49424
G01 X7.84500 Y-3.48870
G01 X7.84227 Y-3.48360
G01 X7.83860 Y-3.47912
G01 X7.83412 Y-3.47545
G01 X7.82902 Y-3.47272
G01 X7.82348 Y-3.47104
G01 X7.81772 Y-3.47047
G01 X7.81196 Y-3.47104
G01 X7.80642 Y-3.47272
G01 X7.80131 Y-3.47545
G01 X7.79684 Y-3.47912
G01 X7.63731 Y-3.63864
G00 Z-0.02362
G01 X7.45636 Y-3.81960
G01 Z-0.05118 F50.00000
G01 F100.00000
G01 X7.29684 Y-3.97912
G01 X7.29316 Y-3.98360
G01 X7.29044 Y-3.98870
G01 X7.28876 Y-3.99424
G01 X7.28819 Y-4.00000
G04 P0 ( dwell for no time -- G64 should not smooth over this point )
G00 Z0.08000 ( retract )

G00 X8.58819 Y-5.70000 ( rapid move to begin. )
G01 Z-0.00731 F50.00000 ( plunge. )
G04 P0 ( dwell for no time -- G64 should not smooth over this point )
G01 F100.00000
G01 X8.58819 Y-5.00000
G01 X8.58876 Y-4.99424
G01 X8.59044 Y-4.98870
G01 X8.59316 Y-4.98360
G01 X8.59684 Y-4.97912
G01 X8.60131 Y-4.97545
G01 X8.60642 Y-4.97272
G01 X8.61196 Y-4.97104
G01 X8.61772 Y-4.97047
G01 X9.91772 Y-4.97047
G01 X9.92348 Y-4.97104
G01 X9.92902 Y-4.97272
G01 X9.93412 Y-4.97545
G01 X9.93860 Y-4.97912
G01 X9.94227 Y-4.98360
G01 X9.94500 Y-4.98870
G01 X9.94668 Y-4.99424
G01 X9.94724 Y-5.00000
G01 X9.94724 Y-5.70000
G01 X9.94668 Y-5.70576
G01 X9.94500 Y-5.71130
G01 X9.94227 Y-5.71640
G01 X9.93860 Y-5.72088
G01 X9.93412 Y-5.72455
G01 X9.92902 Y-5.72728
G01 X9.92348 Y-5.72896
G01 X9.91772 Y-5.72953
G01 X8.61772 Y-5.72953
G01 X8.61196 Y-5.72896
G01 X8.60642 Y-5.72728
G01 X8.60131 Y-5.72455
G01 X8.59684 Y-5.72088
G01 X8.59316 Y-5.71640
G01 X8.59044 Y-5.71130
G01 X8.58876 Y-5.70576
G01 X8.58819 Y-5.70000
G01 Z-0.01462 F50.00000 ( plunge. )
G04 P0 ( dwell for no time -- G64 should not smooth over this point )
G01 F100.00000
G01 X8.58819 Y-5.00000
G01 X8.58876 Y-4.99424
G01 X8.59044 Y-4.98870
G01 X8.59316 Y-4.98360
G01 X8.59684 Y-4.97912
G01 X8.60131 Y-4.97545
G01 X8.60642 Y-4.97272
G01 X8.61196 Y-4.97104
G01 X8.61772 Y-4.97047
G01 X9.91772 Y-4.97047
G01 X9.92348 Y-4.97104
G01 X9.92902 Y-4.97272
G01 X9.93412 Y-4.97545
G01 X9.93860 Y-4.97912
G01 X9.94227 Y-4.98360
G01 X9.94500 Y-4.98870
G01 X9.94668 Y-4.99424
G01 X9.94724 Y-5.00000
G01 X9.94724 Y-5.70000
G01 X9.94668 Y-5.70576
G01 X9.94500 Y-5.71130
G01 X9.94227 Y-5.71640
G01 X9.93860 Y-5.72088
G01 X9.93412 Y-5.72455
G01 X9.92902 Y-5.72728
G01 X9.92348 Y-5.72896
G01 X9.91772 Y-5.72953
G01 X8.61772 Y-5.72953
G01 X8.61196 Y-5.72896
G01 X8.60642 Y-5.72728
G01 X8.60131 Y-5.72455
G01 X8.59684 Y-5.72088
G01 X8.59316 Y-5.71640
G01 X8.59044 Y-5.71130
G01 X8.58876 Y-5.70576
G01 X8.58819 Y-5.70000
G01 Z-0.02193 F50.00000 ( plunge. )
G04 P0 ( dwell for no time -- G64 should not smooth over this point )
G01 F100.00000
G01 X8.58819 Y-5.00000
G01 X8.58876 Y-4.99424
G01 X8.59044 Y-4.98870
G01 X8.59316 Y-4.98360
G01 X8.59684 Y-4.97912
G01 X8.60131 Y-4.97545
G01 X8.60642 Y-4.97272
G01 X8.61196 Y-4.97104
G01 X8.61772 Y-4.97047
G01 X9.91772 Y-4.97047
G01 X9.92348 Y-4.97104
G01 X9.92902 Y-4.97272
G01 X9.93412 Y-4.97545
G01 X9.93860 Y-4.97912
G01 X9.94227 Y-4.98360
G01 X9.94500 Y-4.98870
G01 X9.94668 Y-4.99424
G01 X9.94724 Y-5.00000
G01 X9.94724 Y-5.70000
G01 X9.94668 Y-5.70576
G01 X9.94500 Y-5.71130
G01 X9.94227 Y-5.71640
G01 X9.93860 Y-5.72088
G01 X9.93412 Y-5.72455
G01 X9.92902 Y-5.72728
G01 X9.92348 Y-5.72896
G01 X9.91772 Y-5.72953
G01 X8.61772 Y-5.72953
G01 X8.61196 Y-5.72896
G01 X8.60642 Y-5.72728
G01 X8.60131 Y-5.72455
G01 X8.59684 Y-5.72088
G01 X8.59316 Y-5.71640
G01 X8.59044 Y-5.71130
G01 X8.58876 Y-5.70576
G01 X8.58819 Y-5.70000
G01 Z-0.02925 F50.00000 ( plunge. )
G04 P0 ( dwell for no time -- G64 should not smooth over this point )
G01 F100.00000
G01 X8.58819 Y-5.47795
G00 Z-0.02362
G01 X8.58819 Y-5.22205
G01 Z-0.02925 F50.00000
G01 F100.00000
G01 X8.58819 Y-5.00000
G01 X8.58876 Y-4.99424
G01 X8.59044 Y-4.98870
G01 X8.59316 Y-4.98360
G01 X8.59684 Y-4.97912
G01 X8.60131 Y-4.97545
G01 X8.60642 Y-4.97272
G01 X8.61196 Y-4.97104
G01 X8.61772 Y-4.97047
G01 X9.13976 Y-4.97047
G00 Z-0.02362
G01 X9.39567 Y-4.97047
G01 Z-0.02925 F50.00000
G01 F100.00000
G01 X9.91772 Y-4.97047
G01 X9.92348 Y-4.97104
G01 X9.92902 Y-4.97272
G01 X9.93412 Y-4.97545
G01 X9.93860 Y-4.97912
G01 X9.94227 Y-4.98360
G01 X9.94500 Y-4.98870
G01 X9.94668 Y-4.99424
G01 X9.94724 Y-5.00000
G01 X9.94724 Y-5.22205
G00 Z-0.02362
G01 X9.94724 Y-5.47795
G01 Z-0.02925 F50.00000
G01 F100.00000
G01 X9.94724 Y-5.70000
G01 X9.94668 Y-5.70576
G01 X9.94500 Y-5.71130
G01 X9.94227 Y-5.71640
G01 X9.93860 Y-5.72088
G01 X9.93412 Y-5.72455
G01 X9.92902 Y-5.72728
G01 X9.92348 Y-5.72896
G01 X9.91772 Y-5.72953
G01 X9.39567 Y-5.72953
G00 Z-0.02362
G01 X9.13976 Y-5.72953
G01 Z-0.02925 F50.00000
G01 F100.00000
G01 X8.61772 Y-5.72953
G01 X8.61196 Y-5.72896
G01 X8.60642 Y-5.72728
G01 X8.60131 Y-5.72455
G01 X8.59684 Y-5.72088
G01 X8.59316 Y-5.71640
G01 X8.59044 Y-5.71130
G01 X8.58876 Y-5.70576
G01 X8.58819 Y-5.70000
G01 Z-0.03656 F50.00000 ( plunge. )
G04 P0 ( dwell for no time -- G64 should not smooth over this point )
G01 F100.00000
G01 X8.58819 Y-5.47795
G00 Z-0.02362
G01 X8.58819 Y-5.22205
G01 Z-0.03656 F50.00000
G01 F100.00000
G01 X8.58819 Y-5.00000
G01 X8.58876 Y-4.99424
G01 X8.59044 Y-4.98870
G01 X8.59316 Y-4.98360
G01 X8.59684 Y-4.97912
G01 X8.60131 Y-4.97545
G01 X8.60642 Y-4.97272
G01 X8.61196 Y-4.97104
G01 X8.61772 Y-4.97047
G01 X9.13976 Y-4.97047
G00 Z-0.02362
G01 X9.39567 Y-4.97047
G01 Z-0.03656 F50.00000
G01 F100.00000
G01 X9.91772 Y-4.97047
G01 X9.92348 Y-4.97104
G01 X9.92902 Y-4.97272
G01 X9.93412 Y-4.97545
G01 X9.93860 Y-4.97912
G01 X9.94227 Y-4.98360
G01 X9.94500 Y-4.98870
G01 X9.94668 Y-4.99424
G01 X9.94724 Y-5.00000
G01 X9.94724 Y-5.22205
G00 Z-0.02362
G01 X9.94724 Y-5.47795
G01 Z-0.03656 F50.00000
G01 F100.00000
G01 X9.94724 Y-5.70000
G01 X9.94668 Y-5.70576
G01 X9.94500 Y-5.71130
G01 X9.94227 Y-5.71640
G01 X9.93860 Y-5.72088
G01 X9.93412 Y-5.72455
G01 X9.92902 Y-5.72728
G01 X9.92348 Y-5.72896
G01 X9.91772 Y-5.72953
G01 X9.39567 Y-5.72953
G00 Z-0.02362
G01 X9.13976 Y-5.72953
G01 Z-0.03656 F50.00000
G01 F100.00000
G01 X8.61772 Y-5.72953
G01 X8.61196 Y-5.72896
G01 X8.60642 Y-5.72728
G01 X8.60131 Y-5.72455
G01 X8.59684 Y-5.72088
G01 X8.59316 Y-5.71640
G01 X8.59044 Y-5.71130
G01 X8.58876 Y-5.70576
G01 X8.58819 Y-5.70000
G01 Z-0.04387 F50.00000 ( plunge. )
G04 P0 ( dwell for no time -- G64 should not smooth over this point )
G01 F100.00000
G01 X8.58819 Y-5.47795
G00 Z-0.02362
G01 X8.58819 Y-5.22205
G01 Z-0.04387 F50.00000
G01 F100.00000
G01 X8.58819 Y-5.00000
G01 X8.58876 Y-4.99424
G01 X8.59044 Y-4.98870
G01 X8.59316 Y-4.98360
G01 X8.59684 Y-4.97912
G01 X8.60131 Y-4.97545
G01 X8.60642 Y-4.97272
G01 X8.61196 Y-4.97104
G01 X8.61772 Y-4.97047
G01 X9.13976 Y-4.97047
G00 Z-0.02362
G01 X9.39567 Y-4.97047
G01 Z-0.04387 F50.00000
G01 F100.00000
G01 X9.91772 Y-4.97047
G01 X9.92348 Y-4.97104
G01 X9.92902 Y-4.97272
G01 X9.93412 Y-4.97545
G01 X9.93860 Y-4.97912
G01 X9.94227 Y-4.98360
G01 X9.94500 Y-4.98870
G01 X9.94668 Y-4.99424
G01 X9.94724 Y-5.00000
G01 X9.94724 Y-5.22205
G00 Z-0.02362
G01 X9.94724 Y-5.47795
G01 Z-0.04387 F50.00000
G01 F100.00000
G01 X9.94724 Y-5.70000
G01 X9.94668 Y-5.70576
G01 X9.94500 Y-5.71130
G01 X9.94227 Y-5.71640
G01 X9.93860 Y-5.72088
G01 X9.93412 Y-5.72455
G01 X9.92902 Y-5.72728
G01 X9.92348 Y-5.72896
G01 X9.91772 Y-5.72953
G01 X9.39567 Y-5.72953
G00 Z-0.02362
G01 X9.13976 Y-5.72953
G01 Z-0.04387 F50.00000
G01 F100.00000
G01 X8.61772 Y-5.72953
G01 X8.61196 Y-5.72896
G01 X8.60642 Y-5.72728
G01 X8.60131 Y-5.72455
G01 X8.59684 Y-5.72088
G01 X8.59316 Y-5.71640
G01 X8.59044 Y-5.71130
G01 X8.58876 Y-5.70576
G01 X8.58819 Y-5.70000
G01 Z-0.05118 F50.00000 ( plunge. )
G04 P0 ( dwell for no time -- G64 should not smooth over this point )
G01 F100.00000
G01 X8.58819 Y-5.47795
G00 Z-0.02362
G01 X8.58819 Y-5.22205
G01 Z-0.05118 F50.00000
G01 F100.00000
G01 X8.58819 Y-5.00000
G01 X8.58876 Y-4.99424
G01 X8.59044 Y-4.98870
G01 X8.59316 Y-4.98360
G01 X8.59684 Y-4.97912
G01 X8.60131 Y-4.97545
G01 X8.60642 Y-4.97272
G01 X8.61196 Y-4.97104
G01 X8.61772 Y-4.97047
G01 X9.13976 Y-4.97047
G00 Z-0.02362
G01 X9.39567 Y-4.97047
G01 Z-0.05118 F50.00000
G01 F100.00000
G01 X9.91772 Y-4.97047
G01 X9.92348 Y-4.97104
G01 X9.92902 Y-4.97272
G01 X9.93412 Y-4.97545
G01 X9.93860 Y-4.97912
G01 X9.94227 Y-4.98360
G01 X9.94500 Y-4.98870
G01 X9.94668 Y-4.99424
G01 X9.94724 Y-5.00000
G01 X9.94724 Y-5.22205
G00 Z-0.02362
G01 X9.94724 Y-5.47795
G01 Z-0.05118 F50.00000
G01 F100.00000
G01 X9.94724 Y-5.70000
G01 X9.94668 Y-5.70576
G01 X9.94500 Y-5.71130
G01 X9.94227 Y-5.71640
G01 X9.93860 Y-5.72088
G01 X9.93412 Y-5.72455
G01 X9.92902 Y-5.72728
G01 X9.92348 Y-5.72896
G01 X9.91772 Y-5.72953
G01 X9.39567 Y-5.72953
G00 Z-0.02362
G01 X9.13976 Y-5.72953
G01 Z-0.05118 F50.00000
G01 F100.00000
G01 X8.61772 Y-5.72953
G01 X8.61196 Y-5.72896
G01 X8.60642 Y-5.72728
G01 X8.60131 Y-5.72455
G01 X8.59684 Y-5.72088
G01 X8.59316 Y-5.71640
G01 X8.59044 Y-5.71130
G01 X8.58876 Y-5.70576
G01 X8.58819 Y-5.70000
( Piece #3, position [0;1] )

G04 P0 ( dwell for no time -- G64 should not smooth over this point )
G00 Z0.08000 ( retract )

G00 X7.28819 Y-1.67598 ( rapid move to begin. )
G01 Z-0.00731 F50.00000 ( plunge. )
G04 P0 ( dwell for no time -- G64 should not smooth over this point )
G01 F100.00000
G01 X7.28876 Y-1.68174
G01 X7.29044 Y-1.68728
G01 X7.29316 Y-1.69239
G01 X7.29684 Y-1.69686
G01 X7.30131 Y-1.70054
G01 X7.30642 Y-1.70326
G01 X7.31195 Y-1.70494
G01 X7.31772 Y-1.70551
G01 X7.81772 Y-1.70551
G01 X7.82348 Y-1.70494
G01 X7.82902 Y-1.70326
G01 X7.83412 Y-1.70054
G01 X7.83860 Y-1.69686
G01 X7.84227 Y-1.69239
G01 X7.84500 Y-1.68728
G01 X7.84668 Y-1.68174
G01 X7.84724 Y-1.67598
G01 X7.84724 Y-1.17598
G01 X7.84668 Y-1.17022
G01 X7.84500 Y-1.16468
G01 X7.84227 Y-1.15958
G01 X7.83860 Y-1.15510
G01 X7.83412 Y-1.15143
G01 X7.82902 Y-1.14870
G01 X7.82348 Y-1.14702
G01 X7.81772 Y-1.14646
G01 X7.81196 Y-1.14702
G01 X7.80642 Y-1.14870
G01 X7.80131 Y-1.15143
G01 X7.79684 Y-1.15510
G01 X7.29684 Y-1.65510
G01 X7.29316 Y-1.65958
G01 X7.29044 Y-1.66468
G01 X7.28876 Y-1.67022
G01 X7.28819 Y-1.67598
G01 Z-0.01462 F50.00000 ( plunge. )
G04 P0 ( dwell for no time -- G64 should not smooth over this point )
G01 F100.00000
G01 X7.28876 Y-1.68174
G01 X7.29044 Y-1.68728
G01 X7.29316 Y-1.69239
G01 X7.29684 Y-1.69686
G01 X7.30131 Y-1.70054
G01 X7.30642 Y-1.70326
G01 X7.31195 Y-1.70494
G01 X7.31772 Y-1.70551
G01 X7.81772 Y-1.70551
G01 X7.82348 Y-1.70494
G01 X7.82902 Y-1.70326
G01 X7.83412 Y-1.70054
G01 X7.83860 Y-1.69686
G01 X7.84227 Y-1.69239
G01 X7.84500 Y-1.68728
G01 X7.84668 Y-1.68174
G01 X7.84724 Y-1.67598
G01 X7.84724 Y-1.17598
G01 X7.84668 Y-1.17022
G01 X7.84500 Y-1.16468
G01 X7.84227 Y-1.15958
G01 X7.83860 Y-1.15510
G01 X7.83412 Y-1.15143
G01 X7.82902 Y-1.14870
G01 X7.82348 Y-1.14702
G01 X7.81772 Y-1.14646
G01 X7.81196 Y-1.14702
G01 X7.80642 Y-1.14870
G01 X7.80131 Y-1.15143
G01 X7.79684 Y-1.15510
G01 X7.29684 Y-1.65510
G01 X7.29316 Y-1.65958
G01 X7.29044 Y-1.66468
G01 X7.28876 Y-1.67022
G01 X7.28819 Y-1.67598
G01 Z-0.02193 F50.00000 ( plunge. )
G04 P0 ( dwell for no time -- G64 should not smooth over this point )
G01 F100.00000
G01 X7.28876 Y-1.68174
G01 X7.29044 Y-1.68728
G01 X7.29316 Y-1.69239
G01 X7.29684 Y-1.69686
G01 X7.30131 Y-1.70054
G01 X7.30642 Y-1.70326
G01 X7.31195 Y-1.70494
G01 X7.31772 Y-1.70551
G01 X7.81772 Y-1.70551
G01 X7.82348 Y-1.70494
G01 X7.82902 Y-1.70326
G01 X7.83412 Y-1.70054
G01 X7.83860 Y-1.69686
G01 X7.84227 Y-1.69239
G01 X7.84500 Y-1.68728
G01 X7.84668 Y-1.68174
G01 X7.84724 Y-1.67598
G01 X7.84724 Y-1.17598
G01 X7.84668 Y-1.17022
G01 X7.84500 Y-1.16468
G01 X7.84227 Y-1.15958
G01 X7.83860 Y-1.15510
G01 X7.83412 Y-1.15143
G01 X7.82902 Y-1.14870
G01 X7.82348 Y-1.14702
G01 X7.81772 Y-1.14646
G01 X7.81196 Y-1.14702
G01 X7.80642 Y-1.14870
G01 X7.80131 Y-1.15143
G01 X7.79684 Y-1.15510
G01 X7.29684 Y-1.65510
G01 X7.29316 Y-1.65958
G01 X7.29044 Y-1.66468
G01 X7.28876 Y-1.67022
G01 X7.28819 Y-1.67598
G01 Z-0.02925 F50.00000 ( plunge. )
G04 P0 ( dwell for no time -- G64 should not smooth over this point )
G01 F100.00000
G01 X7.28876 Y-1.68174
G01 X7.29044 Y-1.68728
G01 X7.29316 Y-1.69239
G01 X7.29684 Y-1.69686
G01 X7.30131 Y-1.70054
G01 X7.30642 Y-1.70326
G01 X7.31195 Y-1.70494
G01 X7.31772 Y-1.70551
G01 X7.43976 Y-1.70551
G00 Z-0.02362
G01 X7.69567 Y-1.70551
G01 Z-0.02925 F50.00000
G01 F100.00000
G01 X7.81772 Y-1.70551
G01 X7.82348 Y-1.70494
G01 X7.82902 Y-1.70326
G01 X7.83412 Y-1.70054
G01 X7.83860 Y-1.69686
G01 X7.84227 Y-1.69239
G01 X7.84500 Y-1.68728
G01 X7.84668 Y-1.68174
G01 X7.84724 Y-1.67598
G01 X7.84724 Y-1.55394
G00 Z-0.02362
G01 X7.84724 Y-1.29803
G01 Z-0.02925 F50.00000
G01 F100.00000
G01 X7.84724 Y-1.17598
G01 X7.84668 Y-1.17022
G01 X7.84500 Y-1.16468
G01 X7.84227 Y-1.15958
G01 X7.83860 Y-1.15510
G01 X7.83412 Y-1.15143
G01 X7.82902 Y-1.14870
G01 X7.82348 Y-1.14702
G01 X7.81772 Y-1.14646
G01 X7.81196 Y-1.14702
G01 X7.80642 Y-1.14870
G01 X7.80131 Y-1.15143
G01 X7.79684 Y-1.15510
G01 X7.63731 Y-1.31463
G00 Z-0.02362
G01 X7.45636 Y-1.49558
G01 Z-0.02925 F50.00000
G01 F100.00000
G01 X7.29684 Y-1.65510
G01 X7.29316 Y-1.65958
G01 X7.29044 Y-1.66468
G01 X7.28876 Y-1.67022
G01 X7.28819 Y-1.67598
G01 Z-0.03656 F50.00000 ( plunge. )
G04 P0 ( dwell for no time -- G64 should not smooth over this point )
G01 F100.00000
G01 X7.28876 Y-1.68174
G01 X7.29044 Y-1.68728
G01 X7.29316 Y-1.69239
G01 X7.29684 Y-1.69686
G01 X7.30131 Y-1.70054
G01 X7.30642 Y-1.70326
G01 X7.31195 Y-1.70494
G01 X7.31772 Y-1.70551
G01 X7.43976 Y-1.70551
G00 Z-0.02362
G01 X7.69567 Y-1.70551
G01 Z-0.03656 F50.00000
G01 F100.00000
G01 X7.81772 Y-1.70551
G01 X7.82348 Y-1.70494
G01 X7.82902 Y-1.70326
G01 X7.83412 Y-1.70054
G01 X7.83860 Y-1.69686
G01 X7.84227 Y-1.69239
G01 X7.84500 Y-1.68728
G01 X7.84668 Y-1.68174
G01 X7.84724 Y-1.67598
G01 X7.84724 Y-1.55394
G00 Z-0.02362
G01 X7.84724 Y-1.29803
G01 Z-0.03656 F50.00000
G01 F100.00000
G01 X7.84724 Y-1.17598
G01 X7.84668 Y-1.17022
G01 X7.84500 Y-1.16468
G01 X7.84227 Y-1.15958
G01 X7.83860 Y-1.15510
G01 X7.83412 Y-1.15143
G01 X7.82902 Y-1.14870
G01 X7.82348 Y-1.14702
G01 X7.81772 Y-1.14646
G01 X7.81196 Y-1.14702
G01 X7.80642 Y-1.14870
G01 X7.80131 Y-1.15143
G01 X7.79684 Y-1.15510
G01 X7.63731 Y-1.31463
G00 Z-0.02362
G01 X7.45636 Y-1.49558
G01 Z-0.03656 F50.00000
G01 F100.00000
G01 X7.29684 Y-1.65510
G01 X7.29316 Y-1.65958
G01 X7.29044 Y-1.66468
G01 X7.28876 Y-1.67022
G01 X7.28819 Y-1.67598
G01 Z-0.04387 F50.00000 ( plunge. )
G04 P0 ( dwell for no time -- G64 should not smooth over this point )
G01 F100.00000
G01 X7.28876 Y-1.68174
G01 X7.29044 Y-1.68728
G01 X7.29316 Y-1.69239
G01 X7.29684 Y-1.69686
G01 X7.30131 Y-1.70054
G01 X7.30642 Y-1.70326
G01 X7.31195 Y-1.70494
G01 X7.31772 Y-1.70551
G01 X7.43976 Y-1.70551
G00 Z-0.02362
G01 X7.69567 Y-1.70551
G01 Z-0.04387 F50.00000
G01 F100.00000
G01 X7.81772 Y-1.70551
G01 X7.82348 Y-1.70494
G01 X7.82902 Y-1.70326
G01 X7.83412 Y-1.70054
G01 X7.83860 Y-1.69686
G01 X7.84227 Y-1.69239
G01 X7.84500 Y-1.68728
G01 X7.84668 Y-1.68174
G01 X7.84724 Y-1.67598
G01 X7.84724 Y-1.55394
G00 Z-0.02362
G01 X7.84724 Y-1.29803
G01 Z-0.04387 F50.00000
G01 F100.00000
G01 X7.84724 Y-1.17598
G01 X7.84668 Y-1.17022
G01 X7.84500 Y-1.16468
G01 X7.84227 Y-1.15958
G01 X7.83860 Y-1.15510
G01 X7.83412 Y-1.15143
G01 X7.82902 Y-1.14870
G01 X7.82348 Y-1.14702
G01 X7.81772 Y-1.14646
G01 X7.81196 Y-1.14702
G01 X7.80642 Y-1.14870
G01 X7.80131 Y-1.15143
G01 X7.79684 Y-1.15510
G01 X7.63731 Y-1.31463
G00 Z-0.02362
G01 X7.45636 Y-1.49558
G01 Z-0.04387 F50.00000
G01 F100.00000
G01 X7.29684 Y-1.65510
G01 X7.29316 Y-1.65958
G01 X7.29044 Y-1.66468
G01 X7.28876 Y-1.67022
G01 X7.28819 Y-1.67598
G01 Z-0.05118 F50.00000 ( plunge. )
G04 P0 ( dwell for no time -- G64 should not smooth over this point )
G01 F100.00000
G01 X7.28876 Y-1.68174
G01 X7.29044 Y-1.68728
G01 X7.29316 Y-1.69239
G01 X7.29684 Y-1.69686
G01 X7.30131 Y-1.70054
G01 X7.30642 Y-1.70326
G01 X7.31195 Y-1.70494
G01 X7.31772 Y-1.70551
G01 X7.43976 Y-1.70551
G00 Z-0.02362
G01 X7.69567 Y-1.70551
G01 Z-0.05118 F50.00000
G01 F100.00000
G01 X7.81772 Y-1.70551
G01 X7.82348 Y-1.70494
G01 X7.82902 Y-1.70326
G01 X7.83412 Y-1.70054
G01 X7.83860 Y-1.69686
G01 X7.84227 Y-1.69239
G01 X7.84500 Y-1.68728
G01 X7.84668 Y-1.68174
G01 X7.84724 Y-1.67598
G01 X7.84724 Y-1.55394
G00 Z-0.02362
G01 X7.84724 Y-1.29803
G01 Z-0.05118 F50.00000
G01 F100.00000
G01 X7.84724 Y-1.17598
G01 X7.84668 Y-1.17022
G01 X7.84500 Y-1.16468
G01 X7.84227 Y-1.15958
G01 X7.83860 Y-1.15510
G01 X7.83412 Y-1.15143
G01 X7.82902 Y-1.14870
G01 X7.82348 Y-1.14702
G01 X7.81772 Y-1.14646
G01 X7.81196 Y-1.14702
G01 X7.80642 Y-1.14870
G01 X7.80131 Y-1.15143
G01 X7.79684 Y-1.15510
G01 X7.63731 Y-1.31463
G00 Z-0.02362
G01 X7.45636 Y-1.49558
G01 Z-0.05118 F50.00000
G01 F100.00000
G01 X7.29684 Y-1.65510
G01 X7.29316 Y-1.65958
G01 X7.29044 Y-1.66468
G01 X7.28876 Y-1.67022
G01 X7.28819 Y-1.67598
G04 P0 ( dwell for no time -- G64 should not smooth over this point )
G00 Z0.08000 ( retract )

G00 X8.58819 Y-3.37598 ( rapid move to begin. )
G01 Z-0.00731 F50.00000 ( plunge. )
G04 P0 ( dwell for no time -- G64 should not smooth over this point )
G01 F100.00000
G01 X8.58819 Y-2.67598
G01 X8.58876 Y-2.67022
G01 X8.59044 Y-2.66468
G01 X8.59316 Y-2.65958
G01 X8.59684 Y-2.65510
G01 X8.60131 Y-2.65143
G01 X8.60642 Y-2.64870
G01 X8.61196 Y-2.64702
G01 X8.61772 Y-2.64646
G01 X9.91772 Y-2.64646
G01 X9.92348 Y-2.64702
G01 X9.92902 Y-2.64870
G01 X9.93412 Y-2.65143
G01 X9.93860 Y-2.65510
G01 X9.94227 Y-2.65958
G01 X9.94500 Y-2.66468
G01 X9.94668 Y-2.67022
G01 X9.94724 Y-2.67598
G01 X9.94724 Y-3.37598
G01 X9.94668 Y-3.38174
G01 X9.94500 Y-3.38728
G01 X9.94227 Y-3.39239
G01 X9.93860 Y-3.39686
G01 X9.93412 Y-3.40054
G01 X9.92902 Y-3.40326
G01 X9.92348 Y-3.40494
G01 X9.91772 Y-3.40551
G01 X8.61772 Y-3.40551
G01 X8.61196 Y-3.40494
G01 X8.60642 Y-3.40326
G01 X8.60131 Y-3.40054
G01 X8.59684 Y-3.39686
G01 X8.59316 Y-3.39239
G01 X8.59044 Y-3.38728
G01 X8.58876 Y-3.38174
G01 X8.58819 Y-3.37598
G01 Z-0.01462 F50.00000 ( plunge. )
G04 P0 ( dwell for no time -- G64 should not smooth over this point )
G01 F100.00000
G01 X8.58819 Y-2.67598
G01 X8.58876 Y-2.67022
G01 X8.59044 Y-2.66468
G01 X8.59316 Y-2.65958
G01 X8.59684 Y-2.65510
G01 X8.60131 Y-2.65143
G01 X8.60642 Y-2.64870
G01 X8.61196 Y-2.64702
G01 X8.61772 Y-2.64646
G01 X9.91772 Y-2.64646
G01 X9.92348 Y-2.64702
G01 X9.92902 Y-2.64870
G01 X9.93412 Y-2.65143
G01 X9.93860 Y-2.65510
G01 X9.94227 Y-2.65958
G01 X9.94500 Y-2.66468
G01 X9.94668 Y-2.67022
G01 X9.94724 Y-2.67598
G01 X9.94724 Y-3.37598
G01 X9.94668 Y-3.38174
G01 X9.94500 Y-3.38728
G01 X9.94227 Y-3.39239
G01 X9.93860 Y-3.39686
G01 X9.93412 Y-3.40054
G01 X9.92902 Y-3.40326
G01 X9.92348 Y-3.40494
G01 X9.91772 Y-3.40551
G01 X8.61772 Y-3.40551
G01 X8.61196 Y-3.40494
G01 X8.60642 Y-3.40326
G01 X8.60131 Y-3.40054
G01 X8.59684 Y-3.39686
G01 X8.59316 Y-3.39239
G01 X8.59044 Y-3.38728
G01 X8.58876 Y-3.38174
G01 X8.58819 Y-3.37598
G01 Z-0.02193 F50.00000 ( plunge. )
G04 P0 ( dwell for no time -- G64 should not smooth over this point )
G01 F100.00000
G01 X8.58819 Y-2.67598
G01 X8.58876 Y-2.67022
G01 X8.59044 Y-2.66468
G01 X8.59316 Y-2.65958
G01 X8.59684 Y-2.65510
G01 X8.60131 Y-2.65143
G01 X8.60642 Y-2.64870
G01 X8.61196 Y-2.64702
G01 X8.61772 Y-2.64646
G01 X9.91772 Y-2.64646
G01 X9.92348 Y-2.64702
G01 X9.92902 Y-2.64870
G01 X9.93412 Y-2.65143
G01 X9.93860 Y-2.65510
G01 X9.94227 Y-2.65958
G01 X9.94500 Y-2.66468
G01 X9.94668 Y-2.67022
G01 X9.94724 Y-2.67598
G01 X9.94724 Y-3.37598
G01 X9.94668 Y-3.38174
G01 X9.94500 Y-3.38728
G01 X9.94227 Y-3.39239
G01 X9.93860 Y-3.39686
G01 X9.93412 Y-3.40054
G01 X9.92902 Y-3.40326
G01 X9.92348 Y-3.40494
G01 X9.91772 Y-3.40551
G01 X8.61772 Y-3.40551
G01 X8.61196 Y-3.40494
G01 X8.60642 Y-3.40326
G01 X8.60131 Y-3.40054
G01 X8.59684 Y-3.39686
G01 X8.59316 Y-3.39239
G01 X8.59044 Y-3.38728
G01 X8.58876 Y-3.38174
G01 X8.58819 Y-3.37598
G01 Z-0.02925 F50.00000 ( plunge. )
G04 P0 ( dwell for no time -- G64 should not smooth over this point )
G01 F100.00000
G01 X8.58819 Y-3.15394
G00 Z-0.02362
G01 X8.58819 Y-2.89803
G01 Z-0.02925 F50.00000
G01 F100.00000
G01 X8.58819 Y-2.67598
G01 X8.58876 Y-2.67022
G01 X8.59044 Y-2.66468
G01 X8.59316 Y-2.65958
G01 X8.59684 Y-2.65510
G01 X8.60131 Y-2.65143
G01 X8.60642 Y-2.64870
G01 X8.61196 Y-2.64702
G01 X8.61772 Y-2.64646
G01 X9.13976 Y-2.64646
G00 Z-0.02362
G01 X9.39567 Y-2.64646
G01 Z-0.02925 F50.00000
G01 F100.00000
G01 X9.91772 Y-2.64646
G01 X9.92348 Y-2.64702
G01 X9.92902 Y-2.64870
G01 X9.93412 Y-2.65143
G01 X9.93860 Y-2.65510
G01 X9.94227 Y-2.65958
G01 X9.94500 Y-2.66468
G01 X9.94668 Y-2.67022
G01 X9.94724 Y-2.67598
G01 X9.94724 Y-2.89803
G00 Z-0.02362
G01 X9.94724 Y-3.15394
G01 Z-0.02925 F50.00000
G01 F100.00000
G01 X9.94724 Y-3.37598
G01 X9.94668 Y-3.38174
G01 X9.94500 Y-3.38728
G01 X9.94227 Y-3.39239
G01 X9.93860 Y-3.39686
G01 X9.93412 Y-3.40054
G01 X9.92902 Y-3.40326
G01 X9.92348 Y-3.40494
G01 X9.91772 Y-3.40551
G01 X9.39567 Y-3.40551
G00 Z-0.02362
G01 X9.13976 Y-3.40551
G01 Z-0.02925 F50.00000
G01 F100.00000
G01 X8.61772 Y-3.40551
G01 X8.61196 Y-3.40494
G01 X8.60642 Y-3.40326
G01 X8.60131 Y-3.40054
G01 X8.59684 Y-3.39686
G01 X8.59316 Y-3.39239
G01 X8.59044 Y-3.38728
G01 X8.58876 Y-3.38174
G01 X8.58819 Y-3.37598
G01 Z-0.03656 F50.00000 ( plunge. )
G04 P0 ( dwell for no time -- G64 should not smooth over this point )
G01 F100.00000
G01 X8.58819 Y-3.15394
G00 Z-0.02362
G01 X8.58819 Y-2.89803
G01 Z-0.03656 F50.00000
G01 F100.00000
G01 X8.58819 Y-2.67598
G01 X8.58876 Y-2.67022
G01 X8.59044 Y-2.66468
G01 X8.59316 Y-2.65958
G01 X8.59684 Y-2.65510
G01 X8.60131 Y-2.65143
G01 X8.60642 Y-2.64870
G01 X8.61196 Y-2.64702
G01 X8.61772 Y-2.64646
G01 X9.13976 Y-2.64646
G00 Z-0.02362
G01 X9.39567 Y-2.64646
G01 Z-0.03656 F50.00000
G01 F100.00000
G01 X9.91772 Y-2.64646
G01 X9.92348 Y-2.64702
G01 X9.92902 Y-2.64870
G01 X9.93412 Y-2.65143
G01 X9.93860 Y-2.65510
G01 X9.94227 Y-2.65958
G01 X9.94500 Y-2.66468
G01 X9.94668 Y-2.67022
G01 X9.94724 Y-2.67598
G01 X9.94724 Y-2.89803
G00 Z-0.02362
G01 X9.94724 Y-3.15394
G01 Z-0.03656 F50.00000
G01 F100.00000
G01 X9.94724 Y-3.37598
G01 X9.94668 Y-3.38174
G01 X9.94500 Y-3.38728
G01 X9.94227 Y-3.39239
G01 X9.93860 Y-3.39686
G01 X9.93412 Y-3.40054
G01 X9.92902 Y-3.40326
G01 X9.92348 Y-3.40494
G01 X9.91772 Y-3.40551
G01 X9.39567 Y-3.40551
G00 Z-0.02362
G01 X9.13976 Y-3.40551
G01 Z-0.03656 F50.00000
G01 F100.00000
G01 X8.61772 Y-3.40551
G01 X8.61196 Y-3.40494
G01 X8.60642 Y-3.40326
G01 X8.60131 Y-3.40054
G01 X8.59684 Y-3.39686
G01 X8.59316 Y-3.39239
G01 X8.59044 Y-3.38728
G01 X8.58876 Y-3.38174
G01 X8.58819 Y-3.37598
G01 Z-0.04387 F50.00000 ( plunge. )
G04 P0 ( dwell for no time -- G64 should not smooth over this point )
G01 F100.00000
G01 X8.58819 Y-3.15394
G00 Z-0.02362
G01 X8.58819 Y-2.89803
G01 Z-0.04387 F50.00000
G01 F100.00000
G01 X8.58819 Y-2.67598
G01 X8.58876 Y-2.67022
G01 X8.59044 Y-2.66468
G01 X8.59316 Y-2.65958
G01 X8.59684 Y-2.65510
G01 X8.60131 Y-2.65143
G01 X8.60642 Y-2.64870
G01 X8.61196 Y-2.64702
G01 X8.61772 Y-2.64646
G01 X9.13976 Y-2.64646
G00 Z-0.02362
G01 X9.39567 Y-2.64646
G01 Z-0.04387 F50.00000
G01 F100.00000
G01 X9.91772 Y-2.64646
G01 X9.92348 Y-2.64702
G01 X9.92902 Y-2.64870
G01 X9.93412 Y-2.65143
G01 X9.93860 Y-2.65510
G01 X9.94227 Y-2.65958
G01 X9.94500 Y-2.66468
G01 X9.94668 Y-2.67022
G01 X9.94724 Y-2.67598
G01 X9.94724 Y-2.89803
G00 Z-0.02362
G01 X9.94724 Y-3.15394
G01 Z-0.04387 F50.00000
G01 F100.00000
G01 X9.94724 Y-3.37598
G01 X9.94668 Y-3.38174
G01 X9.94500 Y-3.38728
G01 X9.94227 Y-3.39239
G01 X9.93860 Y-3.39686
G01 X9.93412 Y-3.40054
G01 X9.92902 Y-3.40326
G01 X9.92348 Y-3.40494
G01 X9.91772 Y-3.40551
G01 X9.39567 Y-3.40551
G00 Z-0.02362
G01 X9.13976 Y-3.40551
G01 Z-0.04387 F50.00000
G01 F100.00000
G01 X8.61772 Y-3.40551
G01 X8.61196 Y-3.40494
G01 X8.60642 Y-3.40326
G01 X8.60131 Y-3.40054
G01 X8.59684 Y-3.39686
G01 X8.59316 Y-3.39239
G01 X8.59044 Y-3.38728
G01 X8.58876 Y-3.38174
G01 X8.58819 Y-3.37598
G01 Z-0.05118 F50.00000 ( plunge. )
G04 P0 ( dwell for no time -- G64 should not smooth over this point )
G01 F100.00000
G01 X8.58819 Y-3.15394
G00 Z-0.02362
G01 X8.58819 Y-2.89803
G01 Z-0.05118 F50.00000
G01 F100.00000
G01 X8.58819 Y-2.67598
G01 X8.58876 Y-2.67022
G01 X8.59044 Y-2.66468
G01 X8.59316 Y-2.65958
G01 X8.59684 Y-2.65510
G01 X8.60131 Y-2.65143
G01 X8.60642 Y-2.64870
G01 X8.61196 Y-2.64702
G01 X8.61772 Y-2.64646
G01 X9.13976 Y-2.64646
G00 Z-0.02362
G01 X9.39567 Y-2.64646
G01 Z-0.05118 F50.00000
G01 F100.00000
G01 X9.91772 Y-2.64646
G01 X9.92348 Y-2.64702
G01 X9.92902 Y-2.64870
G01 X9.93412 Y-2.65143
G01 X9.93860 Y-2.65510
G01 X9.94227 Y-2.65958
G01 X9.94500 Y-2.66468
G01 X9.94668 Y-2.67022
G01 X9.94724 Y-2.67598
G01 X9.94724 Y-2.89803
G00 Z-0.02362
G01 X9.94724 Y-3.15394
G01 Z-0.05118 F50.00000
G01 F100.00000
G01 X9.94724 Y-3.37598
G01 X9.94668 Y-3.38174
G01 X9.94500 Y-3.38728
G01 X9.94227 Y-3.39239
G01 X9.93860 Y-3.39686
G01 X9.93412 Y-3.40054
G01 X9.92902 Y-3.40326
G01 X9.92348 Y-3.40494
G01 X9.91772 Y-3.40551
G01 X9.39567 Y-3.40551
G00 Z-0.02362
G01 X9.13976 Y-3.40551
G01 Z-0.05118 F50.00000
G01 F100.00000
G01 X8.61772 Y-3.40551
G01 X8.61196 Y-3.40494
G01 X8.60642 Y-3.40326
G01 X8.60131 Y-3.40054
G01 X8.59684 Y-3.39686
G01 X8.59316 Y-3.39239
G01 X8.59044 Y-3.38728
G01 X8.58876 Y-3.38174
G01 X8.58819 Y-3.37598
( Piece #4, position [1;1] )

G04 P0 ( dwell for no time -- G64 should not smooth over this point )
G00 Z0.08000 ( retract )

G00 X4.56417 Y-1.67598 ( rapid move to begin. )
G01 Z-0.00731 F50.00000 ( plunge. )
G04 P0 ( dwell for no time -- G64 should not smooth over this point )
G01 F100.00000
G01 X4.56474 Y-1.68174
G01 X4.56642 Y-1.68728
G01 X4.56915 Y-1.69239
G01 X4.57282 Y-1.69686
G01 X4.57730 Y-1.70054
G01 X4.58240 Y-1.70326
G01 X4.58794 Y-1.70494
G01 X4.59370 Y-1.70551
G01 X5.09370 Y-1.70551
G01 X5.09946 Y-1.70494
G01 X5.10500 Y-1.70326
G01 X5.11010 Y-1.70054
G01 X5.11458 Y-1.69686
G01 X5.11825 Y-1.69239
G01 X5.12098 Y-1.68728
G01 X5.12266 Y-1.68174
G01 X5.12323 Y-1.67598
G01 X5.12323 Y-1.17598
G01 X5.12266 Y-1.17022
G01 X5.12098 Y-1.16468
G01 X5.11825 Y-1.15958
G01 X5.11458 Y-1.15510
G01 X5.11010 Y-1.15143
G01 X5.10500 Y-1.14870
G01 X5.09946 Y-1.14702
G01 X5.09370 Y-1.14646
G01 X5.08794 Y-1.14702
G01 X5.08240 Y-1.14870
G01 X5.07730 Y-1.15143
G01 X5.07282 Y-1.15510
G01 X4.57282 Y-1.65510
G01 X4.56915 Y-1.65958
G01 X4.56642 Y-1.66468
G01 X4.56474 Y-1.67022
G01 X4.56417 Y-1.67598
G01 Z-0.01462 F50.00000 ( plunge. )
G04 P0 ( dwell for no time -- G64 should not smooth over this point )
G01 F100.00000
G01 X4.56474 Y-1.68174
G01 X4.56642 Y-1.68728
G01 X4.56915 Y-1.69239
G01 X4.57282 Y-1.69686
G01 X4.57730 Y-1.70054
G01 X4.58240 Y-1.70326
G01 X4.58794 Y-1.70494
G01 X4.59370 Y-1.70551
G01 X5.09370 Y-1.70551
G01 X5.09946 Y-1.70494
G01 X5.10500 Y-1.70326
G01 X5.11010 Y-1.70054
G01 X5.11458 Y-1.69686
G01 X5.11825 Y-1.69239
G01 X5.12098 Y-1.68728
G01 X5.12266 Y-1.68174
G01 X5.12323 Y-1.67598
G01 X5.12323 Y-1.17598
G01 X5.12266 Y-1.17022
G01 X5.12098 Y-1.16468
G01 X5.11825 Y-1.15958
G01 X5.11458 Y-1.15510
G01 X5.11010 Y-1.15143
G01 X5.10500 Y-1.14870
G01 X5.09946 Y-1.14702
G01 X5.09370 Y-1.14646
G01 X5.08794 Y-1.14702
G01 X5.08240 Y-1.14870
G01 X5.07730 Y-1.15143
G01 X5.07282 Y-1.15510
G01 X4.57282 Y-1.65510
G01 X4.56915 Y-1.65958
G01 X4.56642 Y-1.66468
G01 X4.56474 Y-1.67022
G01 X4.56417 Y-1.67598
G01 Z-0.02193 F50.00000 ( plunge. )
G04 P0 ( dwell for no time -- G64 should not smooth over this point )
G01 F100.00000
G01 X4.56474 Y-1.68174
G01 X4.56642 Y-1.68728
G01 X4.56915 Y-1.69239
G01 X4.57282 Y-1.69686
G01 X4.57730 Y-1.70054
G01 X4.58240 Y-1.70326
G01 X4.58794 Y-1.70494
G01 X4.59370 Y-1.70551
G01 X5.09370 Y-1.70551
G01 X5.09946 Y-1.70494
G01 X5.10500 Y-1.70326
G01 X5.11010 Y-1.70054
G01 X5.11458 Y-1.69686
G01 X5.11825 Y-1.69239
G01 X5.12098 Y-1.68728
G01 X5.12266 Y-1.68174
G01 X5.12323 Y-1.67598
G01 X5.12323 Y-1.17598
G01 X5.12266 Y-1.17022
G01 X5.12098 Y-1.16468
G01 X5.11825 Y-1.15958
G01 X5.11458 Y-1.15510
G01 X5.11010 Y-1.15143
G01 X5.10500 Y-1.14870
G01 X5.09946 Y-1.14702
G01 X5.09370 Y-1.14646
G01 X5.08794 Y-1.14702
G01 X5.08240 Y-1.14870
G01 X5.07730 Y-1.15143
G01 X5.07282 Y-1.15510
G01 X4.57282 Y-1.65510
G01 X4.56915 Y-1.65958
G01 X4.56642 Y-1.66468
G01 X4.56474 Y-1.67022
G01 X4.56417 Y-1.67598
G01 Z-0.02925 F50.00000 ( plunge. )
G04 P0 ( dwell for no time -- G64 should not smooth over this point )
G01 F100.00000
G01 X4.56474 Y-1.68174
G01 X4.56642 Y-1.68728
G01 X4.56915 Y-1.69239
G01 X4.57282 Y-1.69686
G01 X4.57730 Y-1.70054
G01 X4.58240 Y-1.70326
G01 X4.58794 Y-1.70494
G01 X4.59370 Y-1.70551
G01 X4.71575 Y-1.70551
G00 Z-0.02362
G01 X4.97165 Y-1.70551
G01 Z-0.02925 F50.00000
G01 F100.00000
G01 X5.09370 Y-1.70551
G01 X5.09946 Y-1.70494
G01 X5.10500 Y-1.70326
G01 X5.11010 Y-1.70054
G01 X5.11458 Y-1.69686
G01 X5.11825 Y-1.69239
G01 X5.12098 Y-1.68728
G01 X5.12266 Y-1.68174
G01 X5.12323 Y-1.67598
G01 X5.12323 Y-1.55394
G00 Z-0.02362
G01 X5.12323 Y-1.29803
G01 Z-0.02925 F50.00000
G01 F100.00000
G01 X5.12323 Y-1.17598
G01 X5.12266 Y-1.17022
G01 X5.12098 Y-1.16468
G01 X5.11825 Y-1.15958
G01 X5.11458 Y-1.15510
G01 X5.11010 Y-1.15143
G01 X5.10500 Y-1.14870
G01 X5.09946 Y-1.14702
G01 X5.09370 Y-1.14646
G01 X5.08794 Y-1.14702
G01 X5.08240 Y-1.14870
G01 X5.07730 Y-1.15143
G01 X5.07282 Y-1.15510
G01 X4.91330 Y-1.31463
G00 Z-0.02362
G01 X4.73234 Y-1.49558
G01 Z-0.02925 F50.00000
G01 F100.00000
G01 X4.57282 Y-1.65510
G01 X4.56915 Y-1.65958
G01 X4.56642 Y-1.66468
G01 X4.56474 Y-1.67022
G01 X4.56417 Y-1.67598
G01 Z-0.03656 F50.00000 ( plunge. )
G04 P0 ( dwell for no time -- G64 should not smooth over this point )
G01 F100.00000
G01 X4.56474 Y-1.68174
G01 X4.56642 Y-1.68728
G01 X4.56915 Y-1.69239
G01 X4.57282 Y-1.69686
G01 X4.57730 Y-1.70054
G01 X4.58240 Y-1.70326
G01 X4.58794 Y-1.70494
G01 X4.59370 Y-1.70551
G01 X4.71575 Y-1.70551
G00 Z-0.02362
G01 X4.97165 Y-1.70551
G01 Z-0.03656 F50.00000
G01 F100.00000
G01 X5.09370 Y-1.70551
G01 X5.09946 Y-1.70494
G01 X5.10500 Y-1.70326
G01 X5.11010 Y-1.70054
G01 X5.11458 Y-1.69686
G01 X5.11825 Y-1.69239
G01 X5.12098 Y-1.68728
G01 X5.12266 Y-1.68174
G01 X5.12323 Y-1.67598
G01 X5.12323 Y-1.55394
G00 Z-0.02362
G01 X5.12323 Y-1.29803
G01 Z-0.03656 F50.00000
G01 F100.00000
G01 X5.12323 Y-1.17598
G01 X5.12266 Y-1.17022
G01 X5.12098 Y-1.16468
G01 X5.11825 Y-1.15958
G01 X5.11458 Y-1.15510
G01 X5.11010 Y-1.15143
G01 X5.10500 Y-1.14870
G01 X5.09946 Y-1.14702
G01 X5.09370 Y-1.14646
G01 X5.08794 Y-1.14702
G01 X5.08240 Y-1.14870
G01 X5.07730 Y-1.15143
G01 X5.07282 Y-1.15510
G01 X4.91330 Y-1.31463
G00 Z-0.02362
G01 X4.73234 Y-1.49558
G01 Z-0.03656 F50.00000
G01 F100.00000
G01 X4.57282 Y-1.65510
G01 X4.56915 Y-1.65958
G01 X4.56642 Y-1.66468
G01 X4.56474 Y-1.67022
G01 X4.56417 Y-1.67598
G01 Z-0.04387 F50.00000 ( plunge. )
G04 P0 ( dwell for no time -- G64 should not smooth over this point )
G01 F100.00000
G01 X4.56474 Y-1.68174
G01 X4.56642 Y-1.68728
G01 X4.56915 Y-1.69239
G01 X4.57282 Y-1.69686
G01 X4.57730 Y-1.70054
G01 X4.58240 Y-1.70326
G01 X4.58794 Y-1.70494
G01 X4.59370 Y-1.70551
G01 X4.71575 Y-1.70551
G00 Z-0.02362
G01 X4.97165 Y-1.70551
G01 Z-0.04387 F50.00000
G01 F100.00000
G01 X5.09370 Y-1.70551
G01 X5.09946 Y-1.70494
G01 X5.10500 Y-1.70326
G01 X5.11010 Y-1.70054
G01 X5.11458 Y-1.69686
G01 X5.11825 Y-1.69239
G01 X5.12098 Y-1.68728
G01 X5.12266 Y-1.68174
G01 X5.12323 Y-1.67598
G01 X5.12323 Y-1.55394
G00 Z-0.02362
G01 X5.12323 Y-1.29803
G01 Z-0.04387 F50.00000
G01 F100.00000
G01 X5.12323 Y-1.17598
G01 X5.12266 Y-1.17022
G01 X5.12098 Y-1.16468
G01 X5.11825 Y-1.15958
G01 X5.11458 Y-1.15510
G01 X5.11010 Y-1.15143
G01 X5.10500 Y-1.14870
G01 X5.09946 Y-1.14702
G01 X5.09370 Y-1.14646
G01 X5.08794 Y-1.14702
G01 X5.08240 Y-1.14870
G01 X5.07730 Y-1.15143
G01 X5.07282 Y-1.15510
G01 X4.91330 Y-1.31463
G00 Z-0.02362
G01 X4.73234 Y-1.49558
G01 Z-0.04387 F50.00000
G01 F100.00000
G01 X4.57282 Y-1.65510
G01 X4.56915 Y-1.65958
G01 X4.56642 Y-1.66468
G01 X4.56474 Y-1.67022
G01 X4.56417 Y-1.67598
G01 Z-0.05118 F50.00000 ( plunge. )
G04 P0 ( dwell for no time -- G64 should not smooth over this point )
G01 F100.00000
G01 X4.56474 Y-1.68174
G01 X4.56642 Y-1.68728
G01 X4.56915 Y-1.69239
G01 X4.57282 Y-1.69686
G01 X4.57730 Y-1.70054
G01 X4.58240 Y-1.70326
G01 X4.58794 Y-1.70494
G01 X4.59370 Y-1.70551
G01 X4.71575 Y-1.70551
G00 Z-0.02362
G01 X4.97165 Y-1.70551
G01 Z-0.05118 F50.00000
G01 F100.00000
G01 X5.09370 Y-1.70551
G01 X5.09946 Y-1.70494
G01 X5.10500 Y-1.70326
G01 X5.11010 Y-1.70054
G01 X5.11458 Y-1.69686
G01 X5.11825 Y-1.69239
G01 X5.12098 Y-1.68728
G01 X5.12266 Y-1.68174
G01 X5.12323 Y-1.67598
G01 X5.12323 Y-1.55394
G00 Z-0.02362
G01 X5.12323 Y-1.29803
G01 Z-0.05118 F50.00000
G01 F100.00000
G01 X5.12323 Y-1.17598
G01 X5.12266 Y-1.17022
G01 X5.12098 Y-1.16468
G01 X5.11825 Y-1.15958
G01 X5.11458 Y-1.15510
G01 X5.11010 Y-1.15143
G01 X5.10500 Y-1.14870
G01 X5.09946 Y-1.14702
G01 X5.09370 Y-1.14646
G01 X5.08794 Y-1.14702
G01 X5.08240 Y-1.14870
G01 X5.07730 Y-1.15143
G01 X5.07282 Y-1.15510
G01 X4.91330 Y-1.31463
G00 Z-0.02362
G01 X4.73234 Y-1.49558
G01 Z-0.05118 F50.00000
G01 F100.00000
G01 X4.57282 Y-1.65510
G01 X4.56915 Y-1.65958
G01 X4.56642 Y-1.66468
G01 X4.56474 Y-1.67022
G01 X4.56417 Y-1.67598
G04 P0 ( dwell for no time -- G64 should not smooth over this point )
G00 Z0.08000 ( retract )

G00 X5.86417 Y-3.37598 ( rapid move to begin. )
G01 Z-0.00731 F50.00000 ( plunge. )
G04 P0 ( dwell for no time -- G64 should not smooth over this point )
G01 F100.00000
G01 X5.86417 Y-2.67598
G01 X5.86474 Y-2.67022
G01 X5.86642 Y-2.66468
G01 X5.86915 Y-2.65958
G01 X5.87282 Y-2.65510
G01 X5.87730 Y-2.65143
G01 X5.88240 Y-2.64870
G01 X5.88794 Y-2.64702
G01 X5.89370 Y-2.64646
G01 X7.19370 Y-2.64646
G01 X7.19946 Y-2.64702
G01 X7.20500 Y-2.64870
G01 X7.21010 Y-2.65143
G01 X7.21458 Y-2.65510
G01 X7.21825 Y-2.65958
G01 X7.22098 Y-2.66468
G01 X7.22266 Y-2.67022
G01 X7.22323 Y-2.67598
G01 X7.22323 Y-3.37598
G01 X7.22266 Y-3.38174
G01 X7.22098 Y-3.38728
G01 X7.21825 Y-3.39239
G01 X7.21458 Y-3.39686
G01 X7.21010 Y-3.40054
G01 X7.20500 Y-3.40326
G01 X7.19946 Y-3.40494
G01 X7.19370 Y-3.40551
G01 X5.89370 Y-3.40551
G01 X5.88794 Y-3.40494
G01 X5.88240 Y-3.40326
G01 X5.87730 Y-3.40054
G01 X5.87282 Y-3.39686
G01 X5.86915 Y-3.39239
G01 X5.86642 Y-3.38728
G01 X5.86474 Y-3.38174
G01 X5.86417 Y-3.37598
G01 Z-0.01462 F50.00000 ( plunge. )
G04 P0 ( dwell for no time -- G64 should not smooth over this point )
G01 F100.00000
G01 X5.86417 Y-2.67598
G01 X5.86474 Y-2.67022
G01 X5.86642 Y-2.66468
G01 X5.86915 Y-2.65958
G01 X5.87282 Y-2.65510
G01 X5.87730 Y-2.65143
G01 X5.88240 Y-2.64870
G01 X5.88794 Y-2.64702
G01 X5.89370 Y-2.64646
G01 X7.19370 Y-2.64646
G01 X7.19946 Y-2.64702
G01 X7.20500 Y-2.64870
G01 X7.21010 Y-2.65143
G01 X7.21458 Y-2.65510
G01 X7.21825 Y-2.65958
G01 X7.22098 Y-2.66468
G01 X7.22266 Y-2.67022
G01 X7.22323 Y-2.67598
G01 X7.22323 Y-3.37598
G01 X7.22266 Y-3.38174
G01 X7.22098 Y-3.38728
G01 X7.21825 Y-3.39239
G01 X7.21458 Y-3.39686
G01 X7.21010 Y-3.40054
G01 X7.20500 Y-3.40326
G01 X7.19946 Y-3.40494
G01 X7.19370 Y-3.40551
G01 X5.89370 Y-3.40551
G01 X5.88794 Y-3.40494
G01 X5.88240 Y-3.40326
G01 X5.87730 Y-3.40054
G01 X5.87282 Y-3.39686
G01 X5.86915 Y-3.39239
G01 X5.86642 Y-3.38728
G01 X5.86474 Y-3.38174
G01 X5.86417 Y-3.37598
G01 Z-0.02193 F50.00000 ( plunge. )
G04 P0 ( dwell for no time -- G64 should not smooth over this point )
G01 F100.00000
G01 X5.86417 Y-2.67598
G01 X5.86474 Y-2.67022
G01 X5.86642 Y-2.66468
G01 X5.86915 Y-2.65958
G01 X5.87282 Y-2.65510
G01 X5.87730 Y-2.65143
G01 X5.88240 Y-2.64870
G01 X5.88794 Y-2.64702
G01 X5.89370 Y-2.64646
G01 X7.19370 Y-2.64646
G01 X7.19946 Y-2.64702
G01 X7.20500 Y-2.64870
G01 X7.21010 Y-2.65143
G01 X7.21458 Y-2.65510
G01 X7.21825 Y-2.65958
G01 X7.22098 Y-2.66468
G01 X7.22266 Y-2.67022
G01 X7.22323 Y-2.67598
G01 X7.22323 Y-3.37598
G01 X7.22266 Y-3.38174
G01 X7.22098 Y-3.38728
G01 X7.21825 Y-3.39239
G01 X7.21458 Y-3.39686
G01 X7.21010 Y-3.40054
G01 X7.20500 Y-3.40326
G01 X7.19946 Y-3.40494
G01 X7.19370 Y-3.40551
G01 X5.89370 Y-3.40551
G01 X5.88794 Y-3.40494
G01 X5.88240 Y-3.40326
G01 X5.87730 Y-3.40054
G01 X5.87282 Y-3.39686
G01 X5.86915 Y-3.39239
G01 X5.86642 Y-3.38728
G01 X5.86474 Y-3.38174
G01 X5.86417 Y-3.37598
G01 Z-0.02925 F50.00000 ( plunge. )
G04 P0 ( dwell for no time -- G64 should not smooth over this point )
G01 F100.00000
G01 X5.86417 Y-3.15394
G00 Z-0.02362
G01 X5.86417 Y-2.89803
G01 Z-0.02925 F50.00000
G01 F100.00000
G01 X5.86417 Y-2.67598
G01 X5.86474 Y-2.67022
G01 X5.86642 Y-2.66468
G01 X5.86915 Y-2.65958
G01 X5.87282 Y-2.65510
G01 X5.87730 Y-2.65143
G01 X5.88240 Y-2.64870
G01 X5.88794 Y-2.64702
G01 X5.89370 Y-2.64646
G01 X6.41575 Y-2.64646
G00 Z-0.02362
G01 X6.67165 Y-2.64646
G01 Z-0.02925 F50.00000
G01 F100.00000
G01 X7.19370 Y-2.64646
G01 X7.19946 Y-2.64702
G01 X7.20500 Y-2.64870
G01 X7.21010 Y-2.65143
G01 X7.21458 Y-2.65510
G01 X7.21825 Y-2.65958
G01 X7.22098 Y-2.66468
G01 X7.22266 Y-2.67022
G01 X7.22323 Y-2.67598
G01 X7.22323 Y-2.89803
G00 Z-0.02362
G01 X7.22323 Y-3.15394
G01 Z-0.02925 F50.00000
G01 F100.00000
G01 X7.22323 Y-3.37598
G01 X7.22266 Y-3.38174
G01 X7.22098 Y-3.38728
G01 X7.21825 Y-3.39239
G01 X7.21458 Y-3.39686
G01 X7.21010 Y-3.40054
G01 X7.20500 Y-3.40326
G01 X7.19946 Y-3.40494
G01 X7.19370 Y-3.40551
G01 X6.67165 Y-3.40551
G00 Z-0.02362
G01 X6.41575 Y-3.40551
G01 Z-0.02925 F50.00000
G01 F100.00000
G01 X5.89370 Y-3.40551
G01 X5.88794 Y-3.40494
G01 X5.88240 Y-3.40326
G01 X5.87730 Y-3.40054
G01 X5.87282 Y-3.39686
G01 X5.86915 Y-3.39239
G01 X5.86642 Y-3.38728
G01 X5.86474 Y-3.38174
G01 X5.86417 Y-3.37598
G01 Z-0.03656 F50.00000 ( plunge. )
G04 P0 ( dwell for no time -- G64 should not smooth over this point )
G01 F100.00000
G01 X5.86417 Y-3.15394
G00 Z-0.02362
G01 X5.86417 Y-2.89803
G01 Z-0.03656 F50.00000
G01 F100.00000
G01 X5.86417 Y-2.67598
G01 X5.86474 Y-2.67022
G01 X5.86642 Y-2.66468
G01 X5.86915 Y-2.65958
G01 X5.87282 Y-2.65510
G01 X5.87730 Y-2.65143
G01 X5.88240 Y-2.64870
G01 X5.88794 Y-2.64702
G01 X5.89370 Y-2.64646
G01 X6.41575 Y-2.64646
G00 Z-0.02362
G01 X6.67165 Y-2.64646
G01 Z-0.03656 F50.00000
G01 F100.00000
G01 X7.19370 Y-2.64646
G01 X7.19946 Y-2.64702
G01 X7.20500 Y-2.64870
G01 X7.21010 Y-2.65143
G01 X7.21458 Y-2.65510
G01 X7.21825 Y-2.65958
G01 X7.22098 Y-2.66468
G01 X7.22266 Y-2.67022
G01 X7.22323 Y-2.67598
G01 X7.22323 Y-2.89803
G00 Z-0.02362
G01 X7.22323 Y-3.15394
G01 Z-0.03656 F50.00000
G01 F100.00000
G01 X7.22323 Y-3.37598
G01 X7.22266 Y-3.38174
G01 X7.22098 Y-3.38728
G01 X7.21825 Y-3.39239
G01 X7.21458 Y-3.39686
G01 X7.21010 Y-3.40054
G01 X7.20500 Y-3.40326
G01 X7.19946 Y-3.40494
G01 X7.19370 Y-3.40551
G01 X6.67165 Y-3.40551
G00 Z-0.02362
G01 X6.41575 Y-3.40551
G01 Z-0.03656 F50.00000
G01 F100.00000
G01 X5.89370 Y-3.40551
G01 X5.88794 Y-3.40494
G01 X5.88240 Y-3.40326
G01 X5.87730 Y-3.40054
G01 X5.87282 Y-3.39686
G01 X5.86915 Y-3.39239
G01 X5.86642 Y-3.38728
G01 X5.86474 Y-3.38174
G01 X5.86417 Y-3.37598
G01 Z-0.04387 F50.00000 ( plunge. )
G04 P0 ( dwell for no time -- G64 should not smooth over this point )
G01 F100.00000
G01 X5.86417 Y-3.15394
G00 Z-0.02362
G01 X5.86417 Y-2.89803
G01 Z-0.04387 F50.00000
G01 F100.00000
G01 X5.86417 Y-2.67598
G01 X5.86474 Y-2.67022
G01 X5.86642 Y-2.66468
G01 X5.86915 Y-2.65958
G01 X5.87282 Y-2.65510
G01 X5.87730 Y-2.65143
G01 X5.88240 Y-2.64870
G01 X5.88794 Y-2.64702
G01 X5.89370 Y-2.64646
G01 X6.41575 Y-2.64646
G00 Z-0.02362
G01 X6.67165 Y-2.64646
G01 Z-0.04387 F50.00000
G01 F100.00000
G01 X7.19370 Y-2.64646
G01 X7.19946 Y-2.64702
G01 X7.20500 Y-2.64870
G01 X7.21010 Y-2.65143
G01 X7.21458 Y-2.65510
G01 X7.21825 Y-2.65958
G01 X7.22098 Y-2.66468
G01 X7.22266 Y-2.67022
G01 X7.22323 Y-2.67598
G01 X7.22323 Y-2.89803
G00 Z-0.02362
G01 X7.22323 Y-3.15394
G01 Z-0.04387 F50.00000
G01 F100.00000
G01 X7.22323 Y-3.37598
G01 X7.22266 Y-3.38174
G01 X7.22098 Y-3.38728
G01 X7.21825 Y-3.39239
G01 X7.21458 Y-3.39686
G01 X7.21010 Y-3.40054
G01 X7.20500 Y-3.40326
G01 X7.19946 Y-3.40494
G01 X7.19370 Y-3.40551
G01 X6.67165 Y-3.40551
G00 Z-0.02362
G01 X6.41575 Y-3.40551
G01 Z-0.04387 F50.00000
G01 F100.00000
G01 X5.89370 Y-3.40551
G01 X5.88794 Y-3.40494
G01 X5.88240 Y-3.40326
G01 X5.87730 Y-3.40054
G01 X5.87282 Y-3.39686
G01 X5.86915 Y-3.39239
G01 X5.86642 Y-3.38728
G01 X5.86474 Y-3.38174
G01 X5.86417 Y-3.37598
G01 Z-0.05118 F50.00000 ( plunge. )
G04 P0 ( dwell for no time -- G64 should not smooth over this point )
G01 F100.00000
G01 X5.86417 Y-3.15394
G00 Z-0.02362
G01 X5.86417 Y-2.89803
G01 Z-0.05118 F50.00000
G01 F100.00000
G01 X5.86417 Y-2.67598
G01 X5.86474 Y-2.67022
G01 X5.86642 Y-2.66468
G01 X5.86915 Y-2.65958
G01 X5.87282 Y-2.65510
G01 X5.87730 Y-2.65143
G01 X5.88240 Y-2.64870
G01 X5.88794 Y-2.64702
G01 X5.89370 Y-2.64646
G01 X6.41575 Y-2.64646
G00 Z-0.02362
G01 X6.67165 Y-2.64646
G01 Z-0.05118 F50.00000
G01 F100.00000
G01 X7.19370 Y-2.64646
G01 X7.19946 Y-2.64702
G01 X7.20500 Y-2.64870
G01 X7.21010 Y-2.65143
G01 X7.21458 Y-2.65510
G01 X7.21825 Y-2.65958
G01 X7.22098 Y-2.66468
G01 X7.22266 Y-2.67022
G01 X7.22323 Y-2.67598
G01 X7.22323 Y-2.89803
G00 Z-0.02362
G01 X7.22323 Y-3.15394
G01 Z-0.05118 F50.00000
G01 F100.00000
G01 X7.22323 Y-3.37598
G01 X7.22266 Y-3.38174
G01 X7.22098 Y-3.38728
G01 X7.21825 Y-3.39239
G01 X7.21458 Y-3.39686
G01 X7.21010 Y-3.40054
G01 X7.20500 Y-3.40326
G01 X7.19946 Y-3.40494
G01 X7.19370 Y-3.40551
G01 X6.67165 Y-3.40551
G00 Z-0.02362
G01 X6.41575 Y-3.40551
G01 Z-0.05118 F50.00000
G01 F100.00000
G01 X5.89370 Y-3.40551
G01 X5.88794 Y-3.40494
G01 X5.88240 Y-3.40326
G01 X5.87730 Y-3.40054
G01 X5.87282 Y-3.39686
G01 X5.86915 Y-3.39239
G01 X5.86642 Y-3.38728
G01 X5.86474 Y-3.38174
G01 X5.86417 Y-3.37598
( Piece #5, position [0;2] )

G04 P0 ( dwell for no time -- G64 should not smooth over this point )
G00 Z0.08000 ( retract )

G00 X4.56417 Y0.64803 ( rapid move to begin. )
G01 Z-0.00731 F50.00000 ( plunge. )
G04 P0 ( dwell for no time -- G64 should not smooth over this point )
G01 F100.00000
G01 X4.56474 Y0.64227
G01 X4.56642 Y0.63673
G01 X4.56915 Y0.63163
G01 X4.57282 Y0.62715
G01 X4.57730 Y0.62348
G01 X4.58240 Y0.62075
G01 X4.58794 Y0.61907
G01 X4.59370 Y0.61850
G01 X5.09370 Y0.61850
G01 X5.09946 Y0.61907
G01 X5.10500 Y0.62075
G01 X5.11010 Y0.62348
G01 X5.11458 Y0.62715
G01 X5.11825 Y0.63163
G01 X5.12098 Y0.63673
G01 X5.12266 Y0.64227
G01 X5.12323 Y0.64803
G01 X5.12323 Y1.14803
G01 X5.12266 Y1.15379
G01 X5.12098 Y1.15933
G01 X5.11825 Y1.16444
G01 X5.11458 Y1.16891
G01 X5.11010 Y1.17258
G01 X5.10500 Y1.17531
G01 X5.09946 Y1.17699
G01 X5.09370 Y1.17756
G01 X5.08794 Y1.17699
G01 X5.08240 Y1.17531
G01 X5.07730 Y1.17258
G01 X5.07282 Y1.16891
G01 X4.57282 Y0.66891
G01 X4.56915 Y0.66444
G01 X4.56642 Y0.65933
G01 X4.56474 Y0.65379
G01 X4.56417 Y0.64803
G01 Z-0.01462 F50.00000 ( plunge. )
G04 P0 ( dwell for no time -- G64 should not smooth over this point )
G01 F100.00000
G01 X4.56474 Y0.64227
G01 X4.56642 Y0.63673
G01 X4.56915 Y0.63163
G01 X4.57282 Y0.62715
G01 X4.57730 Y0.62348
G01 X4.58240 Y0.62075
G01 X4.58794 Y0.61907
G01 X4.59370 Y0.61850
G01 X5.09370 Y0.61850
G01 X5.09946 Y0.61907
G01 X5.10500 Y0.62075
G01 X5.11010 Y0.62348
G01 X5.11458 Y0.62715
G01 X5.11825 Y0.63163
G01 X5.12098 Y0.63673
G01 X5.12266 Y0.64227
G01 X5.12323 Y0.64803
G01 X5.12323 Y1.14803
G01 X5.12266 Y1.15379
G01 X5.12098 Y1.15933
G01 X5.11825 Y1.16444
G01 X5.11458 Y1.16891
G01 X5.11010 Y1.17258
G01 X5.10500 Y1.17531
G01 X5.09946 Y1.17699
G01 X5.09370 Y1.17756
G01 X5.08794 Y1.17699
G01 X5.08240 Y1.17531
G01 X5.07730 Y1.17258
G01 X5.07282 Y1.16891
G01 X4.57282 Y0.66891
G01 X4.56915 Y0.66444
G01 X4.56642 Y0.65933
G01 X4.56474 Y0.65379
G01 X4.56417 Y0.64803
G01 Z-0.02193 F50.00000 ( plunge. )
G04 P0 ( dwell for no time -- G64 should not smooth over this point )
G01 F100.00000
G01 X4.56474 Y0.64227
G01 X4.56642 Y0.63673
G01 X4.56915 Y0.63163
G01 X4.57282 Y0.62715
G01 X4.57730 Y0.62348
G01 X4.58240 Y0.62075
G01 X4.58794 Y0.61907
G01 X4.59370 Y0.61850
G01 X5.09370 Y0.61850
G01 X5.09946 Y0.61907
G01 X5.10500 Y0.62075
G01 X5.11010 Y0.62348
G01 X5.11458 Y0.62715
G01 X5.11825 Y0.63163
G01 X5.12098 Y0.63673
G01 X5.12266 Y0.64227
G01 X5.12323 Y0.64803
G01 X5.12323 Y1.14803
G01 X5.12266 Y1.15379
G01 X5.12098 Y1.15933
G01 X5.11825 Y1.16444
G01 X5.11458 Y1.16891
G01 X5.11010 Y1.17258
G01 X5.10500 Y1.17531
G01 X5.09946 Y1.17699
G01 X5.09370 Y1.17756
G01 X5.08794 Y1.17699
G01 X5.08240 Y1.17531
G01 X5.07730 Y1.17258
G01 X5.07282 Y1.16891
G01 X4.57282 Y0.66891
G01 X4.56915 Y0.66444
G01 X4.56642 Y0.65933
G01 X4.56474 Y0.65379
G01 X4.56417 Y0.64803
G01 Z-0.02925 F50.00000 ( plunge. )
G04 P0 ( dwell for no time -- G64 should not smooth over this point )
G01 F100.00000
G01 X4.56474 Y0.64227
G01 X4.56642 Y0.63673
G01 X4.56915 Y0.63163
G01 X4.57282 Y0.62715
G01 X4.57730 Y0.62348
G01 X4.58240 Y0.62075
G01 X4.58794 Y0.61907
G01 X4.59370 Y0.61850
G01 X4.71575 Y0.61850
G00 Z-0.02362
G01 X4.97165 Y0.61850
G01 Z-0.02925 F50.00000
G01 F100.00000
G01 X5.09370 Y0.61850
G01 X5.09946 Y0.61907
G01 X5.10500 Y0.62075
G01 X5.11010 Y0.62348
G01 X5.11458 Y0.62715
G01 X5.11825 Y0.63163
G01 X5.12098 Y0.63673
G01 X5.12266 Y0.64227
G01 X5.12323 Y0.64803
G01 X5.12323 Y0.77008
G00 Z-0.02362
G01 X5.12323 Y1.02598
G01 Z-0.02925 F50.00000
G01 F100.00000
G01 X5.12323 Y1.14803
G01 X5.12266 Y1.15379
G01 X5.12098 Y1.15933
G01 X5.11825 Y1.16444
G01 X5.11458 Y1.16891
G01 X5.11010 Y1.17258
G01 X5.10500 Y1.17531
G01 X5.09946 Y1.17699
G01 X5.09370 Y1.17756
G01 X5.08794 Y1.17699
G01 X5.08240 Y1.17531
G01 X5.07730 Y1.17258
G01 X5.07282 Y1.16891
G01 X4.91330 Y1.00939
G00 Z-0.02362
G01 X4.73234 Y0.82844
G01 Z-0.02925 F50.00000
G01 F100.00000
G01 X4.57282 Y0.66891
G01 X4.56915 Y0.66444
G01 X4.56642 Y0.65933
G01 X4.56474 Y0.65379
G01 X4.56417 Y0.64803
G01 Z-0.03656 F50.00000 ( plunge. )
G04 P0 ( dwell for no time -- G64 should not smooth over this point )
G01 F100.00000
G01 X4.56474 Y0.64227
G01 X4.56642 Y0.63673
G01 X4.56915 Y0.63163
G01 X4.57282 Y0.62715
G01 X4.57730 Y0.62348
G01 X4.58240 Y0.62075
G01 X4.58794 Y0.61907
G01 X4.59370 Y0.61850
G01 X4.71575 Y0.61850
G00 Z-0.02362
G01 X4.97165 Y0.61850
G01 Z-0.03656 F50.00000
G01 F100.00000
G01 X5.09370 Y0.61850
G01 X5.09946 Y0.61907
G01 X5.10500 Y0.62075
G01 X5.11010 Y0.62348
G01 X5.11458 Y0.62715
G01 X5.11825 Y0.63163
G01 X5.12098 Y0.63673
G01 X5.12266 Y0.64227
G01 X5.12323 Y0.64803
G01 X5.12323 Y0.77008
G00 Z-0.02362
G01 X5.12323 Y1.02598
G01 Z-0.03656 F50.00000
G01 F100.00000
G01 X5.12323 Y1.14803
G01 X5.12266 Y1.15379
G01 X5.12098 Y1.15933
G01 X5.11825 Y1.16444
G01 X5.11458 Y1.16891
G01 X5.11010 Y1.17258
G01 X5.10500 Y1.17531
G01 X5.09946 Y1.17699
G01 X5.09370 Y1.17756
G01 X5.08794 Y1.17699
G01 X5.08240 Y1.17531
G01 X5.07730 Y1.17258
G01 X5.07282 Y1.16891
G01 X4.91330 Y1.00939
G00 Z-0.02362
G01 X4.73234 Y0.82844
G01 Z-0.03656 F50.00000
G01 F100.00000
G01 X4.57282 Y0.66891
G01 X4.56915 Y0.66444
G01 X4.56642 Y0.65933
G01 X4.56474 Y0.65379
G01 X4.56417 Y0.64803
G01 Z-0.04387 F50.00000 ( plunge. )
G04 P0 ( dwell for no time -- G64 should not smooth over this point )
G01 F100.00000
G01 X4.56474 Y0.64227
G01 X4.56642 Y0.63673
G01 X4.56915 Y0.63163
G01 X4.57282 Y0.62715
G01 X4.57730 Y0.62348
G01 X4.58240 Y0.62075
G01 X4.58794 Y0.61907
G01 X4.59370 Y0.61850
G01 X4.71575 Y0.61850
G00 Z-0.02362
G01 X4.97165 Y0.61850
G01 Z-0.04387 F50.00000
G01 F100.00000
G01 X5.09370 Y0.61850
G01 X5.09946 Y0.61907
G01 X5.10500 Y0.62075
G01 X5.11010 Y0.62348
G01 X5.11458 Y0.62715
G01 X5.11825 Y0.63163
G01 X5.12098 Y0.63673
G01 X5.12266 Y0.64227
G01 X5.12323 Y0.64803
G01 X5.12323 Y0.77008
G00 Z-0.02362
G01 X5.12323 Y1.02598
G01 Z-0.04387 F50.00000
G01 F100.00000
G01 X5.12323 Y1.14803
G01 X5.12266 Y1.15379
G01 X5.12098 Y1.15933
G01 X5.11825 Y1.16444
G01 X5.11458 Y1.16891
G01 X5.11010 Y1.17258
G01 X5.10500 Y1.17531
G01 X5.09946 Y1.17699
G01 X5.09370 Y1.17756
G01 X5.08794 Y1.17699
G01 X5.08240 Y1.17531
G01 X5.07730 Y1.17258
G01 X5.07282 Y1.16891
G01 X4.91330 Y1.00939
G00 Z-0.02362
G01 X4.73234 Y0.82844
G01 Z-0.04387 F50.00000
G01 F100.00000
G01 X4.57282 Y0.66891
G01 X4.56915 Y0.66444
G01 X4.56642 Y0.65933
G01 X4.56474 Y0.65379
G01 X4.56417 Y0.64803
G01 Z-0.05118 F50.00000 ( plunge. )
G04 P0 ( dwell for no time -- G64 should not smooth over this point )
G01 F100.00000
G01 X4.56474 Y0.64227
G01 X4.56642 Y0.63673
G01 X4.56915 Y0.63163
G01 X4.57282 Y0.62715
G01 X4.57730 Y0.62348
G01 X4.58240 Y0.62075
G01 X4.58794 Y0.61907
G01 X4.59370 Y0.61850
G01 X4.71575 Y0.61850
G00 Z-0.02362
G01 X4.97165 Y0.61850
G01 Z-0.05118 F50.00000
G01 F100.00000
G01 X5.09370 Y0.61850
G01 X5.09946 Y0.61907
G01 X5.10500 Y0.62075
G01 X5.11010 Y0.62348
G01 X5.11458 Y0.62715
G01 X5.11825 Y0.63163
G01 X5.12098 Y0.63673
G01 X5.12266 Y0.64227
G01 X5.12323 Y0.64803
G01 X5.12323 Y0.77008
G00 Z-0.02362
G01 X5.12323 Y1.02598
G01 Z-0.05118 F50.00000
G01 F100.00000
G01 X5.12323 Y1.14803
G01 X5.12266 Y1.15379
G01 X5.12098 Y1.15933
G01 X5.11825 Y1.16444
G01 X5.11458 Y1.16891
G01 X5.11010 Y1.17258
G01 X5.10500 Y1.17531
G01 X5.09946 Y1.17699
G01 X5.09370 Y1.17756
G01 X5.08794 Y1.17699
G01 X5.08240 Y1.17531
G01 X5.07730 Y1.17258
G01 X5.07282 Y1.16891
G01 X4.91330 Y1.00939
G00 Z-0.02362
G01 X4.73234 Y0.82844
G01 Z-0.05118 F50.00000
G01 F100.00000
G01 X4.57282 Y0.66891
G01 X4.56915 Y0.66444
G01 X4.56642 Y0.65933
G01 X4.56474 Y0.65379
G01 X4.56417 Y0.64803
G04 P0 ( dwell for no time -- G64 should not smooth over this point )
G00 Z0.08000 ( retract )

G00 X5.86417 Y-1.05197 ( rapid move to begin. )
G01 Z-0.00731 F50.00000 ( plunge. )
G04 P0 ( dwell for no time -- G64 should not smooth over this point )
G01 F100.00000
G01 X5.86417 Y-0.35197
G01 X5.86474 Y-0.34621
G01 X5.86642 Y-0.34067
G01 X5.86915 Y-0.33556
G01 X5.87282 Y-0.33109
G01 X5.87730 Y-0.32742
G01 X5.88240 Y-0.32469
G01 X5.88794 Y-0.32301
G01 X5.89370 Y-0.32244
G01 X7.19370 Y-0.32244
G01 X7.19946 Y-0.32301
G01 X7.20500 Y-0.32469
G01 X7.21010 Y-0.32742
G01 X7.21458 Y-0.33109
G01 X7.21825 Y-0.33556
G01 X7.22098 Y-0.34067
G01 X7.22266 Y-0.34621
G01 X7.22323 Y-0.35197
G01 X7.22323 Y-1.05197
G01 X7.22266 Y-1.05773
G01 X7.22098 Y-1.06327
G01 X7.21825 Y-1.06837
G01 X7.21458 Y-1.07285
G01 X7.21010 Y-1.07652
G01 X7.20500 Y-1.07925
G01 X7.19946 Y-1.08093
G01 X7.19370 Y-1.08150
G01 X5.89370 Y-1.08150
G01 X5.88794 Y-1.08093
G01 X5.88240 Y-1.07925
G01 X5.87730 Y-1.07652
G01 X5.87282 Y-1.07285
G01 X5.86915 Y-1.06837
G01 X5.86642 Y-1.06327
G01 X5.86474 Y-1.05773
G01 X5.86417 Y-1.05197
G01 Z-0.01462 F50.00000 ( plunge. )
G04 P0 ( dwell for no time -- G64 should not smooth over this point )
G01 F100.00000
G01 X5.86417 Y-0.35197
G01 X5.86474 Y-0.34621
G01 X5.86642 Y-0.34067
G01 X5.86915 Y-0.33556
G01 X5.87282 Y-0.33109
G01 X5.87730 Y-0.32742
G01 X5.88240 Y-0.32469
G01 X5.88794 Y-0.32301
G01 X5.89370 Y-0.32244
G01 X7.19370 Y-0.32244
G01 X7.19946 Y-0.32301
G01 X7.20500 Y-0.32469
G01 X7.21010 Y-0.32742
G01 X7.21458 Y-0.33109
G01 X7.21825 Y-0.33556
G01 X7.22098 Y-0.34067
G01 X7.22266 Y-0.34621
G01 X7.22323 Y-0.35197
G01 X7.22323 Y-1.05197
G01 X7.22266 Y-1.05773
G01 X7.22098 Y-1.06327
G01 X7.21825 Y-1.06837
G01 X7.21458 Y-1.07285
G01 X7.21010 Y-1.07652
G01 X7.20500 Y-1.07925
G01 X7.19946 Y-1.08093
G01 X7.19370 Y-1.08150
G01 X5.89370 Y-1.08150
G01 X5.88794 Y-1.08093
G01 X5.88240 Y-1.07925
G01 X5.87730 Y-1.07652
G01 X5.87282 Y-1.07285
G01 X5.86915 Y-1.06837
G01 X5.86642 Y-1.06327
G01 X5.86474 Y-1.05773
G01 X5.86417 Y-1.05197
G01 Z-0.02193 F50.00000 ( plunge. )
G04 P0 ( dwell for no time -- G64 should not smooth over this point )
G01 F100.00000
G01 X5.86417 Y-0.35197
G01 X5.86474 Y-0.34621
G01 X5.86642 Y-0.34067
G01 X5.86915 Y-0.33556
G01 X5.87282 Y-0.33109
G01 X5.87730 Y-0.32742
G01 X5.88240 Y-0.32469
G01 X5.88794 Y-0.32301
G01 X5.89370 Y-0.32244
G01 X7.19370 Y-0.32244
G01 X7.19946 Y-0.32301
G01 X7.20500 Y-0.32469
G01 X7.21010 Y-0.32742
G01 X7.21458 Y-0.33109
G01 X7.21825 Y-0.33556
G01 X7.22098 Y-0.34067
G01 X7.22266 Y-0.34621
G01 X7.22323 Y-0.35197
G01 X7.22323 Y-1.05197
G01 X7.22266 Y-1.05773
G01 X7.22098 Y-1.06327
G01 X7.21825 Y-1.06837
G01 X7.21458 Y-1.07285
G01 X7.21010 Y-1.07652
G01 X7.20500 Y-1.07925
G01 X7.19946 Y-1.08093
G01 X7.19370 Y-1.08150
G01 X5.89370 Y-1.08150
G01 X5.88794 Y-1.08093
G01 X5.88240 Y-1.07925
G01 X5.87730 Y-1.07652
G01 X5.87282 Y-1.07285
G01 X5.86915 Y-1.06837
G01 X5.86642 Y-1.06327
G01 X5.86474 Y-1.05773
G01 X5.86417 Y-1.05197
G01 Z-0.02925 F50.00000 ( plunge. )
G04 P0 ( dwell for no time -- G64 should not smooth over this point )
G01 F100.00000
G01 X5.86417 Y-0.82992
G00 Z-0.02362
G01 X5.86417 Y-0.57402
G01 Z-0.02925 F50.00000
G01 F100.00000
G01 X5.86417 Y-0.35197
G01 X5.86474 Y-0.34621
G01 X5.86642 Y-0.34067
G01 X5.86915 Y-0.33556
G01 X5.87282 Y-0.33109
G01 X5.87730 Y-0.32742
G01 X5.88240 Y-0.32469
G01 X5.88794 Y-0.32301
G01 X5.89370 Y-0.32244
G01 X6.41575 Y-0.32244
G00 Z-0.02362
G01 X6.67165 Y-0.32244
G01 Z-0.02925 F50.00000
G01 F100.00000
G01 X7.19370 Y-0.32244
G01 X7.19946 Y-0.32301
G01 X7.20500 Y-0.32469
G01 X7.21010 Y-0.32742
G01 X7.21458 Y-0.33109
G01 X7.21825 Y-0.33556
G01 X7.22098 Y-0.34067
G01 X7.22266 Y-0.34621
G01 X7.22323 Y-0.35197
G01 X7.22323 Y-0.57402
G00 Z-0.02362
G01 X7.22323 Y-0.82992
G01 Z-0.02925 F50.00000
G01 F100.00000
G01 X7.22323 Y-1.05197
G01 X7.22266 Y-1.05773
G01 X7.22098 Y-1.06327
G01 X7.21825 Y-1.06837
G01 X7.21458 Y-1.07285
G01 X7.21010 Y-1.07652
G01 X7.20500 Y-1.07925
G01 X7.19946 Y-1.08093
G01 X7.19370 Y-1.08150
G01 X6.67165 Y-1.08150
G00 Z-0.02362
G01 X6.41575 Y-1.08150
G01 Z-0.02925 F50.00000
G01 F100.00000
G01 X5.89370 Y-1.08150
G01 X5.88794 Y-1.08093
G01 X5.88240 Y-1.07925
G01 X5.87730 Y-1.07652
G01 X5.87282 Y-1.07285
G01 X5.86915 Y-1.06837
G01 X5.86642 Y-1.06327
G01 X5.86474 Y-1.05773
G01 X5.86417 Y-1.05197
G01 Z-0.03656 F50.00000 ( plunge. )
G04 P0 ( dwell for no time -- G64 should not smooth over this point )
G01 F100.00000
G01 X5.86417 Y-0.82992
G00 Z-0.02362
G01 X5.86417 Y-0.57402
G01 Z-0.03656 F50.00000
G01 F100.00000
G01 X5.86417 Y-0.35197
G01 X5.86474 Y-0.34621
G01 X5.86642 Y-0.34067
G01 X5.86915 Y-0.33556
G01 X5.87282 Y-0.33109
G01 X5.87730 Y-0.32742
G01 X5.88240 Y-0.32469
G01 X5.88794 Y-0.32301
G01 X5.89370 Y-0.32244
G01 X6.41575 Y-0.32244
G00 Z-0.02362
G01 X6.67165 Y-0.32244
G01 Z-0.03656 F50.00000
G01 F100.00000
G01 X7.19370 Y-0.32244
G01 X7.19946 Y-0.32301
G01 X7.20500 Y-0.32469
G01 X7.21010 Y-0.32742
G01 X7.21458 Y-0.33109
G01 X7.21825 Y-0.33556
G01 X7.22098 Y-0.34067
G01 X7.22266 Y-0.34621
G01 X7.22323 Y-0.35197
G01 X7.22323 Y-0.57402
G00 Z-0.02362
G01 X7.22323 Y-0.82992
G01 Z-0.03656 F50.00000
G01 F100.00000
G01 X7.22323 Y-1.05197
G01 X7.22266 Y-1.05773
G01 X7.22098 Y-1.06327
G01 X7.21825 Y-1.06837
G01 X7.21458 Y-1.07285
G01 X7.21010 Y-1.07652
G01 X7.20500 Y-1.07925
G01 X7.19946 Y-1.08093
G01 X7.19370 Y-1.08150
G01 X6.67165 Y-1.08150
G00 Z-0.02362
G01 X6.41575 Y-1.08150
G01 Z-0.03656 F50.00000
G01 F100.00000
G01 X5.89370 Y-1.08150
G01 X5.88794 Y-1.08093
G01 X5.88240 Y-1.07925
G01 X5.87730 Y-1.07652
G01 X5.87282 Y-1.07285
G01 X5.86915 Y-1.06837
G01 X5.86642 Y-1.06327
G01 X5.86474 Y-1.05773
G01 X5.86417 Y-1.05197
G01 Z-0.04387 F50.00000 ( plunge. )
G04 P0 ( dwell for no time -- G64 should not smooth over this point )
G01 F100.00000
G01 X5.86417 Y-0.82992
G00 Z-0.02362
G01 X5.86417 Y-0.57402
G01 Z-0.04387 F50.00000
G01 F100.00000
G01 X5.86417 Y-0.35197
G01 X5.86474 Y-0.34621
G01 X5.86642 Y-0.34067
G01 X5.86915 Y-0.33556
G01 X5.87282 Y-0.33109
G01 X5.87730 Y-0.32742
G01 X5.88240 Y-0.32469
G01 X5.88794 Y-0.32301
G01 X5.89370 Y-0.32244
G01 X6.41575 Y-0.32244
G00 Z-0.02362
G01 X6.67165 Y-0.32244
G01 Z-0.04387 F50.00000
G01 F100.00000
G01 X7.19370 Y-0.32244
G01 X7.19946 Y-0.32301
G01 X7.20500 Y-0.32469
G01 X7.21010 Y-0.32742
G01 X7.21458 Y-0.33109
G01 X7.21825 Y-0.33556
G01 X7.22098 Y-0.34067
G01 X7.22266 Y-0.34621
G01 X7.22323 Y-0.35197
G01 X7.22323 Y-0.57402
G00 Z-0.02362
G01 X7.22323 Y-0.82992
G01 Z-0.04387 F50.00000
G01 F100.00000
G01 X7.22323 Y-1.05197
G01 X7.22266 Y-1.05773
G01 X7.22098 Y-1.06327
G01 X7.21825 Y-1.06837
G01 X7.21458 Y-1.07285
G01 X7.21010 Y-1.07652
G01 X7.20500 Y-1.07925
G01 X7.19946 Y-1.08093
G01 X7.19370 Y-1.08150
G01 X6.67165 Y-1.08150
G00 Z-0.02362
G01 X6.41575 Y-1.08150
G01 Z-0.04387 F50.00000
G01 F100.00000
G01 X5.89370 Y-1.08150
G01 X5.88794 Y-1.08093
G01 X5.88240 Y-1.07925
G01 X5.87730 Y-1.07652
G01 X5.87282 Y-1.07285
G01 X5.86915 Y-1.06837
G01 X5.86642 Y-1.06327
G01 X5.86474 Y-1.05773
G01 X5.86417 Y-1.05197
G01 Z-0.05118 F50.00000 ( plunge. )
G04 P0 ( dwell for no time -- G64 should not smooth over this point )
G01 F100.00000
G01 X5.86417 Y-0.82992
G00 Z-0.02362
G01 X5.86417 Y-0.57402
G01 Z-0.05118 F50.00000
G01 F100.00000
G01 X5.86417 Y-0.35197
G01 X5.86474 Y-0.34621
G01 X5.86642 Y-0.34067
G01 X5.86915 Y-0.33556
G01 X5.87282 Y-0.33109
G01 X5.87730 Y-0.32742
G01 X5.88240 Y-0.32469
G01 X5.88794 Y-0.32301
G01 X5.89370 Y-0.32244
G01 X6.41575 Y-0.32244
G00 Z-0.02362
G01 X6.67165 Y-0.32244
G01 Z-0.05118 F50.00000
G01 F100.00000
G01 X7.19370 Y-0.32244
G01 X7.19946 Y-0.32301
G01 X7.20500 Y-0.32469
G01 X7.21010 Y-0.32742
G01 X7.21458 Y-0.33109
G01 X7.21825 Y-0.33556
G01 X7.22098 Y-0.34067
G01 X7.22266 Y-0.34621
G01 X7.22323 Y-0.35197
G01 X7.22323 Y-0.57402
G00 Z-0.02362
G01 X7.22323 Y-0.82992
G01 Z-0.05118 F50.00000
G01 F100.00000
G01 X7.22323 Y-1.05197
G01 X7.22266 Y-1.05773
G01 X7.22098 Y-1.06327
G01 X7.21825 Y-1.06837
G01 X7.21458 Y-1.07285
G01 X7.21010 Y-1.07652
G01 X7.20500 Y-1.07925
G01 X7.19946 Y-1.08093
G01 X7.19370 Y-1.08150
G01 X6.67165 Y-1.08150
G00 Z-0.02362
G01 X6.41575 Y-1.08150
G01 Z-0.05118 F50.00000
G01 F100.00000
G01 X5.89370 Y-1.08150
G01 X5.88794 Y-1.08093
G01 X5.88240 Y-1.07925
G01 X5.87730 Y-1.07652
G01 X5.87282 Y-1.07285
G01 X5.86915 Y-1.06837
G01 X5.86642 Y-1.06327
G01 X5.86474 Y-1.05773
G01 X5.86417 Y-1.05197
( Piece #6, position [1;2] )

G04 P0 ( dwell for no time -- G64 should not smooth over this point )
G00 Z0.08000 ( retract )

G00 X7.28819 Y0.64803 ( rapid move to begin. )
G01 Z-0.00731 F50.00000 ( plunge. )
G04 P0 ( dwell for no time -- G64 should not smooth over this point )
G01 F100.00000
G01 X7.28876 Y0.64227
G01 X7.29044 Y0.63673
G01 X7.29316 Y0.63163
G01 X7.29684 Y0.62715
G01 X7.30131 Y0.62348
G01 X7.30642 Y0.62075
G01 X7.31195 Y0.61907
G01 X7.31772 Y0.61850
G01 X7.81772 Y0.61850
G01 X7.82348 Y0.61907
G01 X7.82902 Y0.62075
G01 X7.83412 Y0.62348
G01 X7.83860 Y0.62715
G01 X7.84227 Y0.63163
G01 X7.84500 Y0.63673
G01 X7.84668 Y0.64227
G01 X7.84724 Y0.64803
G01 X7.84724 Y1.14803
G01 X7.84668 Y1.15379
G01 X7.84500 Y1.15933
G01 X7.84227 Y1.16444
G01 X7.83860 Y1.16891
G01 X7.83412 Y1.17258
G01 X7.82902 Y1.17531
G01 X7.82348 Y1.17699
G01 X7.81772 Y1.17756
G01 X7.81196 Y1.17699
G01 X7.80642 Y1.17531
G01 X7.80131 Y1.17258
G01 X7.79684 Y1.16891
G01 X7.29684 Y0.66891
G01 X7.29316 Y0.66444
G01 X7.29044 Y0.65933
G01 X7.28876 Y0.65379
G01 X7.28819 Y0.64803
G01 Z-0.01462 F50.00000 ( plunge. )
G04 P0 ( dwell for no time -- G64 should not smooth over this point )
G01 F100.00000
G01 X7.28876 Y0.64227
G01 X7.29044 Y0.63673
G01 X7.29316 Y0.63163
G01 X7.29684 Y0.62715
G01 X7.30131 Y0.62348
G01 X7.30642 Y0.62075
G01 X7.31195 Y0.61907
G01 X7.31772 Y0.61850
G01 X7.81772 Y0.61850
G01 X7.82348 Y0.61907
G01 X7.82902 Y0.62075
G01 X7.83412 Y0.62348
G01 X7.83860 Y0.62715
G01 X7.84227 Y0.63163
G01 X7.84500 Y0.63673
G01 X7.84668 Y0.64227
G01 X7.84724 Y0.64803
G01 X7.84724 Y1.14803
G01 X7.84668 Y1.15379
G01 X7.84500 Y1.15933
G01 X7.84227 Y1.16444
G01 X7.83860 Y1.16891
G01 X7.83412 Y1.17258
G01 X7.82902 Y1.17531
G01 X7.82348 Y1.17699
G01 X7.81772 Y1.17756
G01 X7.81196 Y1.17699
G01 X7.80642 Y1.17531
G01 X7.80131 Y1.17258
G01 X7.79684 Y1.16891
G01 X7.29684 Y0.66891
G01 X7.29316 Y0.66444
G01 X7.29044 Y0.65933
G01 X7.28876 Y0.65379
G01 X7.28819 Y0.64803
G01 Z-0.02193 F50.00000 ( plunge. )
G04 P0 ( dwell for no time -- G64 should not smooth over this point )
G01 F100.00000
G01 X7.28876 Y0.64227
G01 X7.29044 Y0.63673
G01 X7.29316 Y0.63163
G01 X7.29684 Y0.62715
G01 X7.30131 Y0.62348
G01 X7.30642 Y0.62075
G01 X7.31195 Y0.61907
G01 X7.31772 Y0.61850
G01 X7.81772 Y0.61850
G01 X7.82348 Y0.61907
G01 X7.82902 Y0.62075
G01 X7.83412 Y0.62348
G01 X7.83860 Y0.62715
G01 X7.84227 Y0.63163
G01 X7.84500 Y0.63673
G01 X7.84668 Y0.64227
G01 X7.84724 Y0.64803
G01 X7.84724 Y1.14803
G01 X7.84668 Y1.15379
G01 X7.84500 Y1.15933
G01 X7.84227 Y1.16444
G01 X7.83860 Y1.16891
G01 X7.83412 Y1.17258
G01 X7.82902 Y1.17531
G01 X7.82348 Y1.17699
G01 X7.81772 Y1.17756
G01 X7.81196 Y1.17699
G01 X7.80642 Y1.17531
G01 X7.80131 Y1.17258
G01 X7.79684 Y1.16891
G01 X7.29684 Y0.66891
G01 X7.29316 Y0.66444
G01 X7.29044 Y0.65933
G01 X7.28876 Y0.65379
G01 X7.28819 Y0.64803
G01 Z-0.02925 F50.00000 ( plunge. )
G04 P0 ( dwell for no time -- G64 should not smooth over this point )
G01 F100.00000
G01 X7.28876 Y0.64227
G01 X7.29044 Y0.63673
G01 X7.29316 Y0.63163
G01 X7.29684 Y0.62715
G01 X7.30131 Y0.62348
G01 X7.30642 Y0.62075
G01 X7.31195 Y0.61907
G01 X7.31772 Y0.61850
G01 X7.43976 Y0.61850
G00 Z-0.02362
G01 X7.69567 Y0.61850
G01 Z-0.02925 F50.00000
G01 F100.00000
G01 X7.81772 Y0.61850
G01 X7.82348 Y0.61907
G01 X7.82902 Y0.62075
G01 X7.83412 Y0.62348
G01 X7.83860 Y0.62715
G01 X7.84227 Y0.63163
G01 X7.84500 Y0.63673
G01 X7.84668 Y0.64227
G01 X7.84724 Y0.64803
G01 X7.84724 Y0.77008
G00 Z-0.02362
G01 X7.84724 Y1.02598
G01 Z-0.02925 F50.00000
G01 F100.00000
G01 X7.84724 Y1.14803
G01 X7.84668 Y1.15379
G01 X7.84500 Y1.15933
G01 X7.84227 Y1.16444
G01 X7.83860 Y1.16891
G01 X7.83412 Y1.17258
G01 X7.82902 Y1.17531
G01 X7.82348 Y1.17699
G01 X7.81772 Y1.17756
G01 X7.81196 Y1.17699
G01 X7.80642 Y1.17531
G01 X7.80131 Y1.17258
G01 X7.79684 Y1.16891
G01 X7.63731 Y1.00939
G00 Z-0.02362
G01 X7.45636 Y0.82844
G01 Z-0.02925 F50.00000
G01 F100.00000
G01 X7.29684 Y0.66891
G01 X7.29316 Y0.66444
G01 X7.29044 Y0.65933
G01 X7.28876 Y0.65379
G01 X7.28819 Y0.64803
G01 Z-0.03656 F50.00000 ( plunge. )
G04 P0 ( dwell for no time -- G64 should not smooth over this point )
G01 F100.00000
G01 X7.28876 Y0.64227
G01 X7.29044 Y0.63673
G01 X7.29316 Y0.63163
G01 X7.29684 Y0.62715
G01 X7.30131 Y0.62348
G01 X7.30642 Y0.62075
G01 X7.31195 Y0.61907
G01 X7.31772 Y0.61850
G01 X7.43976 Y0.61850
G00 Z-0.02362
G01 X7.69567 Y0.61850
G01 Z-0.03656 F50.00000
G01 F100.00000
G01 X7.81772 Y0.61850
G01 X7.82348 Y0.61907
G01 X7.82902 Y0.62075
G01 X7.83412 Y0.62348
G01 X7.83860 Y0.62715
G01 X7.84227 Y0.63163
G01 X7.84500 Y0.63673
G01 X7.84668 Y0.64227
G01 X7.84724 Y0.64803
G01 X7.84724 Y0.77008
G00 Z-0.02362
G01 X7.84724 Y1.02598
G01 Z-0.03656 F50.00000
G01 F100.00000
G01 X7.84724 Y1.14803
G01 X7.84668 Y1.15379
G01 X7.84500 Y1.15933
G01 X7.84227 Y1.16444
G01 X7.83860 Y1.16891
G01 X7.83412 Y1.17258
G01 X7.82902 Y1.17531
G01 X7.82348 Y1.17699
G01 X7.81772 Y1.17756
G01 X7.81196 Y1.17699
G01 X7.80642 Y1.17531
G01 X7.80131 Y1.17258
G01 X7.79684 Y1.16891
G01 X7.63731 Y1.00939
G00 Z-0.02362
G01 X7.45636 Y0.82844
G01 Z-0.03656 F50.00000
G01 F100.00000
G01 X7.29684 Y0.66891
G01 X7.29316 Y0.66444
G01 X7.29044 Y0.65933
G01 X7.28876 Y0.65379
G01 X7.28819 Y0.64803
G01 Z-0.04387 F50.00000 ( plunge. )
G04 P0 ( dwell for no time -- G64 should not smooth over this point )
G01 F100.00000
G01 X7.28876 Y0.64227
G01 X7.29044 Y0.63673
G01 X7.29316 Y0.63163
G01 X7.29684 Y0.62715
G01 X7.30131 Y0.62348
G01 X7.30642 Y0.62075
G01 X7.31195 Y0.61907
G01 X7.31772 Y0.61850
G01 X7.43976 Y0.61850
G00 Z-0.02362
G01 X7.69567 Y0.61850
G01 Z-0.04387 F50.00000
G01 F100.00000
G01 X7.81772 Y0.61850
G01 X7.82348 Y0.61907
G01 X7.82902 Y0.62075
G01 X7.83412 Y0.62348
G01 X7.83860 Y0.62715
G01 X7.84227 Y0.63163
G01 X7.84500 Y0.63673
G01 X7.84668 Y0.64227
G01 X7.84724 Y0.64803
G01 X7.84724 Y0.77008
G00 Z-0.02362
G01 X7.84724 Y1.02598
G01 Z-0.04387 F50.00000
G01 F100.00000
G01 X7.84724 Y1.14803
G01 X7.84668 Y1.15379
G01 X7.84500 Y1.15933
G01 X7.84227 Y1.16444
G01 X7.83860 Y1.16891
G01 X7.83412 Y1.17258
G01 X7.82902 Y1.17531
G01 X7.82348 Y1.17699
G01 X7.81772 Y1.17756
G01 X7.81196 Y1.17699
G01 X7.80642 Y1.17531
G01 X7.80131 Y1.17258
G01 X7.79684 Y1.16891
G01 X7.63731 Y1.00939
G00 Z-0.02362
G01 X7.45636 Y0.82844
G01 Z-0.04387 F50.00000
G01 F100.00000
G01 X7.29684 Y0.66891
G01 X7.29316 Y0.66444
G01 X7.29044 Y0.65933
G01 X7.28876 Y0.65379
G01 X7.28819 Y0.64803
G01 Z-0.05118 F50.00000 ( plunge. )
G04 P0 ( dwell for no time -- G64 should not smooth over this point )
G01 F100.00000
G01 X7.28876 Y0.64227
G01 X7.29044 Y0.63673
G01 X7.29316 Y0.63163
G01 X7.29684 Y0.62715
G01 X7.30131 Y0.62348
G01 X7.30642 Y0.62075
G01 X7.31195 Y0.61907
G01 X7.31772 Y0.61850
G01 X7.43976 Y0.61850
G00 Z-0.02362
G01 X7.69567 Y0.61850
G01 Z-0.05118 F50.00000
G01 F100.00000
G01 X7.81772 Y0.61850
G01 X7.82348 Y0.61907
G01 X7.82902 Y0.62075
G01 X7.83412 Y0.62348
G01 X7.83860 Y0.62715
G01 X7.84227 Y0.63163
G01 X7.84500 Y0.63673
G01 X7.84668 Y0.64227
G01 X7.84724 Y0.64803
G01 X7.84724 Y0.77008
G00 Z-0.02362
G01 X7.84724 Y1.02598
G01 Z-0.05118 F50.00000
G01 F100.00000
G01 X7.84724 Y1.14803
G01 X7.84668 Y1.15379
G01 X7.84500 Y1.15933
G01 X7.84227 Y1.16444
G01 X7.83860 Y1.16891
G01 X7.83412 Y1.17258
G01 X7.82902 Y1.17531
G01 X7.82348 Y1.17699
G01 X7.81772 Y1.17756
G01 X7.81196 Y1.17699
G01 X7.80642 Y1.17531
G01 X7.80131 Y1.17258
G01 X7.79684 Y1.16891
G01 X7.63731 Y1.00939
G00 Z-0.02362
G01 X7.45636 Y0.82844
G01 Z-0.05118 F50.00000
G01 F100.00000
G01 X7.29684 Y0.66891
G01 X7.29316 Y0.66444
G01 X7.29044 Y0.65933
G01 X7.28876 Y0.65379
G01 X7.28819 Y0.64803
G04 P0 ( dwell for no time -- G64 should not smooth over this point )
G00 Z0.08000 ( retract )

G00 X8.58819 Y-1.05197 ( rapid move to begin. )
G01 Z-0.00731 F50.00000 ( plunge. )
G04 P0 ( dwell for no time -- G64 should not smooth over this point )
G01 F100.00000
G01 X8.58819 Y-0.35197
G01 X8.58876 Y-0.34621
G01 X8.59044 Y-0.34067
G01 X8.59316 Y-0.33556
G01 X8.59684 Y-0.33109
G01 X8.60131 Y-0.32742
G01 X8.60642 Y-0.32469
G01 X8.61196 Y-0.32301
G01 X8.61772 Y-0.32244
G01 X9.91772 Y-0.32244
G01 X9.92348 Y-0.32301
G01 X9.92902 Y-0.32469
G01 X9.93412 Y-0.32742
G01 X9.93860 Y-0.33109
G01 X9.94227 Y-0.33556
G01 X9.94500 Y-0.34067
G01 X9.94668 Y-0.34621
G01 X9.94724 Y-0.35197
G01 X9.94724 Y-1.05197
G01 X9.94668 Y-1.05773
G01 X9.94500 Y-1.06327
G01 X9.94227 Y-1.06837
G01 X9.93860 Y-1.07285
G01 X9.93412 Y-1.07652
G01 X9.92902 Y-1.07925
G01 X9.92348 Y-1.08093
G01 X9.91772 Y-1.08150
G01 X8.61772 Y-1.08150
G01 X8.61196 Y-1.08093
G01 X8.60642 Y-1.07925
G01 X8.60131 Y-1.07652
G01 X8.59684 Y-1.07285
G01 X8.59316 Y-1.06837
G01 X8.59044 Y-1.06327
G01 X8.58876 Y-1.05773
G01 X8.58819 Y-1.05197
G01 Z-0.01462 F50.00000 ( plunge. )
G04 P0 ( dwell for no time -- G64 should not smooth over this point )
G01 F100.00000
G01 X8.58819 Y-0.35197
G01 X8.58876 Y-0.34621
G01 X8.59044 Y-0.34067
G01 X8.59316 Y-0.33556
G01 X8.59684 Y-0.33109
G01 X8.60131 Y-0.32742
G01 X8.60642 Y-0.32469
G01 X8.61196 Y-0.32301
G01 X8.61772 Y-0.32244
G01 X9.91772 Y-0.32244
G01 X9.92348 Y-0.32301
G01 X9.92902 Y-0.32469
G01 X9.93412 Y-0.32742
G01 X9.93860 Y-0.33109
G01 X9.94227 Y-0.33556
G01 X9.94500 Y-0.34067
G01 X9.94668 Y-0.34621
G01 X9.94724 Y-0.35197
G01 X9.94724 Y-1.05197
G01 X9.94668 Y-1.05773
G01 X9.94500 Y-1.06327
G01 X9.94227 Y-1.06837
G01 X9.93860 Y-1.07285
G01 X9.93412 Y-1.07652
G01 X9.92902 Y-1.07925
G01 X9.92348 Y-1.08093
G01 X9.91772 Y-1.08150
G01 X8.61772 Y-1.08150
G01 X8.61196 Y-1.08093
G01 X8.60642 Y-1.07925
G01 X8.60131 Y-1.07652
G01 X8.59684 Y-1.07285
G01 X8.59316 Y-1.06837
G01 X8.59044 Y-1.06327
G01 X8.58876 Y-1.05773
G01 X8.58819 Y-1.05197
G01 Z-0.02193 F50.00000 ( plunge. )
G04 P0 ( dwell for no time -- G64 should not smooth over this point )
G01 F100.00000
G01 X8.58819 Y-0.35197
G01 X8.58876 Y-0.34621
G01 X8.59044 Y-0.34067
G01 X8.59316 Y-0.33556
G01 X8.59684 Y-0.33109
G01 X8.60131 Y-0.32742
G01 X8.60642 Y-0.32469
G01 X8.61196 Y-0.32301
G01 X8.61772 Y-0.32244
G01 X9.91772 Y-0.32244
G01 X9.92348 Y-0.32301
G01 X9.92902 Y-0.32469
G01 X9.93412 Y-0.32742
G01 X9.93860 Y-0.33109
G01 X9.94227 Y-0.33556
G01 X9.94500 Y-0.34067
G01 X9.94668 Y-0.34621
G01 X9.94724 Y-0.35197
G01 X9.94724 Y-1.05197
G01 X9.94668 Y-1.05773
G01 X9.94500 Y-1.06327
G01 X9.94227 Y-1.06837
G01 X9.93860 Y-1.07285
G01 X9.93412 Y-1.07652
G01 X9.92902 Y-1.07925
G01 X9.92348 Y-1.08093
G01 X9.91772 Y-1.08150
G01 X8.61772 Y-1.08150
G01 X8.61196 Y-1.08093
G01 X8.60642 Y-1.07925
G01 X8.60131 Y-1.07652
G01 X8.59684 Y-1.07285
G01 X8.59316 Y-1.06837
G01 X8.59044 Y-1.06327
G01 X8.58876 Y-1.05773
G01 X8.58819 Y-1.05197
G01 Z-0.02925 F50.00000 ( plunge. )
G04 P0 ( dwell for no time -- G64 should not smooth over this point )
G01 F100.00000
G01 X8.58819 Y-0.82992
G00 Z-0.02362
G01 X8.58819 Y-0.57402
G01 Z-0.02925 F50.00000
G01 F100.00000
G01 X8.58819 Y-0.35197
G01 X8.58876 Y-0.34621
G01 X8.59044 Y-0.34067
G01 X8.59316 Y-0.33556
G01 X8.59684 Y-0.33109
G01 X8.60131 Y-0.32742
G01 X8.60642 Y-0.32469
G01 X8.61196 Y-0.32301
G01 X8.61772 Y-0.32244
G01 X9.13976 Y-0.32244
G00 Z-0.02362
G01 X9.39567 Y-0.32244
G01 Z-0.02925 F50.00000
G01 F100.00000
G01 X9.91772 Y-0.32244
G01 X9.92348 Y-0.32301
G01 X9.92902 Y-0.32469
G01 X9.93412 Y-0.32742
G01 X9.93860 Y-0.33109
G01 X9.94227 Y-0.33556
G01 X9.94500 Y-0.34067
G01 X9.94668 Y-0.34621
G01 X9.94724 Y-0.35197
G01 X9.94724 Y-0.57402
G00 Z-0.02362
G01 X9.94724 Y-0.82992
G01 Z-0.02925 F50.00000
G01 F100.00000
G01 X9.94724 Y-1.05197
G01 X9.94668 Y-1.05773
G01 X9.94500 Y-1.06327
G01 X9.94227 Y-1.06837
G01 X9.93860 Y-1.07285
G01 X9.93412 Y-1.07652
G01 X9.92902 Y-1.07925
G01 X9.92348 Y-1.08093
G01 X9.91772 Y-1.08150
G01 X9.39567 Y-1.08150
G00 Z-0.02362
G01 X9.13976 Y-1.08150
G01 Z-0.02925 F50.00000
G01 F100.00000
G01 X8.61772 Y-1.08150
G01 X8.61196 Y-1.08093
G01 X8.60642 Y-1.07925
G01 X8.60131 Y-1.07652
G01 X8.59684 Y-1.07285
G01 X8.59316 Y-1.06837
G01 X8.59044 Y-1.06327
G01 X8.58876 Y-1.05773
G01 X8.58819 Y-1.05197
G01 Z-0.03656 F50.00000 ( plunge. )
G04 P0 ( dwell for no time -- G64 should not smooth over this point )
G01 F100.00000
G01 X8.58819 Y-0.82992
G00 Z-0.02362
G01 X8.58819 Y-0.57402
G01 Z-0.03656 F50.00000
G01 F100.00000
G01 X8.58819 Y-0.35197
G01 X8.58876 Y-0.34621
G01 X8.59044 Y-0.34067
G01 X8.59316 Y-0.33556
G01 X8.59684 Y-0.33109
G01 X8.60131 Y-0.32742
G01 X8.60642 Y-0.32469
G01 X8.61196 Y-0.32301
G01 X8.61772 Y-0.32244
G01 X9.13976 Y-0.32244
G00 Z-0.02362
G01 X9.39567 Y-0.32244
G01 Z-0.03656 F50.00000
G01 F100.00000
G01 X9.91772 Y-0.32244
G01 X9.92348 Y-0.32301
G01 X9.92902 Y-0.32469
G01 X9.93412 Y-0.32742
G01 X9.93860 Y-0.33109
G01 X9.94227 Y-0.33556
G01 X9.94500 Y-0.34067
G01 X9.94668 Y-0.34621
G01 X9.94724 Y-0.35197
G01 X9.94724 Y-0.57402
G00 Z-0.02362
G01 X9.94724 Y-0.82992
G01 Z-0.03656 F50.00000
G01 F100.00000
G01 X9.94724 Y-1.05197
G01 X9.94668 Y-1.05773
G01 X9.94500 Y-1.06327
G01 X9.94227 Y-1.06837
G01 X9.93860 Y-1.07285
G01 X9.93412 Y-1.07652
G01 X9.92902 Y-1.07925
G01 X9.92348 Y-1.08093
G01 X9.91772 Y-1.08150
G01 X9.39567 Y-1.08150
G00 Z-0.02362
G01 X9.13976 Y-1.08150
G01 Z-0.03656 F50.00000
G01 F100.00000
G01 X8.61772 Y-1.08150
G01 X8.61196 Y-1.08093
G01 X8.60642 Y-1.07925
G01 X8.60131 Y-1.07652
G01 X8.59684 Y-1.07285
G01 X8.59316 Y-1.06837
G01 X8.59044 Y-1.06327
G01 X8.58876 Y-1.05773
G01 X8.58819 Y-1.05197
G01 Z-0.04387 F50.00000 ( plunge. )
G04 P0 ( dwell for no time -- G64 should not smooth over this point )
G01 F100.00000
G01 X8.58819 Y-0.82992
G00 Z-0.02362
G01 X8.58819 Y-0.57402
G01 Z-0.04387 F50.00000
G01 F100.00000
G01 X8.58819 Y-0.35197
G01 X8.58876 Y-0.34621
G01 X8.59044 Y-0.34067
G01 X8.59316 Y-0.33556
G01 X8.59684 Y-0.33109
G01 X8.60131 Y-0.32742
G01 X8.60642 Y-0.32469
G01 X8.61196 Y-0.32301
G01 X8.61772 Y-0.32244
G01 X9.13976 Y-0.32244
G00 Z-0.02362
G01 X9.39567 Y-0.32244
G01 Z-0.04387 F50.00000
G01 F100.00000
G01 X9.91772 Y-0.32244
G01 X9.92348 Y-0.32301
G01 X9.92902 Y-0.32469
G01 X9.93412 Y-0.32742
G01 X9.93860 Y-0.33109
G01 X9.94227 Y-0.33556
G01 X9.94500 Y-0.34067
G01 X9.94668 Y-0.34621
G01 X9.94724 Y-0.35197
G01 X9.94724 Y-0.57402
G00 Z-0.02362
G01 X9.94724 Y-0.82992
G01 Z-0.04387 F50.00000
G01 F100.00000
G01 X9.94724 Y-1.05197
G01 X9.94668 Y-1.05773
G01 X9.94500 Y-1.06327
G01 X9.94227 Y-1.06837
G01 X9.93860 Y-1.07285
G01 X9.93412 Y-1.07652
G01 X9.92902 Y-1.07925
G01 X9.92348 Y-1.08093
G01 X9.91772 Y-1.08150
G01 X9.39567 Y-1.08150
G00 Z-0.02362
G01 X9.13976 Y-1.08150
G01 Z-0.04387 F50.00000
G01 F100.00000
G01 X8.61772 Y-1.08150
G01 X8.61196 Y-1.08093
G01 X8.60642 Y-1.07925
G01 X8.60131 Y-1.07652
G01 X8.59684 Y-1.07285
G01 X8.59316 Y-1.06837
G01 X8.59044 Y-1.06327
G01 X8.58876 Y-1.05773
G01 X8.58819 Y-1.05197
G01 Z-0.05118 F50.00000 ( plunge. )
G04 P0 ( dwell for no time -- G64 should not smooth over this point )
G01 F100.00000
G01 X8.58819 Y-0.82992
G00 Z-0.02362
G01 X8.58819 Y-0.57402
G01 Z-0.05118 F50.00000
G01 F100.00000
G01 X8.58819 Y-0.35197
G01 X8.58876 Y-0.34621
G01 X8.59044 Y-0.34067
G01 X8.59316 Y-0.33556
G01 X8.59684 Y-0.33109
G01 X8.60131 Y-0.32742
G01 X8.60642 Y-0.32469
G01 X8.61196 Y-0.32301
G01 X8.61772 Y-0.32244
G01 X9.13976 Y-0.32244
G00 Z-0.02362
G01 X9.39567 Y-0.32244
G01 Z-0.05118 F50.00000
G01 F100.00000
G01 X9.91772 Y-0.32244
G01 X9.92348 Y-0.32301
G01 X9.92902 Y-0.32469
G01 X9.93412 Y-0.32742
G01 X9.93860 Y-0.33109
G01 X9.94227 Y-0.33556
G01 X9.94500 Y-0.34067
G01 X9.94668 Y-0.34621
G01 X9.94724 Y-0.35197
G01 X9.94724 Y-0.57402
G00 Z-0.02362
G01 X9.94724 Y-0.82992
G01 Z-0.05118 F50.00000
G01 F100.00000
G01 X9.94724 Y-1.05197
G01 X9.94668 Y-1.05773
G01 X9.94500 Y-1.06327
G01 X9.94227 Y-1.06837
G01 X9.93860 Y-1.07285
G01 X9.93412 Y-1.07652
G01 X9.92902 Y-1.07925
G01 X9.92348 Y-1.08093
G01 X9.91772 Y-1.08150
G01 X9.39567 Y-1.08150
G00 Z-0.02362
G01 X9.13976 Y-1.08150
G01 Z-0.05118 F50.00000
G01 F100.00000
G01 X8.61772 Y-1.08150
G01 X8.61196 Y-1.08093
G01 X8.60642 Y-1.07925
G01 X8.60131 Y-1.07652
G01 X8.59684 Y-1.07285
G01 X8.59316 Y-1.06837
G01 X8.59044 Y-1.06327
G01 X8.58876 Y-1.05773
G01 X8.58819 Y-1.05197

G04 P0 ( dwell for no time -- G64 should not smooth over this point )
G00 Z1.000 ( retract )

M5 ( Spindle off. )
G04 P1.000000
M9 ( Coolant off. )
M2 ( Program end. )

